assets/cool.cube
TITLE "Kaique cool"
LUT_3D_SIZE 9
DOMAIN_MIN 0 0 0
DOMAIN_MAX 1 1 1
0.000000 0.000000 0.000000
0.121875 0.000000 0.000000
0.243750 0.000000 0.000000
0.365625 0.000000 0.000000
0.487500 0.000000 0.000000
0.609375 0.000000 0.000000
0.731250 0.000000 0.000000
0.853125 0.000000 0.000000
0.975000 0.000000 0.000000
0.000000 0.125000 0.000000
0.121875 0.125000 0.000000
0.243750 0.125000 0.000000
0.365625 0.125000 0.000000
0.487500 0.125000 0.000000
0.609375 0.125000 0.000000
0.731250 0.125000 0.000000
0.853125 0.125000 0.000000
0.975000 0.125000 0.000000
0.000000 0.250000 0.000000
0.121875 0.250000 0.000000
0.243750 0.250000 0.000000
0.365625 0.250000 0.000000
0.487500 0.250000 0.000000
0.609375 0.250000 0.000000
0.731250 0.250000 0.000000
0.853125 0.250000 0.000000
0.975000 0.250000 0.000000
0.000000 0.375000 0.000000
0.121875 0.375000 0.000000
0.243750 0.375000 0.000000
0.365625 0.375000 0.000000
0.487500 0.375000 0.000000
0.609375 0.375000 0.000000
0.731250 0.375000 0.000000
0.853125 0.375000 0.000000
0.975000 0.375000 0.000000
0.000000 0.500000 0.000000
0.121875 0.500000 0.000000
0.243750 0.500000 0.000000
0.365625 0.500000 0.000000
0.487500 0.500000 0.000000
0.609375 0.500000 0.000000
0.731250 0.500000 0.000000
0.853125 0.500000 0.000000
0.975000 0.500000 0.000000
0.000000 0.625000 0.000000
0.121875 0.625000 0.000000
0.243750 0.625000 0.000000
0.365625 0.625000 0.000000
0.487500 0.625000 0.000000
0.609375 0.625000 0.000000
0.731250 0.625000 0.000000
0.853125 0.625000 0.000000
0.975000 0.625000 0.000000
0.000000 0.750000 0.000000
0.121875 0.750000 0.000000
0.243750 0.750000 0.000000
0.365625 0.750000 0.000000
0.487500 0.750000 0.000000
0.609375 0.750000 0.000000
0.731250 0.750000 0.000000
0.853125 0.750000 0.000000
0.975000 0.750000 0.000000
0.000000 0.875000 0.000000
0.121875 0.875000 0.000000
0.243750 0.875000 0.000000
0.365625 0.875000 0.000000
0.487500 0.875000 0.000000
0.609375 0.875000 0.000000
0.731250 0.875000 0.000000
0.853125 0.875000 0.000000
0.975000 0.875000 0.000000
0.000000 1.000000 0.000000
0.121875 1.000000 0.000000
0.243750 1.000000 0.000000
0.365625 1.000000 0.000000
0.487500 1.000000 0.000000
0.609375 1.000000 0.000000
0.731250 1.000000 0.000000
0.853125 1.000000 0.000000
0.975000 1.000000 0.000000
0.000000 0.000000 0.128125
0.121875 0.000000 0.128125
0.243750 0.000000 0.128125
0.365625 0.000000 0.128125
0.487500 0.000000 0.128125
0.609375 0.000000 0.128125
0.731250 0.000000 0.128125
0.853125 0.000000 0.128125
0.975000 0.000000 0.128125
0.000000 0.125000 0.128125
0.121875 0.125000 0.128125
0.243750 0.125000 0.128125
0.365625 0.125000 0.128125
0.487500 0.125000 0.128125
0.609375 0.125000 0.128125
0.731250 0.125000 0.128125
0.853125 0.125000 0.128125
0.975000 0.125000 0.128125
0.000000 0.250000 0.128125
0.121875 0.250000 0.128125
0.243750 0.250000 0.128125
0.365625 0.250000 0.128125
0.487500 0.250000 0.128125
0.609375 0.250000 0.128125
0.731250 0.250000 0.128125
0.853125 0.250000 0.128125
0.975000 0.250000 0.128125
0.000000 0.375000 0.128125
0.121875 0.375000 0.128125
0.243750 0.375000 0.128125
0.365625 0.375000 0.128125
0.487500 0.375000 0.128125
0.609375 0.375000 0.128125
0.731250 0.375000 0.128125
0.853125 0.375000 0.128125
0.975000 0.375000 0.128125
0.000000 0.500000 0.128125
0.121875 0.500000 0.128125
0.243750 0.500000 0.128125
0.365625 0.500000 0.128125
0.487500 0.500000 0.128125
0.609375 0.500000 0.128125
0.731250 0.500000 0.128125
0.853125 0.500000 0.128125
0.975000 0.500000 0.128125
0.000000 0.625000 0.128125
0.121875 0.625000 0.128125
0.243750 0.625000 0.128125
0.365625 0.625000 0.128125
0.487500 0.625000 0.128125
0.609375 0.625000 0.128125
0.731250 0.625000 0.128125
0.853125 0.625000 0.128125
0.975000 0.625000 0.128125
0.000000 0.750000 0.128125
0.121875 0.750000 0.128125
0.243750 0.750000 0.128125
0.365625 0.750000 0.128125
0.487500 0.750000 0.128125
0.609375 0.750000 0.128125
0.731250 0.750000 0.128125
0.853125 0.750000 0.128125
0.975000 0.750000 0.128125
0.000000 0.875000 0.128125
0.121875 0.875000 0.128125
0.243750 0.875000 0.128125
0.365625 0.875000 0.128125
0.487500 0.875000 0.128125
0.609375 0.875000 0.128125
0.731250 0.875000 0.128125
0.853125 0.875000 0.128125
0.975000 0.875000 0.128125
0.000000 1.000000 0.128125
0.121875 1.000000 0.128125
0.243750 1.000000 0.128125
0.365625 1.000000 0.128125
0.487500 1.000000 0.128125
0.609375 1.000000 0.128125
0.731250 1.000000 0.128125
0.853125 1.000000 0.128125
0.975000 1.000000 0.128125
0.000000 0.000000 0.256250
0.121875 0.000000 0.256250
0.243750 0.000000 0.256250
0.365625 0.000000 0.256250
0.487500 0.000000 0.256250
0.609375 0.000000 0.256250
0.731250 0.000000 0.256250
0.853125 0.000000 0.256250
0.975000 0.000000 0.256250
0.000000 0.125000 0.256250
0.121875 0.125000 0.256250
0.243750 0.125000 0.256250
0.365625 0.125000 0.256250
0.487500 0.125000 0.256250
0.609375 0.125000 0.256250
0.731250 0.125000 0.256250
0.853125 0.125000 0.256250
0.975000 0.125000 0.256250
0.000000 0.250000 0.256250
0.121875 0.250000 0.256250
0.243750 0.250000 0.256250
0.365625 0.250000 0.256250
0.487500 0.250000 0.256250
0.609375 0.250000 0.256250
0.731250 0.250000 0.256250
0.853125 0.250000 0.256250
0.975000 0.250000 0.256250
0.000000 0.375000 0.256250
0.121875 0.375000 0.256250
0.243750 0.375000 0.256250
0.365625 0.375000 0.256250
0.487500 0.375000 0.256250
0.609375 0.375000 0.256250
0.731250 0.375000 0.256250
0.853125 0.375000 0.256250
0.975000 0.375000 0.256250
0.000000 0.500000 0.256250
0.121875 0.500000 0.256250
0.243750 0.500000 0.256250
0.365625 0.500000 0.256250
0.487500 0.500000 0.256250
0.609375 0.500000 0.256250
0.731250 0.500000 0.256250
0.853125 0.500000 0.256250
0.975000 0.500000 0.256250
0.000000 0.625000 0.256250
0.121875 0.625000 0.256250
0.243750 0.625000 0.256250
0.365625 0.625000 0.256250
0.487500 0.625000 0.256250
0.609375 0.625000 0.256250
0.731250 0.625000 0.256250
0.853125 0.625000 0.256250
0.975000 0.625000 0.256250
0.000000 0.750000 0.256250
0.121875 0.750000 0.256250
0.243750 0.750000 0.256250
0.365625 0.750000 0.256250
0.487500 0.750000 0.256250
0.609375 0.750000 0.256250
0.731250 0.750000 0.256250
0.853125 0.750000 0.256250
0.975000 0.750000 0.256250
0.000000 0.875000 0.256250
0.121875 0.875000 0.256250
0.243750 0.875000 0.256250
0.365625 0.875000 0.256250
0.487500 0.875000 0.256250
0.609375 0.875000 0.256250
0.731250 0.875000 0.256250
0.853125 0.875000 0.256250
0.975000 0.875000 0.256250
0.000000 1.000000 0.256250
0.121875 1.000000 0.256250
0.243750 1.000000 0.256250
0.365625 1.000000 0.256250
0.487500 1.000000 0.256250
0.609375 1.000000 0.256250
0.731250 1.000000 0.256250
0.853125 1.000000 0.256250
0.975000 1.000000 0.256250
0.000000 0.000000 0.384375
0.121875 0.000000 0.384375
0.243750 0.000000 0.384375
0.365625 0.000000 0.384375
0.487500 0.000000 0.384375
0.609375 0.000000 0.384375
0.731250 0.000000 0.384375
0.853125 0.000000 0.384375
0.975000 0.000000 0.384375
0.000000 0.125000 0.384375
0.121875 0.125000 0.384375
0.243750 0.125000 0.384375
0.365625 0.125000 0.384375
0.487500 0.125000 0.384375
0.609375 0.125000 0.384375
0.731250 0.125000 0.384375
0.853125 0.125000 0.384375
0.975000 0.125000 0.384375
0.000000 0.250000 0.384375
0.121875 0.250000 0.384375
0.243750 0.250000 0.384375
0.365625 0.250000 0.384375
0.487500 0.250000 0.384375
0.609375 0.250000 0.384375
0.731250 0.250000 0.384375
0.853125 0.250000 0.384375
0.975000 0.250000 0.384375
0.000000 0.375000 0.384375
0.121875 0.375000 0.384375
0.243750 0.375000 0.384375
0.365625 0.375000 0.384375
0.487500 0.375000 0.384375
0.609375 0.375000 0.384375
0.731250 0.375000 0.384375
0.853125 0.375000 0.384375
0.975000 0.375000 0.384375
0.000000 0.500000 0.384375
0.121875 0.500000 0.384375
0.243750 0.500000 0.384375
0.365625 0.500000 0.384375
0.487500 0.500000 0.384375
0.609375 0.500000 0.384375
0.731250 0.500000 0.384375
0.853125 0.500000 0.384375
0.975000 0.500000 0.384375
0.000000 0.625000 0.384375
0.121875 0.625000 0.384375
0.243750 0.625000 0.384375
0.365625 0.625000 0.384375
0.487500 0.625000 0.384375
0.609375 0.625000 0.384375
0.731250 0.625000 0.384375
0.853125 0.625000 0.384375
0.975000 0.625000 0.384375
0.000000 0.750000 0.384375
0.121875 0.750000 0.384375
0.243750 0.750000 0.384375
0.365625 0.750000 0.384375
0.487500 0.750000 0.384375
0.609375 0.750000 0.384375
0.731250 0.750000 0.384375
0.853125 0.750000 0.384375
0.975000 0.750000 0.384375
0.000000 0.875000 0.384375
0.121875 0.875000 0.384375
0.243750 0.875000 0.384375
0.365625 0.875000 0.384375
0.487500 0.875000 0.384375
0.609375 0.875000 0.384375
0.731250 0.875000 0.384375
0.853125 0.875000 0.384375
0.975000 0.875000 0.384375
0.000000 1.000000 0.384375
0.121875 1.000000 0.384375
0.243750 1.000000 0.384375
0.365625 1.000000 0.384375
0.487500 1.000000 0.384375
0.609375 1.000000 0.384375
0.731250 1.000000 0.384375
0.853125 1.000000 0.384375
0.975000 1.000000 0.384375
0.000000 0.000000 0.512500
0.121875 0.000000 0.512500
0.243750 0.000000 0.512500
0.365625 0.000000 0.512500
0.487500 0.000000 0.512500
0.609375 0.000000 0.512500
0.731250 0.000000 0.512500
0.853125 0.000000 0.512500
0.975000 0.000000 0.512500
0.000000 0.125000 0.512500
0.121875 0.125000 0.512500
0.243750 0.125000 0.512500
0.365625 0.125000 0.512500
0.487500 0.125000 0.512500
0.609375 0.125000 0.512500
0.731250 0.125000 0.512500
0.853125 0.125000 0.512500
0.975000 0.125000 0.512500
0.000000 0.250000 0.512500
0.121875 0.250000 0.512500
0.243750 0.250000 0.512500
0.365625 0.250000 0.512500
0.487500 0.250000 0.512500
0.609375 0.250000 0.512500
0.731250 0.250000 0.512500
0.853125 0.250000 0.512500
0.975000 0.250000 0.512500
0.000000 0.375000 0.512500
0.121875 0.375000 0.512500
0.243750 0.375000 0.512500
0.365625 0.375000 0.512500
0.487500 0.375000 0.512500
0.609375 0.375000 0.512500
0.731250 0.375000 0.512500
0.853125 0.375000 0.512500
0.975000 0.375000 0.512500
0.000000 0.500000 0.512500
0.121875 0.500000 0.512500
0.243750 0.500000 0.512500
0.365625 0.500000 0.512500
0.487500 0.500000 0.512500
0.609375 0.500000 0.512500
0.731250 0.500000 0.512500
0.853125 0.500000 0.512500
0.975000 0.500000 0.512500
0.000000 0.625000 0.512500
0.121875 0.625000 0.512500
0.243750 0.625000 0.512500
0.365625 0.625000 0.512500
0.487500 0.625000 0.512500
0.609375 0.625000 0.512500
0.731250 0.625000 0.512500
0.853125 0.625000 0.512500
0.975000 0.625000 0.512500
0.000000 0.750000 0.512500
0.121875 0.750000 0.512500
0.243750 0.750000 0.512500
0.365625 0.750000 0.512500
0.487500 0.750000 0.512500
0.609375 0.750000 0.512500
0.731250 0.750000 0.512500
0.853125 0.750000 0.512500
0.975000 0.750000 0.512500
0.000000 0.875000 0.512500
0.121875 0.875000 0.512500
0.243750 0.875000 0.512500
0.365625 0.875000 0.512500
0.487500 0.875000 0.512500
0.609375 0.875000 0.512500
0.731250 0.875000 0.512500
0.853125 0.875000 0.512500
0.975000 0.875000 0.512500
0.000000 1.000000 0.512500
0.121875 1.000000 0.512500
0.243750 1.000000 0.512500
0.365625 1.000000 0.512500
0.487500 1.000000 0.512500
0.609375 1.000000 0.512500
0.731250 1.000000 0.512500
0.853125 1.000000 0.512500
0.975000 1.000000 0.512500
0.000000 0.000000 0.640625
0.121875 0.000000 0.640625
0.243750 0.000000 0.640625
0.365625 0.000000 0.640625
0.487500 0.000000 0.640625
0.609375 0.000000 0.640625
0.731250 0.000000 0.640625
0.853125 0.000000 0.640625
0.975000 0.000000 0.640625
0.000000 0.125000 0.640625
0.121875 0.125000 0.640625
0.243750 0.125000 0.640625
0.365625 0.125000 0.640625
0.487500 0.125000 0.640625
0.609375 0.125000 0.640625
0.731250 0.125000 0.640625
0.853125 0.125000 0.640625
0.975000 0.125000 0.640625
0.000000 0.250000 0.640625
0.121875 0.250000 0.640625
0.243750 0.250000 0.640625
0.365625 0.250000 0.640625
0.487500 0.250000 0.640625
0.609375 0.250000 0.640625
0.731250 0.250000 0.640625
0.853125 0.250000 0.640625
0.975000 0.250000 0.640625
0.000000 0.375000 0.640625
0.121875 0.375000 0.640625
0.243750 0.375000 0.640625
0.365625 0.375000 0.640625
0.487500 0.375000 0.640625
0.609375 0.375000 0.640625
0.731250 0.375000 0.640625
0.853125 0.375000 0.640625
0.975000 0.375000 0.640625
0.000000 0.500000 0.640625
0.121875 0.500000 0.640625
0.243750 0.500000 0.640625
0.365625 0.500000 0.640625
0.487500 0.500000 0.640625
0.609375 0.500000 0.640625
0.731250 0.500000 0.640625
0.853125 0.500000 0.640625
0.975000 0.500000 0.640625
0.000000 0.625000 0.640625
0.121875 0.625000 0.640625
0.243750 0.625000 0.640625
0.365625 0.625000 0.640625
0.487500 0.625000 0.640625
0.609375 0.625000 0.640625
0.731250 0.625000 0.640625
0.853125 0.625000 0.640625
0.975000 0.625000 0.640625
0.000000 0.750000 0.640625
0.121875 0.750000 0.640625
0.243750 0.750000 0.640625
0.365625 0.750000 0.640625
0.487500 0.750000 0.640625
0.609375 0.750000 0.640625
0.731250 0.750000 0.640625
0.853125 0.750000 0.640625
0.975000 0.750000 0.640625
0.000000 0.875000 0.640625
0.121875 0.875000 0.640625
0.243750 0.875000 0.640625
0.365625 0.875000 0.640625
0.487500 0.875000 0.640625
0.609375 0.875000 0.640625
0.731250 0.875000 0.640625
0.853125 0.875000 0.640625
0.975000 0.875000 0.640625
0.000000 1.000000 0.640625
0.121875 1.000000 0.640625
0.243750 1.000000 0.640625
0.365625 1.000000 0.640625
0.487500 1.000000 0.640625
0.609375 1.000000 0.640625
0.731250 1.000000 0.640625
0.853125 1.000000 0.640625
0.975000 1.000000 0.640625
0.000000 0.000000 0.768750
0.121875 0.000000 0.768750
0.243750 0.000000 0.768750
0.365625 0.000000 0.768750
0.487500 0.000000 0.768750
0.609375 0.000000 0.768750
0.731250 0.000000 0.768750
0.853125 0.000000 0.768750
0.975000 0.000000 0.768750
0.000000 0.125000 0.768750
0.121875 0.125000 0.768750
0.243750 0.125000 0.768750
0.365625 0.125000 0.768750
0.487500 0.125000 0.768750
0.609375 0.125000 0.768750
0.731250 0.125000 0.768750
0.853125 0.125000 0.768750
0.975000 0.125000 0.768750
0.000000 0.250000 0.768750
0.121875 0.250000 0.768750
0.243750 0.250000 0.768750
0.365625 0.250000 0.768750
0.487500 0.250000 0.768750
0.609375 0.250000 0.768750
0.731250 0.250000 0.768750
0.853125 0.250000 0.768750
0.975000 0.250000 0.768750
0.000000 0.375000 0.768750
0.121875 0.375000 0.768750
0.243750 0.375000 0.768750
0.365625 0.375000 0.768750
0.487500 0.375000 0.768750
0.609375 0.375000 0.768750
0.731250 0.375000 0.768750
0.853125 0.375000 0.768750
0.975000 0.375000 0.768750
0.000000 0.500000 0.768750
0.121875 0.500000 0.768750
0.243750 0.500000 0.768750
0.365625 0.500000 0.768750
0.487500 0.500000 0.768750
0.609375 0.500000 0.768750
0.731250 0.500000 0.768750
0.853125 0.500000 0.768750
0.975000 0.500000 0.768750
0.000000 0.625000 0.768750
0.121875 0.625000 0.768750
0.243750 0.625000 0.768750
0.365625 0.625000 0.768750
0.487500 0.625000 0.768750
0.609375 0.625000 0.768750
0.731250 0.625000 0.768750
0.853125 0.625000 0.768750
0.975000 0.625000 0.768750
0.000000 0.750000 0.768750
0.121875 0.750000 0.768750
0.243750 0.750000 0.768750
0.365625 0.750000 0.768750
0.487500 0.750000 0.768750
0.609375 0.750000 0.768750
0.731250 0.750000 0.768750
0.853125 0.750000 0.768750
0.975000 0.750000 0.768750
0.000000 0.875000 0.768750
0.121875 0.875000 0.768750
0.243750 0.875000 0.768750
0.365625 0.875000 0.768750
0.487500 0.875000 0.768750
0.609375 0.875000 0.768750
0.731250 0.875000 0.768750
0.853125 0.875000 0.768750
0.975000 0.875000 0.768750
0.000000 1.000000 0.768750
0.121875 1.000000 0.768750
0.243750 1.000000 0.768750
0.365625 1.000000 0.768750
0.487500 1.000000 0.768750
0.609375 1.000000 0.768750
0.731250 1.000000 0.768750
0.853125 1.000000 0.768750
0.975000 1.000000 0.768750
0.000000 0.000000 0.896875
0.121875 0.000000 0.896875
0.243750 0.000000 0.896875
0.365625 0.000000 0.896875
0.487500 0.000000 0.896875
0.609375 0.000000 0.896875
0.731250 0.000000 0.896875
0.853125 0.000000 0.896875
0.975000 0.000000 0.896875
0.000000 0.125000 0.896875
0.121875 0.125000 0.896875
0.243750 0.125000 0.896875
0.365625 0.125000 0.896875
0.487500 0.125000 0.896875
0.609375 0.125000 0.896875
0.731250 0.125000 0.896875
0.853125 0.125000 0.896875
0.975000 0.125000 0.896875
0.000000 0.250000 0.896875
0.121875 0.250000 0.896875
0.243750 0.250000 0.896875
0.365625 0.250000 0.896875
0.487500 0.250000 0.896875
0.609375 0.250000 0.896875
0.731250 0.250000 0.896875
0.853125 0.250000 0.896875
0.975000 0.250000 0.896875
0.000000 0.375000 0.896875
0.121875 0.375000 0.896875
0.243750 0.375000 0.896875
0.365625 0.375000 0.896875
0.487500 0.375000 0.896875
0.609375 0.375000 0.896875
0.731250 0.375000 0.896875
0.853125 0.375000 0.896875
0.975000 0.375000 0.896875
0.000000 0.500000 0.896875
0.121875 0.500000 0.896875
0.243750 0.500000 0.896875
0.365625 0.500000 0.896875
0.487500 0.500000 0.896875
0.609375 0.500000 0.896875
0.731250 0.500000 0.896875
0.853125 0.500000 0.896875
0.975000 0.500000 0.896875
0.000000 0.625000 0.896875
0.121875 0.625000 0.896875
0.243750 0.625000 0.896875
0.365625 0.625000 0.896875
0.487500 0.625000 0.896875
0.609375 0.625000 0.896875
0.731250 0.625000 0.896875
0.853125 0.625000 0.896875
0.975000 0.625000 0.896875
0.000000 0.750000 0.896875
0.121875 0.750000 0.896875
0.243750 0.750000 0.896875
0.365625 0.750000 0.896875
0.487500 0.750000 0.896875
0.609375 0.750000 0.896875
0.731250 0.750000 0.896875
0.853125 0.750000 0.896875
0.975000 0.750000 0.896875
0.000000 0.875000 0.896875
0.121875 0.875000 0.896875
0.243750 0.875000 0.896875
0.365625 0.875000 0.896875
0.487500 0.875000 0.896875
0.609375 0.875000 0.896875
0.731250 0.875000 0.896875
0.853125 0.875000 0.896875
0.975000 0.875000 0.896875
0.000000 1.000000 0.896875
0.121875 1.000000 0.896875
0.243750 1.000000 0.896875
0.365625 1.000000 0.896875
0.487500 1.000000 0.896875
0.609375 1.000000 0.896875
0.731250 1.000000 0.896875
0.853125 1.000000 0.896875
0.975000 1.000000 0.896875
0.000000 0.000000 1.000000
0.121875 0.000000 1.000000
0.243750 0.000000 1.000000
0.365625 0.000000 1.000000
0.487500 0.000000 1.000000
0.609375 0.000000 1.000000
0.731250 0.000000 1.000000
0.853125 0.000000 1.000000
0.975000 0.000000 1.000000
0.000000 0.125000 1.000000
0.121875 0.125000 1.000000
0.243750 0.125000 1.000000
0.365625 0.125000 1.000000
0.487500 0.125000 1.000000
0.609375 0.125000 1.000000
0.731250 0.125000 1.000000
0.853125 0.125000 1.000000
0.975000 0.125000 1.000000
0.000000 0.250000 1.000000
0.121875 0.250000 1.000000
0.243750 0.250000 1.000000
0.365625 0.250000 1.000000
0.487500 0.250000 1.000000
0.609375 0.250000 1.000000
0.731250 0.250000 1.000000
0.853125 0.250000 1.000000
0.975000 0.250000 1.000000
0.000000 0.375000 1.000000
0.121875 0.375000 1.000000
0.243750 0.375000 1.000000
0.365625 0.375000 1.000000
0.487500 0.375000 1.000000
0.609375 0.375000 1.000000
0.731250 0.375000 1.000000
0.853125 0.375000 1.000000
0.975000 0.375000 1.000000
0.000000 0.500000 1.000000
0.121875 0.500000 1.000000
0.243750 0.500000 1.000000
0.365625 0.500000 1.000000
0.487500 0.500000 1.000000
0.609375 0.500000 1.000000
0.731250 0.500000 1.000000
0.853125 0.500000 1.000000
0.975000 0.500000 1.000000
0.000000 0.625000 1.000000
0.121875 0.625000 1.000000
0.243750 0.625000 1.000000
0.365625 0.625000 1.000000
0.487500 0.625000 1.000000
0.609375 0.625000 1.000000
0.731250 0.625000 1.000000
0.853125 0.625000 1.000000
0.975000 0.625000 1.000000
0.000000 0.750000 1.000000
0.121875 0.750000 1.000000
0.243750 0.750000 1.000000
0.365625 0.750000 1.000000
0.487500 0.750000 1.000000
0.609375 0.750000 1.000000
0.731250 0.750000 1.000000
0.853125 0.750000 1.000000
0.975000 0.750000 1.000000
0.000000 0.875000 1.000000
0.121875 0.875000 1.000000
0.243750 0.875000 1.000000
0.365625 0.875000 1.000000
0.487500 0.875000 1.000000
0.609375 0.875000 1.000000
0.731250 0.875000 1.000000
0.853125 0.875000 1.000000
0.975000 0.875000 1.000000
0.000000 1.000000 1.000000
0.121875 1.000000 1.000000
0.243750 1.000000 1.000000
0.365625 1.000000 1.000000
0.487500 1.000000 1.000000
0.609375 1.000000 1.000000
0.731250 1.000000 1.000000
0.853125 1.000000 1.000000
0.975000 1.000000 1.000000
