assets/cool.cube
TITLE "Kaique cool"
LUT_3D_SIZE 5
DOMAIN_MIN 0 0 0
DOMAIN_MAX 1 1 1
0.000000 0.000000 0.000000
0.243750 0.000000 0.000000
0.487500 0.000000 0.000000
0.731250 0.000000 0.000000
0.975000 0.000000 0.000000
0.000000 0.250000 0.000000
0.243750 0.250000 0.000000
0.487500 0.250000 0.000000
0.731250 0.250000 0.000000
0.975000 0.250000 0.000000
0.000000 0.500000 0.000000
0.243750 0.500000 0.000000
0.487500 0.500000 0.000000
0.731250 0.500000 0.000000
0.975000 0.500000 0.000000
0.000000 0.750000 0.000000
0.243750 0.750000 0.000000
0.487500 0.750000 0.000000
0.731250 0.750000 0.000000
0.975000 0.750000 0.000000
0.000000 1.000000 0.000000
0.243750 1.000000 0.000000
0.487500 1.000000 0.000000
0.731250 1.000000 0.000000
0.975000 1.000000 0.000000
0.000000 0.000000 0.256250
0.243750 0.000000 0.256250
0.487500 0.000000 0.256250
0.731250 0.000000 0.256250
0.975000 0.000000 0.256250
0.000000 0.250000 0.256250
0.243750 0.250000 0.256250
0.487500 0.250000 0.256250
0.731250 0.250000 0.256250
0.975000 0.250000 0.256250
0.000000 0.500000 0.256250
0.243750 0.500000 0.256250
0.487500 0.500000 0.256250
0.731250 0.500000 0.256250
0.975000 0.500000 0.256250
0.000000 0.750000 0.256250
0.243750 0.750000 0.256250
0.487500 0.750000 0.256250
0.731250 0.750000 0.256250
0.975000 0.750000 0.256250
0.000000 1.000000 0.256250
0.243750 1.000000 0.256250
0.487500 1.000000 0.256250
0.731250 1.000000 0.256250
0.975000 1.000000 0.256250
0.000000 0.000000 0.512500
0.243750 0.000000 0.512500
0.487500 0.000000 0.512500
0.731250 0.000000 0.512500
0.975000 0.000000 0.512500
0.000000 0.250000 0.512500
0.243750 0.250000 0.512500
0.487500 0.250000 0.512500
0.731250 0.250000 0.512500
0.975000 0.250000 0.512500
0.000000 0.500000 0.512500
0.243750 0.500000 0.512500
0.487500 0.500000 0.512500
0.731250 0.500000 0.512500
0.975000 0.500000 0.512500
0.000000 0.750000 0.512500
0.243750 0.750000 0.512500
0.487500 0.750000 0.512500
0.731250 0.750000 0.512500
0.975000 0.750000 0.512500
0.000000 1.000000 0.512500
0.243750 1.000000 0.512500
0.487500 1.000000 0.512500
0.731250 1.000000 0.512500
0.975000 1.000000 0.512500
0.000000 0.000000 0.768750
0.243750 0.000000 0.768750
0.487500 0.000000 0.768750
0.731250 0.000000 0.768750
0.975000 0.000000 0.768750
0.000000 0.250000 0.768750
0.243750 0.250000 0.768750
0.487500 0.250000 0.768750
0.731250 0.250000 0.768750
0.975000 0.250000 0.768750
0.000000 0.500000 0.768750
0.243750 0.500000 0.768750
0.487500 0.500000 0.768750
0.731250 0.500000 0.768750
0.975000 0.500000 0.768750
0.000000 0.750000 0.768750
0.243750 0.750000 0.768750
0.487500 0.750000 0.768750
0.731250 0.750000 0.768750
0.975000 0.750000 0.768750
0.000000 1.000000 0.768750
0.243750 1.000000 0.768750
0.487500 1.000000 0.768750
0.731250 1.000000 0.768750
0.975000 1.000000 0.768750
0.000000 0.000000 1.000000
0.243750 0.000000 1.000000
0.487500 0.000000 1.000000
0.731250 0.000000 1.000000
0.975000 0.000000 1.000000
0.000000 0.250000 1.000000
0.243750 0.250000 1.000000
0.487500 0.250000 1.000000
0.731250 0.250000 1.000000
0.975000 0.250000 1.000000
0.000000 0.500000 1.000000
0.243750 0.500000 1.000000
0.487500 0.500000 1.000000
0.731250 0.500000 1.000000
0.975000 0.500000 1.000000
0.000000 0.750000 1.000000
0.243750 0.750000 1.000000
0.487500 0.750000 1.000000
0.731250 0.750000 1.000000
0.975000 0.750000 1.000000
0.000000 1.000000 1.000000
0.243750 1.000000 1.000000
0.487500 1.000000 1.000000
0.731250 1.000000 1.000000
0.975000 1.000000 1.000000
