assets/cool.cube
TITLE "Kaique cool"
LUT_3D_SIZE 17
DOMAIN_MIN 0 0 0
DOMAIN_MAX 1 1 1
0.000000 0.000000 0.000000
0.060937 0.000000 0.000000
0.121875 0.000000 0.000000
0.182812 0.000000 0.000000
0.243750 0.000000 0.000000
0.304688 0.000000 0.000000
0.365625 0.000000 0.000000
0.426563 0.000000 0.000000
0.487500 0.000000 0.000000
0.548438 0.000000 0.000000
0.609375 0.000000 0.000000
0.670312 0.000000 0.000000
0.731250 0.000000 0.000000
0.792187 0.000000 0.000000
0.853125 0.000000 0.000000
0.914062 0.000000 0.000000
0.975000 0.000000 0.000000
0.000000 0.062500 0.000000
0.060937 0.062500 0.000000
0.121875 0.062500 0.000000
0.182812 0.062500 0.000000
0.243750 0.062500 0.000000
0.304688 0.062500 0.000000
0.365625 0.062500 0.000000
0.426563 0.062500 0.000000
0.487500 0.062500 0.000000
0.548438 0.062500 0.000000
0.609375 0.062500 0.000000
0.670312 0.062500 0.000000
0.731250 0.062500 0.000000
0.792187 0.062500 0.000000
0.853125 0.062500 0.000000
0.914062 0.062500 0.000000
0.975000 0.062500 0.000000
0.000000 0.125000 0.000000
0.060937 0.125000 0.000000
0.121875 0.125000 0.000000
0.182812 0.125000 0.000000
0.243750 0.125000 0.000000
0.304688 0.125000 0.000000
0.365625 0.125000 0.000000
0.426563 0.125000 0.000000
0.487500 0.125000 0.000000
0.548438 0.125000 0.000000
0.609375 0.125000 0.000000
0.670312 0.125000 0.000000
0.731250 0.125000 0.000000
0.792187 0.125000 0.000000
0.853125 0.125000 0.000000
0.914062 0.125000 0.000000
0.975000 0.125000 0.000000
0.000000 0.187500 0.000000
0.060937 0.187500 0.000000
0.121875 0.187500 0.000000
0.182812 0.187500 0.000000
0.243750 0.187500 0.000000
0.304688 0.187500 0.000000
0.365625 0.187500 0.000000
0.426563 0.187500 0.000000
0.487500 0.187500 0.000000
0.548438 0.187500 0.000000
0.609375 0.187500 0.000000
0.670312 0.187500 0.000000
0.731250 0.187500 0.000000
0.792187 0.187500 0.000000
0.853125 0.187500 0.000000
0.914062 0.187500 0.000000
0.975000 0.187500 0.000000
0.000000 0.250000 0.000000
0.060937 0.250000 0.000000
0.121875 0.250000 0.000000
0.182812 0.250000 0.000000
0.243750 0.250000 0.000000
0.304688 0.250000 0.000000
0.365625 0.250000 0.000000
0.426563 0.250000 0.000000
0.487500 0.250000 0.000000
0.548438 0.250000 0.000000
0.609375 0.250000 0.000000
0.670312 0.250000 0.000000
0.731250 0.250000 0.000000
0.792187 0.250000 0.000000
0.853125 0.250000 0.000000
0.914062 0.250000 0.000000
0.975000 0.250000 0.000000
0.000000 0.312500 0.000000
0.060937 0.312500 0.000000
0.121875 0.312500 0.000000
0.182812 0.312500 0.000000
0.243750 0.312500 0.000000
0.304688 0.312500 0.000000
0.365625 0.312500 0.000000
0.426563 0.312500 0.000000
0.487500 0.312500 0.000000
0.548438 0.312500 0.000000
0.609375 0.312500 0.000000
0.670312 0.312500 0.000000
0.731250 0.312500 0.000000
0.792187 0.312500 0.000000
0.853125 0.312500 0.000000
0.914062 0.312500 0.000000
0.975000 0.312500 0.000000
0.000000 0.375000 0.000000
0.060937 0.375000 0.000000
0.121875 0.375000 0.000000
0.182812 0.375000 0.000000
0.243750 0.375000 0.000000
0.304688 0.375000 0.000000
0.365625 0.375000 0.000000
0.426563 0.375000 0.000000
0.487500 0.375000 0.000000
0.548438 0.375000 0.000000
0.609375 0.375000 0.000000
0.670312 0.375000 0.000000
0.731250 0.375000 0.000000
0.792187 0.375000 0.000000
0.853125 0.375000 0.000000
0.914062 0.375000 0.000000
0.975000 0.375000 0.000000
0.000000 0.437500 0.000000
0.060937 0.437500 0.000000
0.121875 0.437500 0.000000
0.182812 0.437500 0.000000
0.243750 0.437500 0.000000
0.304688 0.437500 0.000000
0.365625 0.437500 0.000000
0.426563 0.437500 0.000000
0.487500 0.437500 0.000000
0.548438 0.437500 0.000000
0.609375 0.437500 0.000000
0.670312 0.437500 0.000000
0.731250 0.437500 0.000000
0.792187 0.437500 0.000000
0.853125 0.437500 0.000000
0.914062 0.437500 0.000000
0.975000 0.437500 0.000000
0.000000 0.500000 0.000000
0.060937 0.500000 0.000000
0.121875 0.500000 0.000000
0.182812 0.500000 0.000000
0.243750 0.500000 0.000000
0.304688 0.500000 0.000000
0.365625 0.500000 0.000000
0.426563 0.500000 0.000000
0.487500 0.500000 0.000000
0.548438 0.500000 0.000000
0.609375 0.500000 0.000000
0.670312 0.500000 0.000000
0.731250 0.500000 0.000000
0.792187 0.500000 0.000000
0.853125 0.500000 0.000000
0.914062 0.500000 0.000000
0.975000 0.500000 0.000000
0.000000 0.562500 0.000000
0.060937 0.562500 0.000000
0.121875 0.562500 0.000000
0.182812 0.562500 0.000000
0.243750 0.562500 0.000000
0.304688 0.562500 0.000000
0.365625 0.562500 0.000000
0.426563 0.562500 0.000000
0.487500 0.562500 0.000000
0.548438 0.562500 0.000000
0.609375 0.562500 0.000000
0.670312 0.562500 0.000000
0.731250 0.562500 0.000000
0.792187 0.562500 0.000000
0.853125 0.562500 0.000000
0.914062 0.562500 0.000000
0.975000 0.562500 0.000000
0.000000 0.625000 0.000000
0.060937 0.625000 0.000000
0.121875 0.625000 0.000000
0.182812 0.625000 0.000000
0.243750 0.625000 0.000000
0.304688 0.625000 0.000000
0.365625 0.625000 0.000000
0.426563 0.625000 0.000000
0.487500 0.625000 0.000000
0.548438 0.625000 0.000000
0.609375 0.625000 0.000000
0.670312 0.625000 0.000000
0.731250 0.625000 0.000000
0.792187 0.625000 0.000000
0.853125 0.625000 0.000000
0.914062 0.625000 0.000000
0.975000 0.625000 0.000000
0.000000 0.687500 0.000000
0.060937 0.687500 0.000000
0.121875 0.687500 0.000000
0.182812 0.687500 0.000000
0.243750 0.687500 0.000000
0.304688 0.687500 0.000000
0.365625 0.687500 0.000000
0.426563 0.687500 0.000000
0.487500 0.687500 0.000000
0.548438 0.687500 0.000000
0.609375 0.687500 0.000000
0.670312 0.687500 0.000000
0.731250 0.687500 0.000000
0.792187 0.687500 0.000000
0.853125 0.687500 0.000000
0.914062 0.687500 0.000000
0.975000 0.687500 0.000000
0.000000 0.750000 0.000000
0.060937 0.750000 0.000000
0.121875 0.750000 0.000000
0.182812 0.750000 0.000000
0.243750 0.750000 0.000000
0.304688 0.750000 0.000000
0.365625 0.750000 0.000000
0.426563 0.750000 0.000000
0.487500 0.750000 0.000000
0.548438 0.750000 0.000000
0.609375 0.750000 0.000000
0.670312 0.750000 0.000000
0.731250 0.750000 0.000000
0.792187 0.750000 0.000000
0.853125 0.750000 0.000000
0.914062 0.750000 0.000000
0.975000 0.750000 0.000000
0.000000 0.812500 0.000000
0.060937 0.812500 0.000000
0.121875 0.812500 0.000000
0.182812 0.812500 0.000000
0.243750 0.812500 0.000000
0.304688 0.812500 0.000000
0.365625 0.812500 0.000000
0.426563 0.812500 0.000000
0.487500 0.812500 0.000000
0.548438 0.812500 0.000000
0.609375 0.812500 0.000000
0.670312 0.812500 0.000000
0.731250 0.812500 0.000000
0.792187 0.812500 0.000000
0.853125 0.812500 0.000000
0.914062 0.812500 0.000000
0.975000 0.812500 0.000000
0.000000 0.875000 0.000000
0.060937 0.875000 0.000000
0.121875 0.875000 0.000000
0.182812 0.875000 0.000000
0.243750 0.875000 0.000000
0.304688 0.875000 0.000000
0.365625 0.875000 0.000000
0.426563 0.875000 0.000000
0.487500 0.875000 0.000000
0.548438 0.875000 0.000000
0.609375 0.875000 0.000000
0.670312 0.875000 0.000000
0.731250 0.875000 0.000000
0.792187 0.875000 0.000000
0.853125 0.875000 0.000000
0.914062 0.875000 0.000000
0.975000 0.875000 0.000000
0.000000 0.937500 0.000000
0.060937 0.937500 0.000000
0.121875 0.937500 0.000000
0.182812 0.937500 0.000000
0.243750 0.937500 0.000000
0.304688 0.937500 0.000000
0.365625 0.937500 0.000000
0.426563 0.937500 0.000000
0.487500 0.937500 0.000000
0.548438 0.937500 0.000000
0.609375 0.937500 0.000000
0.670312 0.937500 0.000000
0.731250 0.937500 0.000000
0.792187 0.937500 0.000000
0.853125 0.937500 0.000000
0.914062 0.937500 0.000000
0.975000 0.937500 0.000000
0.000000 1.000000 0.000000
0.060937 1.000000 0.000000
0.121875 1.000000 0.000000
0.182812 1.000000 0.000000
0.243750 1.000000 0.000000
0.304688 1.000000 0.000000
0.365625 1.000000 0.000000
0.426563 1.000000 0.000000
0.487500 1.000000 0.000000
0.548438 1.000000 0.000000
0.609375 1.000000 0.000000
0.670312 1.000000 0.000000
0.731250 1.000000 0.000000
0.792187 1.000000 0.000000
0.853125 1.000000 0.000000
0.914062 1.000000 0.000000
0.975000 1.000000 0.000000
0.000000 0.000000 0.064062
0.060937 0.000000 0.064062
0.121875 0.000000 0.064062
0.182812 0.000000 0.064062
0.243750 0.000000 0.064062
0.304688 0.000000 0.064062
0.365625 0.000000 0.064062
0.426563 0.000000 0.064062
0.487500 0.000000 0.064062
0.548438 0.000000 0.064062
0.609375 0.000000 0.064062
0.670312 0.000000 0.064062
0.731250 0.000000 0.064062
0.792187 0.000000 0.064062
0.853125 0.000000 0.064062
0.914062 0.000000 0.064062
0.975000 0.000000 0.064062
0.000000 0.062500 0.064062
0.060937 0.062500 0.064062
0.121875 0.062500 0.064062
0.182812 0.062500 0.064062
0.243750 0.062500 0.064062
0.304688 0.062500 0.064062
0.365625 0.062500 0.064062
0.426563 0.062500 0.064062
0.487500 0.062500 0.064062
0.548438 0.062500 0.064062
0.609375 0.062500 0.064062
0.670312 0.062500 0.064062
0.731250 0.062500 0.064062
0.792187 0.062500 0.064062
0.853125 0.062500 0.064062
0.914062 0.062500 0.064062
0.975000 0.062500 0.064062
0.000000 0.125000 0.064062
0.060937 0.125000 0.064062
0.121875 0.125000 0.064062
0.182812 0.125000 0.064062
0.243750 0.125000 0.064062
0.304688 0.125000 0.064062
0.365625 0.125000 0.064062
0.426563 0.125000 0.064062
0.487500 0.125000 0.064062
0.548438 0.125000 0.064062
0.609375 0.125000 0.064062
0.670312 0.125000 0.064062
0.731250 0.125000 0.064062
0.792187 0.125000 0.064062
0.853125 0.125000 0.064062
0.914062 0.125000 0.064062
0.975000 0.125000 0.064062
0.000000 0.187500 0.064062
0.060937 0.187500 0.064062
0.121875 0.187500 0.064062
0.182812 0.187500 0.064062
0.243750 0.187500 0.064062
0.304688 0.187500 0.064062
0.365625 0.187500 0.064062
0.426563 0.187500 0.064062
0.487500 0.187500 0.064062
0.548438 0.187500 0.064062
0.609375 0.187500 0.064062
0.670312 0.187500 0.064062
0.731250 0.187500 0.064062
0.792187 0.187500 0.064062
0.853125 0.187500 0.064062
0.914062 0.187500 0.064062
0.975000 0.187500 0.064062
0.000000 0.250000 0.064062
0.060937 0.250000 0.064062
0.121875 0.250000 0.064062
0.182812 0.250000 0.064062
0.243750 0.250000 0.064062
0.304688 0.250000 0.064062
0.365625 0.250000 0.064062
0.426563 0.250000 0.064062
0.487500 0.250000 0.064062
0.548438 0.250000 0.064062
0.609375 0.250000 0.064062
0.670312 0.250000 0.064062
0.731250 0.250000 0.064062
0.792187 0.250000 0.064062
0.853125 0.250000 0.064062
0.914062 0.250000 0.064062
0.975000 0.250000 0.064062
0.000000 0.312500 0.064062
0.060937 0.312500 0.064062
0.121875 0.312500 0.064062
0.182812 0.312500 0.064062
0.243750 0.312500 0.064062
0.304688 0.312500 0.064062
0.365625 0.312500 0.064062
0.426563 0.312500 0.064062
0.487500 0.312500 0.064062
0.548438 0.312500 0.064062
0.609375 0.312500 0.064062
0.670312 0.312500 0.064062
0.731250 0.312500 0.064062
0.792187 0.312500 0.064062
0.853125 0.312500 0.064062
0.914062 0.312500 0.064062
0.975000 0.312500 0.064062
0.000000 0.375000 0.064062
0.060937 0.375000 0.064062
0.121875 0.375000 0.064062
0.182812 0.375000 0.064062
0.243750 0.375000 0.064062
0.304688 0.375000 0.064062
0.365625 0.375000 0.064062
0.426563 0.375000 0.064062
0.487500 0.375000 0.064062
0.548438 0.375000 0.064062
0.609375 0.375000 0.064062
0.670312 0.375000 0.064062
0.731250 0.375000 0.064062
0.792187 0.375000 0.064062
0.853125 0.375000 0.064062
0.914062 0.375000 0.064062
0.975000 0.375000 0.064062
0.000000 0.437500 0.064062
0.060937 0.437500 0.064062
0.121875 0.437500 0.064062
0.182812 0.437500 0.064062
0.243750 0.437500 0.064062
0.304688 0.437500 0.064062
0.365625 0.437500 0.064062
0.426563 0.437500 0.064062
0.487500 0.437500 0.064062
0.548438 0.437500 0.064062
0.609375 0.437500 0.064062
0.670312 0.437500 0.064062
0.731250 0.437500 0.064062
0.792187 0.437500 0.064062
0.853125 0.437500 0.064062
0.914062 0.437500 0.064062
0.975000 0.437500 0.064062
0.000000 0.500000 0.064062
0.060937 0.500000 0.064062
0.121875 0.500000 0.064062
0.182812 0.500000 0.064062
0.243750 0.500000 0.064062
0.304688 0.500000 0.064062
0.365625 0.500000 0.064062
0.426563 0.500000 0.064062
0.487500 0.500000 0.064062
0.548438 0.500000 0.064062
0.609375 0.500000 0.064062
0.670312 0.500000 0.064062
0.731250 0.500000 0.064062
0.792187 0.500000 0.064062
0.853125 0.500000 0.064062
0.914062 0.500000 0.064062
0.975000 0.500000 0.064062
0.000000 0.562500 0.064062
0.060937 0.562500 0.064062
0.121875 0.562500 0.064062
0.182812 0.562500 0.064062
0.243750 0.562500 0.064062
0.304688 0.562500 0.064062
0.365625 0.562500 0.064062
0.426563 0.562500 0.064062
0.487500 0.562500 0.064062
0.548438 0.562500 0.064062
0.609375 0.562500 0.064062
0.670312 0.562500 0.064062
0.731250 0.562500 0.064062
0.792187 0.562500 0.064062
0.853125 0.562500 0.064062
0.914062 0.562500 0.064062
0.975000 0.562500 0.064062
0.000000 0.625000 0.064062
0.060937 0.625000 0.064062
0.121875 0.625000 0.064062
0.182812 0.625000 0.064062
0.243750 0.625000 0.064062
0.304688 0.625000 0.064062
0.365625 0.625000 0.064062
0.426563 0.625000 0.064062
0.487500 0.625000 0.064062
0.548438 0.625000 0.064062
0.609375 0.625000 0.064062
0.670312 0.625000 0.064062
0.731250 0.625000 0.064062
0.792187 0.625000 0.064062
0.853125 0.625000 0.064062
0.914062 0.625000 0.064062
0.975000 0.625000 0.064062
0.000000 0.687500 0.064062
0.060937 0.687500 0.064062
0.121875 0.687500 0.064062
0.182812 0.687500 0.064062
0.243750 0.687500 0.064062
0.304688 0.687500 0.064062
0.365625 0.687500 0.064062
0.426563 0.687500 0.064062
0.487500 0.687500 0.064062
0.548438 0.687500 0.064062
0.609375 0.687500 0.064062
0.670312 0.687500 0.064062
0.731250 0.687500 0.064062
0.792187 0.687500 0.064062
0.853125 0.687500 0.064062
0.914062 0.687500 0.064062
0.975000 0.687500 0.064062
0.000000 0.750000 0.064062
0.060937 0.750000 0.064062
0.121875 0.750000 0.064062
0.182812 0.750000 0.064062
0.243750 0.750000 0.064062
0.304688 0.750000 0.064062
0.365625 0.750000 0.064062
0.426563 0.750000 0.064062
0.487500 0.750000 0.064062
0.548438 0.750000 0.064062
0.609375 0.750000 0.064062
0.670312 0.750000 0.064062
0.731250 0.750000 0.064062
0.792187 0.750000 0.064062
0.853125 0.750000 0.064062
0.914062 0.750000 0.064062
0.975000 0.750000 0.064062
0.000000 0.812500 0.064062
0.060937 0.812500 0.064062
0.121875 0.812500 0.064062
0.182812 0.812500 0.064062
0.243750 0.812500 0.064062
0.304688 0.812500 0.064062
0.365625 0.812500 0.064062
0.426563 0.812500 0.064062
0.487500 0.812500 0.064062
0.548438 0.812500 0.064062
0.609375 0.812500 0.064062
0.670312 0.812500 0.064062
0.731250 0.812500 0.064062
0.792187 0.812500 0.064062
0.853125 0.812500 0.064062
0.914062 0.812500 0.064062
0.975000 0.812500 0.064062
0.000000 0.875000 0.064062
0.060937 0.875000 0.064062
0.121875 0.875000 0.064062
0.182812 0.875000 0.064062
0.243750 0.875000 0.064062
0.304688 0.875000 0.064062
0.365625 0.875000 0.064062
0.426563 0.875000 0.064062
0.487500 0.875000 0.064062
0.548438 0.875000 0.064062
0.609375 0.875000 0.064062
0.670312 0.875000 0.064062
0.731250 0.875000 0.064062
0.792187 0.875000 0.064062
0.853125 0.875000 0.064062
0.914062 0.875000 0.064062
0.975000 0.875000 0.064062
0.000000 0.937500 0.064062
0.060937 0.937500 0.064062
0.121875 0.937500 0.064062
0.182812 0.937500 0.064062
0.243750 0.937500 0.064062
0.304688 0.937500 0.064062
0.365625 0.937500 0.064062
0.426563 0.937500 0.064062
0.487500 0.937500 0.064062
0.548438 0.937500 0.064062
0.609375 0.937500 0.064062
0.670312 0.937500 0.064062
0.731250 0.937500 0.064062
0.792187 0.937500 0.064062
0.853125 0.937500 0.064062
0.914062 0.937500 0.064062
0.975000 0.937500 0.064062
0.000000 1.000000 0.064062
0.060937 1.000000 0.064062
0.121875 1.000000 0.064062
0.182812 1.000000 0.064062
0.243750 1.000000 0.064062
0.304688 1.000000 0.064062
0.365625 1.000000 0.064062
0.426563 1.000000 0.064062
0.487500 1.000000 0.064062
0.548438 1.000000 0.064062
0.609375 1.000000 0.064062
0.670312 1.000000 0.064062
0.731250 1.000000 0.064062
0.792187 1.000000 0.064062
0.853125 1.000000 0.064062
0.914062 1.000000 0.064062
0.975000 1.000000 0.064062
0.000000 0.000000 0.128125
0.060937 0.000000 0.128125
0.121875 0.000000 0.128125
0.182812 0.000000 0.128125
0.243750 0.000000 0.128125
0.304688 0.000000 0.128125
0.365625 0.000000 0.128125
0.426563 0.000000 0.128125
0.487500 0.000000 0.128125
0.548438 0.000000 0.128125
0.609375 0.000000 0.128125
0.670312 0.000000 0.128125
0.731250 0.000000 0.128125
0.792187 0.000000 0.128125
0.853125 0.000000 0.128125
0.914062 0.000000 0.128125
0.975000 0.000000 0.128125
0.000000 0.062500 0.128125
0.060937 0.062500 0.128125
0.121875 0.062500 0.128125
0.182812 0.062500 0.128125
0.243750 0.062500 0.128125
0.304688 0.062500 0.128125
0.365625 0.062500 0.128125
0.426563 0.062500 0.128125
0.487500 0.062500 0.128125
0.548438 0.062500 0.128125
0.609375 0.062500 0.128125
0.670312 0.062500 0.128125
0.731250 0.062500 0.128125
0.792187 0.062500 0.128125
0.853125 0.062500 0.128125
0.914062 0.062500 0.128125
0.975000 0.062500 0.128125
0.000000 0.125000 0.128125
0.060937 0.125000 0.128125
0.121875 0.125000 0.128125
0.182812 0.125000 0.128125
0.243750 0.125000 0.128125
0.304688 0.125000 0.128125
0.365625 0.125000 0.128125
0.426563 0.125000 0.128125
0.487500 0.125000 0.128125
0.548438 0.125000 0.128125
0.609375 0.125000 0.128125
0.670312 0.125000 0.128125
0.731250 0.125000 0.128125
0.792187 0.125000 0.128125
0.853125 0.125000 0.128125
0.914062 0.125000 0.128125
0.975000 0.125000 0.128125
0.000000 0.187500 0.128125
0.060937 0.187500 0.128125
0.121875 0.187500 0.128125
0.182812 0.187500 0.128125
0.243750 0.187500 0.128125
0.304688 0.187500 0.128125
0.365625 0.187500 0.128125
0.426563 0.187500 0.128125
0.487500 0.187500 0.128125
0.548438 0.187500 0.128125
0.609375 0.187500 0.128125
0.670312 0.187500 0.128125
0.731250 0.187500 0.128125
0.792187 0.187500 0.128125
0.853125 0.187500 0.128125
0.914062 0.187500 0.128125
0.975000 0.187500 0.128125
0.000000 0.250000 0.128125
0.060937 0.250000 0.128125
0.121875 0.250000 0.128125
0.182812 0.250000 0.128125
0.243750 0.250000 0.128125
0.304688 0.250000 0.128125
0.365625 0.250000 0.128125
0.426563 0.250000 0.128125
0.487500 0.250000 0.128125
0.548438 0.250000 0.128125
0.609375 0.250000 0.128125
0.670312 0.250000 0.128125
0.731250 0.250000 0.128125
0.792187 0.250000 0.128125
0.853125 0.250000 0.128125
0.914062 0.250000 0.128125
0.975000 0.250000 0.128125
0.000000 0.312500 0.128125
0.060937 0.312500 0.128125
0.121875 0.312500 0.128125
0.182812 0.312500 0.128125
0.243750 0.312500 0.128125
0.304688 0.312500 0.128125
0.365625 0.312500 0.128125
0.426563 0.312500 0.128125
0.487500 0.312500 0.128125
0.548438 0.312500 0.128125
0.609375 0.312500 0.128125
0.670312 0.312500 0.128125
0.731250 0.312500 0.128125
0.792187 0.312500 0.128125
0.853125 0.312500 0.128125
0.914062 0.312500 0.128125
0.975000 0.312500 0.128125
0.000000 0.375000 0.128125
0.060937 0.375000 0.128125
0.121875 0.375000 0.128125
0.182812 0.375000 0.128125
0.243750 0.375000 0.128125
0.304688 0.375000 0.128125
0.365625 0.375000 0.128125
0.426563 0.375000 0.128125
0.487500 0.375000 0.128125
0.548438 0.375000 0.128125
0.609375 0.375000 0.128125
0.670312 0.375000 0.128125
0.731250 0.375000 0.128125
0.792187 0.375000 0.128125
0.853125 0.375000 0.128125
0.914062 0.375000 0.128125
0.975000 0.375000 0.128125
0.000000 0.437500 0.128125
0.060937 0.437500 0.128125
0.121875 0.437500 0.128125
0.182812 0.437500 0.128125
0.243750 0.437500 0.128125
0.304688 0.437500 0.128125
0.365625 0.437500 0.128125
0.426563 0.437500 0.128125
0.487500 0.437500 0.128125
0.548438 0.437500 0.128125
0.609375 0.437500 0.128125
0.670312 0.437500 0.128125
0.731250 0.437500 0.128125
0.792187 0.437500 0.128125
0.853125 0.437500 0.128125
0.914062 0.437500 0.128125
0.975000 0.437500 0.128125
0.000000 0.500000 0.128125
0.060937 0.500000 0.128125
0.121875 0.500000 0.128125
0.182812 0.500000 0.128125
0.243750 0.500000 0.128125
0.304688 0.500000 0.128125
0.365625 0.500000 0.128125
0.426563 0.500000 0.128125
0.487500 0.500000 0.128125
0.548438 0.500000 0.128125
0.609375 0.500000 0.128125
0.670312 0.500000 0.128125
0.731250 0.500000 0.128125
0.792187 0.500000 0.128125
0.853125 0.500000 0.128125
0.914062 0.500000 0.128125
0.975000 0.500000 0.128125
0.000000 0.562500 0.128125
0.060937 0.562500 0.128125
0.121875 0.562500 0.128125
0.182812 0.562500 0.128125
0.243750 0.562500 0.128125
0.304688 0.562500 0.128125
0.365625 0.562500 0.128125
0.426563 0.562500 0.128125
0.487500 0.562500 0.128125
0.548438 0.562500 0.128125
0.609375 0.562500 0.128125
0.670312 0.562500 0.128125
0.731250 0.562500 0.128125
0.792187 0.562500 0.128125
0.853125 0.562500 0.128125
0.914062 0.562500 0.128125
0.975000 0.562500 0.128125
0.000000 0.625000 0.128125
0.060937 0.625000 0.128125
0.121875 0.625000 0.128125
0.182812 0.625000 0.128125
0.243750 0.625000 0.128125
0.304688 0.625000 0.128125
0.365625 0.625000 0.128125
0.426563 0.625000 0.128125
0.487500 0.625000 0.128125
0.548438 0.625000 0.128125
0.609375 0.625000 0.128125
0.670312 0.625000 0.128125
0.731250 0.625000 0.128125
0.792187 0.625000 0.128125
0.853125 0.625000 0.128125
0.914062 0.625000 0.128125
0.975000 0.625000 0.128125
0.000000 0.687500 0.128125
0.060937 0.687500 0.128125
0.121875 0.687500 0.128125
0.182812 0.687500 0.128125
0.243750 0.687500 0.128125
0.304688 0.687500 0.128125
0.365625 0.687500 0.128125
0.426563 0.687500 0.128125
0.487500 0.687500 0.128125
0.548438 0.687500 0.128125
0.609375 0.687500 0.128125
0.670312 0.687500 0.128125
0.731250 0.687500 0.128125
0.792187 0.687500 0.128125
0.853125 0.687500 0.128125
0.914062 0.687500 0.128125
0.975000 0.687500 0.128125
0.000000 0.750000 0.128125
0.060937 0.750000 0.128125
0.121875 0.750000 0.128125
0.182812 0.750000 0.128125
0.243750 0.750000 0.128125
0.304688 0.750000 0.128125
0.365625 0.750000 0.128125
0.426563 0.750000 0.128125
0.487500 0.750000 0.128125
0.548438 0.750000 0.128125
0.609375 0.750000 0.128125
0.670312 0.750000 0.128125
0.731250 0.750000 0.128125
0.792187 0.750000 0.128125
0.853125 0.750000 0.128125
0.914062 0.750000 0.128125
0.975000 0.750000 0.128125
0.000000 0.812500 0.128125
0.060937 0.812500 0.128125
0.121875 0.812500 0.128125
0.182812 0.812500 0.128125
0.243750 0.812500 0.128125
0.304688 0.812500 0.128125
0.365625 0.812500 0.128125
0.426563 0.812500 0.128125
0.487500 0.812500 0.128125
0.548438 0.812500 0.128125
0.609375 0.812500 0.128125
0.670312 0.812500 0.128125
0.731250 0.812500 0.128125
0.792187 0.812500 0.128125
0.853125 0.812500 0.128125
0.914062 0.812500 0.128125
0.975000 0.812500 0.128125
0.000000 0.875000 0.128125
0.060937 0.875000 0.128125
0.121875 0.875000 0.128125
0.182812 0.875000 0.128125
0.243750 0.875000 0.128125
0.304688 0.875000 0.128125
0.365625 0.875000 0.128125
0.426563 0.875000 0.128125
0.487500 0.875000 0.128125
0.548438 0.875000 0.128125
0.609375 0.875000 0.128125
0.670312 0.875000 0.128125
0.731250 0.875000 0.128125
0.792187 0.875000 0.128125
0.853125 0.875000 0.128125
0.914062 0.875000 0.128125
0.975000 0.875000 0.128125
0.000000 0.937500 0.128125
0.060937 0.937500 0.128125
0.121875 0.937500 0.128125
0.182812 0.937500 0.128125
0.243750 0.937500 0.128125
0.304688 0.937500 0.128125
0.365625 0.937500 0.128125
0.426563 0.937500 0.128125
0.487500 0.937500 0.128125
0.548438 0.937500 0.128125
0.609375 0.937500 0.128125
0.670312 0.937500 0.128125
0.731250 0.937500 0.128125
0.792187 0.937500 0.128125
0.853125 0.937500 0.128125
0.914062 0.937500 0.128125
0.975000 0.937500 0.128125
0.000000 1.000000 0.128125
0.060937 1.000000 0.128125
0.121875 1.000000 0.128125
0.182812 1.000000 0.128125
0.243750 1.000000 0.128125
0.304688 1.000000 0.128125
0.365625 1.000000 0.128125
0.426563 1.000000 0.128125
0.487500 1.000000 0.128125
0.548438 1.000000 0.128125
0.609375 1.000000 0.128125
0.670312 1.000000 0.128125
0.731250 1.000000 0.128125
0.792187 1.000000 0.128125
0.853125 1.000000 0.128125
0.914062 1.000000 0.128125
0.975000 1.000000 0.128125
0.000000 0.000000 0.192187
0.060937 0.000000 0.192187
0.121875 0.000000 0.192187
0.182812 0.000000 0.192187
0.243750 0.000000 0.192187
0.304688 0.000000 0.192187
0.365625 0.000000 0.192187
0.426563 0.000000 0.192187
0.487500 0.000000 0.192187
0.548438 0.000000 0.192187
0.609375 0.000000 0.192187
0.670312 0.000000 0.192187
0.731250 0.000000 0.192187
0.792187 0.000000 0.192187
0.853125 0.000000 0.192187
0.914062 0.000000 0.192187
0.975000 0.000000 0.192187
0.000000 0.062500 0.192187
0.060937 0.062500 0.192187
