assets/soft.cube
TITLE "Kaique soft"
LUT_3D_SIZE 9
DOMAIN_MIN 0 0 0
DOMAIN_MAX 1 1 1
0.025000 0.025000 0.025000
0.143750 0.025000 0.025000
0.262500 0.025000 0.025000
0.381250 0.025000 0.025000
0.500000 0.025000 0.025000
0.618750 0.025000 0.025000
0.737500 0.025000 0.025000
0.856250 0.025000 0.025000
0.975000 0.025000 0.025000
0.025000 0.143750 0.025000
0.143750 0.143750 0.025000
0.262500 0.143750 0.025000
0.381250 0.143750 0.025000
0.500000 0.143750 0.025000
0.618750 0.143750 0.025000
0.737500 0.143750 0.025000
0.856250 0.143750 0.025000
0.975000 0.143750 0.025000
0.025000 0.262500 0.025000
0.143750 0.262500 0.025000
0.262500 0.262500 0.025000
0.381250 0.262500 0.025000
0.500000 0.262500 0.025000
0.618750 0.262500 0.025000
0.737500 0.262500 0.025000
0.856250 0.262500 0.025000
0.975000 0.262500 0.025000
0.025000 0.381250 0.025000
0.143750 0.381250 0.025000
0.262500 0.381250 0.025000
0.381250 0.381250 0.025000
0.500000 0.381250 0.025000
0.618750 0.381250 0.025000
0.737500 0.381250 0.025000
0.856250 0.381250 0.025000
0.975000 0.381250 0.025000
0.025000 0.500000 0.025000
0.143750 0.500000 0.025000
0.262500 0.500000 0.025000
0.381250 0.500000 0.025000
0.500000 0.500000 0.025000
0.618750 0.500000 0.025000
0.737500 0.500000 0.025000
0.856250 0.500000 0.025000
0.975000 0.500000 0.025000
0.025000 0.618750 0.025000
0.143750 0.618750 0.025000
0.262500 0.618750 0.025000
0.381250 0.618750 0.025000
0.500000 0.618750 0.025000
0.618750 0.618750 0.025000
0.737500 0.618750 0.025000
0.856250 0.618750 0.025000
0.975000 0.618750 0.025000
0.025000 0.737500 0.025000
0.143750 0.737500 0.025000
0.262500 0.737500 0.025000
0.381250 0.737500 0.025000
0.500000 0.737500 0.025000
0.618750 0.737500 0.025000
0.737500 0.737500 0.025000
0.856250 0.737500 0.025000
0.975000 0.737500 0.025000
0.025000 0.856250 0.025000
0.143750 0.856250 0.025000
0.262500 0.856250 0.025000
0.381250 0.856250 0.025000
0.500000 0.856250 0.025000
0.618750 0.856250 0.025000
0.737500 0.856250 0.025000
0.856250 0.856250 0.025000
0.975000 0.856250 0.025000
0.025000 0.975000 0.025000
0.143750 0.975000 0.025000
0.262500 0.975000 0.025000
0.381250 0.975000 0.025000
0.500000 0.975000 0.025000
0.618750 0.975000 0.025000
0.737500 0.975000 0.025000
0.856250 0.975000 0.025000
0.975000 0.975000 0.025000
0.025000 0.025000 0.143750
0.143750 0.025000 0.143750
0.262500 0.025000 0.143750
0.381250 0.025000 0.143750
0.500000 0.025000 0.143750
0.618750 0.025000 0.143750
0.737500 0.025000 0.143750
0.856250 0.025000 0.143750
0.975000 0.025000 0.143750
0.025000 0.143750 0.143750
0.143750 0.143750 0.143750
0.262500 0.143750 0.143750
0.381250 0.143750 0.143750
0.500000 0.143750 0.143750
0.618750 0.143750 0.143750
0.737500 0.143750 0.143750
0.856250 0.143750 0.143750
0.975000 0.143750 0.143750
0.025000 0.262500 0.143750
0.143750 0.262500 0.143750
0.262500 0.262500 0.143750
0.381250 0.262500 0.143750
0.500000 0.262500 0.143750
0.618750 0.262500 0.143750
0.737500 0.262500 0.143750
0.856250 0.262500 0.143750
0.975000 0.262500 0.143750
0.025000 0.381250 0.143750
0.143750 0.381250 0.143750
0.262500 0.381250 0.143750
0.381250 0.381250 0.143750
0.500000 0.381250 0.143750
0.618750 0.381250 0.143750
0.737500 0.381250 0.143750
0.856250 0.381250 0.143750
0.975000 0.381250 0.143750
0.025000 0.500000 0.143750
0.143750 0.500000 0.143750
0.262500 0.500000 0.143750
0.381250 0.500000 0.143750
0.500000 0.500000 0.143750
0.618750 0.500000 0.143750
0.737500 0.500000 0.143750
0.856250 0.500000 0.143750
0.975000 0.500000 0.143750
0.025000 0.618750 0.143750
0.143750 0.618750 0.143750
0.262500 0.618750 0.143750
0.381250 0.618750 0.143750
0.500000 0.618750 0.143750
0.618750 0.618750 0.143750
0.737500 0.618750 0.143750
0.856250 0.618750 0.143750
0.975000 0.618750 0.143750
0.025000 0.737500 0.143750
0.143750 0.737500 0.143750
0.262500 0.737500 0.143750
0.381250 0.737500 0.143750
0.500000 0.737500 0.143750
0.618750 0.737500 0.143750
0.737500 0.737500 0.143750
0.856250 0.737500 0.143750
0.975000 0.737500 0.143750
0.025000 0.856250 0.143750
0.143750 0.856250 0.143750
0.262500 0.856250 0.143750
0.381250 0.856250 0.143750
0.500000 0.856250 0.143750
0.618750 0.856250 0.143750
0.737500 0.856250 0.143750
0.856250 0.856250 0.143750
0.975000 0.856250 0.143750
0.025000 0.975000 0.143750
0.143750 0.975000 0.143750
0.262500 0.975000 0.143750
0.381250 0.975000 0.143750
0.500000 0.975000 0.143750
0.618750 0.975000 0.143750
0.737500 0.975000 0.143750
0.856250 0.975000 0.143750
0.975000 0.975000 0.143750
0.025000 0.025000 0.262500
0.143750 0.025000 0.262500
0.262500 0.025000 0.262500
0.381250 0.025000 0.262500
0.500000 0.025000 0.262500
0.618750 0.025000 0.262500
0.737500 0.025000 0.262500
0.856250 0.025000 0.262500
0.975000 0.025000 0.262500
0.025000 0.143750 0.262500
0.143750 0.143750 0.262500
0.262500 0.143750 0.262500
0.381250 0.143750 0.262500
0.500000 0.143750 0.262500
0.618750 0.143750 0.262500
0.737500 0.143750 0.262500
0.856250 0.143750 0.262500
0.975000 0.143750 0.262500
0.025000 0.262500 0.262500
0.143750 0.262500 0.262500
0.262500 0.262500 0.262500
0.381250 0.262500 0.262500
0.500000 0.262500 0.262500
0.618750 0.262500 0.262500
0.737500 0.262500 0.262500
0.856250 0.262500 0.262500
0.975000 0.262500 0.262500
0.025000 0.381250 0.262500
0.143750 0.381250 0.262500
0.262500 0.381250 0.262500
0.381250 0.381250 0.262500
0.500000 0.381250 0.262500
0.618750 0.381250 0.262500
0.737500 0.381250 0.262500
0.856250 0.381250 0.262500
0.975000 0.381250 0.262500
0.025000 0.500000 0.262500
0.143750 0.500000 0.262500
0.262500 0.500000 0.262500
0.381250 0.500000 0.262500
0.500000 0.500000 0.262500
0.618750 0.500000 0.262500
0.737500 0.500000 0.262500
0.856250 0.500000 0.262500
0.975000 0.500000 0.262500
0.025000 0.618750 0.262500
0.143750 0.618750 0.262500
0.262500 0.618750 0.262500
0.381250 0.618750 0.262500
0.500000 0.618750 0.262500
0.618750 0.618750 0.262500
0.737500 0.618750 0.262500
0.856250 0.618750 0.262500
0.975000 0.618750 0.262500
0.025000 0.737500 0.262500
0.143750 0.737500 0.262500
0.262500 0.737500 0.262500
0.381250 0.737500 0.262500
0.500000 0.737500 0.262500
0.618750 0.737500 0.262500
0.737500 0.737500 0.262500
0.856250 0.737500 0.262500
0.975000 0.737500 0.262500
0.025000 0.856250 0.262500
0.143750 0.856250 0.262500
0.262500 0.856250 0.262500
0.381250 0.856250 0.262500
0.500000 0.856250 0.262500
0.618750 0.856250 0.262500
0.737500 0.856250 0.262500
0.856250 0.856250 0.262500
0.975000 0.856250 0.262500
0.025000 0.975000 0.262500
0.143750 0.975000 0.262500
0.262500 0.975000 0.262500
0.381250 0.975000 0.262500
0.500000 0.975000 0.262500
0.618750 0.975000 0.262500
0.737500 0.975000 0.262500
0.856250 0.975000 0.262500
0.975000 0.975000 0.262500
0.025000 0.025000 0.381250
0.143750 0.025000 0.381250
0.262500 0.025000 0.381250
0.381250 0.025000 0.381250
0.500000 0.025000 0.381250
0.618750 0.025000 0.381250
0.737500 0.025000 0.381250
0.856250 0.025000 0.381250
0.975000 0.025000 0.381250
0.025000 0.143750 0.381250
0.143750 0.143750 0.381250
0.262500 0.143750 0.381250
0.381250 0.143750 0.381250
0.500000 0.143750 0.381250
0.618750 0.143750 0.381250
0.737500 0.143750 0.381250
0.856250 0.143750 0.381250
0.975000 0.143750 0.381250
0.025000 0.262500 0.381250
0.143750 0.262500 0.381250
0.262500 0.262500 0.381250
0.381250 0.262500 0.381250
0.500000 0.262500 0.381250
0.618750 0.262500 0.381250
0.737500 0.262500 0.381250
0.856250 0.262500 0.381250
0.975000 0.262500 0.381250
0.025000 0.381250 0.381250
0.143750 0.381250 0.381250
0.262500 0.381250 0.381250
0.381250 0.381250 0.381250
0.500000 0.381250 0.381250
0.618750 0.381250 0.381250
0.737500 0.381250 0.381250
0.856250 0.381250 0.381250
0.975000 0.381250 0.381250
0.025000 0.500000 0.381250
0.143750 0.500000 0.381250
0.262500 0.500000 0.381250
0.381250 0.500000 0.381250
0.500000 0.500000 0.381250
0.618750 0.500000 0.381250
0.737500 0.500000 0.381250
0.856250 0.500000 0.381250
0.975000 0.500000 0.381250
0.025000 0.618750 0.381250
0.143750 0.618750 0.381250
0.262500 0.618750 0.381250
0.381250 0.618750 0.381250
0.500000 0.618750 0.381250
0.618750 0.618750 0.381250
0.737500 0.618750 0.381250
0.856250 0.618750 0.381250
0.975000 0.618750 0.381250
0.025000 0.737500 0.381250
0.143750 0.737500 0.381250
0.262500 0.737500 0.381250
0.381250 0.737500 0.381250
0.500000 0.737500 0.381250
0.618750 0.737500 0.381250
0.737500 0.737500 0.381250
0.856250 0.737500 0.381250
0.975000 0.737500 0.381250
0.025000 0.856250 0.381250
0.143750 0.856250 0.381250
0.262500 0.856250 0.381250
0.381250 0.856250 0.381250
0.500000 0.856250 0.381250
0.618750 0.856250 0.381250
0.737500 0.856250 0.381250
0.856250 0.856250 0.381250
0.975000 0.856250 0.381250
0.025000 0.975000 0.381250
0.143750 0.975000 0.381250
0.262500 0.975000 0.381250
0.381250 0.975000 0.381250
0.500000 0.975000 0.381250
0.618750 0.975000 0.381250
0.737500 0.975000 0.381250
0.856250 0.975000 0.381250
0.975000 0.975000 0.381250
0.025000 0.025000 0.500000
0.143750 0.025000 0.500000
0.262500 0.025000 0.500000
0.381250 0.025000 0.500000
0.500000 0.025000 0.500000
0.618750 0.025000 0.500000
0.737500 0.025000 0.500000
0.856250 0.025000 0.500000
0.975000 0.025000 0.500000
0.025000 0.143750 0.500000
0.143750 0.143750 0.500000
0.262500 0.143750 0.500000
0.381250 0.143750 0.500000
0.500000 0.143750 0.500000
0.618750 0.143750 0.500000
0.737500 0.143750 0.500000
0.856250 0.143750 0.500000
0.975000 0.143750 0.500000
0.025000 0.262500 0.500000
0.143750 0.262500 0.500000
0.262500 0.262500 0.500000
0.381250 0.262500 0.500000
0.500000 0.262500 0.500000
0.618750 0.262500 0.500000
0.737500 0.262500 0.500000
0.856250 0.262500 0.500000
0.975000 0.262500 0.500000
0.025000 0.381250 0.500000
0.143750 0.381250 0.500000
0.262500 0.381250 0.500000
0.381250 0.381250 0.500000
0.500000 0.381250 0.500000
0.618750 0.381250 0.500000
0.737500 0.381250 0.500000
0.856250 0.381250 0.500000
0.975000 0.381250 0.500000
0.025000 0.500000 0.500000
0.143750 0.500000 0.500000
0.262500 0.500000 0.500000
0.381250 0.500000 0.500000
0.500000 0.500000 0.500000
0.618750 0.500000 0.500000
0.737500 0.500000 0.500000
0.856250 0.500000 0.500000
0.975000 0.500000 0.500000
0.025000 0.618750 0.500000
0.143750 0.618750 0.500000
0.262500 0.618750 0.500000
0.381250 0.618750 0.500000
0.500000 0.618750 0.500000
0.618750 0.618750 0.500000
0.737500 0.618750 0.500000
0.856250 0.618750 0.500000
0.975000 0.618750 0.500000
0.025000 0.737500 0.500000
0.143750 0.737500 0.500000
0.262500 0.737500 0.500000
0.381250 0.737500 0.500000
0.500000 0.737500 0.500000
0.618750 0.737500 0.500000
0.737500 0.737500 0.500000
0.856250 0.737500 0.500000
0.975000 0.737500 0.500000
0.025000 0.856250 0.500000
0.143750 0.856250 0.500000
0.262500 0.856250 0.500000
0.381250 0.856250 0.500000
0.500000 0.856250 0.500000
0.618750 0.856250 0.500000
0.737500 0.856250 0.500000
0.856250 0.856250 0.500000
0.975000 0.856250 0.500000
0.025000 0.975000 0.500000
0.143750 0.975000 0.500000
0.262500 0.975000 0.500000
0.381250 0.975000 0.500000
0.500000 0.975000 0.500000
0.618750 0.975000 0.500000
0.737500 0.975000 0.500000
0.856250 0.975000 0.500000
0.975000 0.975000 0.500000
0.025000 0.025000 0.618750
0.143750 0.025000 0.618750
0.262500 0.025000 0.618750
0.381250 0.025000 0.618750
0.500000 0.025000 0.618750
0.618750 0.025000 0.618750
0.737500 0.025000 0.618750
0.856250 0.025000 0.618750
0.975000 0.025000 0.618750
0.025000 0.143750 0.618750
0.143750 0.143750 0.618750
0.262500 0.143750 0.618750
0.381250 0.143750 0.618750
0.500000 0.143750 0.618750
0.618750 0.143750 0.618750
0.737500 0.143750 0.618750
0.856250 0.143750 0.618750
0.975000 0.143750 0.618750
0.025000 0.262500 0.618750
0.143750 0.262500 0.618750
0.262500 0.262500 0.618750
0.381250 0.262500 0.618750
0.500000 0.262500 0.618750
0.618750 0.262500 0.618750
0.737500 0.262500 0.618750
0.856250 0.262500 0.618750
0.975000 0.262500 0.618750
0.025000 0.381250 0.618750
0.143750 0.381250 0.618750
0.262500 0.381250 0.618750
0.381250 0.381250 0.618750
0.500000 0.381250 0.618750
0.618750 0.381250 0.618750
0.737500 0.381250 0.618750
0.856250 0.381250 0.618750
0.975000 0.381250 0.618750
0.025000 0.500000 0.618750
0.143750 0.500000 0.618750
0.262500 0.500000 0.618750
0.381250 0.500000 0.618750
0.500000 0.500000 0.618750
0.618750 0.500000 0.618750
0.737500 0.500000 0.618750
0.856250 0.500000 0.618750
0.975000 0.500000 0.618750
0.025000 0.618750 0.618750
0.143750 0.618750 0.618750
0.262500 0.618750 0.618750
0.381250 0.618750 0.618750
0.500000 0.618750 0.618750
0.618750 0.618750 0.618750
0.737500 0.618750 0.618750
0.856250 0.618750 0.618750
0.975000 0.618750 0.618750
0.025000 0.737500 0.618750
0.143750 0.737500 0.618750
0.262500 0.737500 0.618750
0.381250 0.737500 0.618750
0.500000 0.737500 0.618750
0.618750 0.737500 0.618750
0.737500 0.737500 0.618750
0.856250 0.737500 0.618750
0.975000 0.737500 0.618750
0.025000 0.856250 0.618750
0.143750 0.856250 0.618750
0.262500 0.856250 0.618750
0.381250 0.856250 0.618750
0.500000 0.856250 0.618750
0.618750 0.856250 0.618750
0.737500 0.856250 0.618750
0.856250 0.856250 0.618750
0.975000 0.856250 0.618750
0.025000 0.975000 0.618750
0.143750 0.975000 0.618750
0.262500 0.975000 0.618750
0.381250 0.975000 0.618750
0.500000 0.975000 0.618750
0.618750 0.975000 0.618750
0.737500 0.975000 0.618750
0.856250 0.975000 0.618750
0.975000 0.975000 0.618750
0.025000 0.025000 0.737500
0.143750 0.025000 0.737500
0.262500 0.025000 0.737500
0.381250 0.025000 0.737500
0.500000 0.025000 0.737500
0.618750 0.025000 0.737500
0.737500 0.025000 0.737500
0.856250 0.025000 0.737500
0.975000 0.025000 0.737500
0.025000 0.143750 0.737500
0.143750 0.143750 0.737500
0.262500 0.143750 0.737500
0.381250 0.143750 0.737500
0.500000 0.143750 0.737500
0.618750 0.143750 0.737500
0.737500 0.143750 0.737500
0.856250 0.143750 0.737500
0.975000 0.143750 0.737500
0.025000 0.262500 0.737500
0.143750 0.262500 0.737500
0.262500 0.262500 0.737500
0.381250 0.262500 0.737500
0.500000 0.262500 0.737500
0.618750 0.262500 0.737500
0.737500 0.262500 0.737500
0.856250 0.262500 0.737500
0.975000 0.262500 0.737500
0.025000 0.381250 0.737500
0.143750 0.381250 0.737500
0.262500 0.381250 0.737500
0.381250 0.381250 0.737500
0.500000 0.381250 0.737500
0.618750 0.381250 0.737500
0.737500 0.381250 0.737500
0.856250 0.381250 0.737500
0.975000 0.381250 0.737500
0.025000 0.500000 0.737500
0.143750 0.500000 0.737500
0.262500 0.500000 0.737500
0.381250 0.500000 0.737500
0.500000 0.500000 0.737500
0.618750 0.500000 0.737500
0.737500 0.500000 0.737500
0.856250 0.500000 0.737500
0.975000 0.500000 0.737500
0.025000 0.618750 0.737500
0.143750 0.618750 0.737500
0.262500 0.618750 0.737500
0.381250 0.618750 0.737500
0.500000 0.618750 0.737500
0.618750 0.618750 0.737500
0.737500 0.618750 0.737500
0.856250 0.618750 0.737500
0.975000 0.618750 0.737500
0.025000 0.737500 0.737500
0.143750 0.737500 0.737500
0.262500 0.737500 0.737500
0.381250 0.737500 0.737500
0.500000 0.737500 0.737500
0.618750 0.737500 0.737500
0.737500 0.737500 0.737500
0.856250 0.737500 0.737500
0.975000 0.737500 0.737500
0.025000 0.856250 0.737500
0.143750 0.856250 0.737500
0.262500 0.856250 0.737500
0.381250 0.856250 0.737500
0.500000 0.856250 0.737500
0.618750 0.856250 0.737500
0.737500 0.856250 0.737500
0.856250 0.856250 0.737500
0.975000 0.856250 0.737500
0.025000 0.975000 0.737500
0.143750 0.975000 0.737500
0.262500 0.975000 0.737500
0.381250 0.975000 0.737500
0.500000 0.975000 0.737500
0.618750 0.975000 0.737500
0.737500 0.975000 0.737500
0.856250 0.975000 0.737500
0.975000 0.975000 0.737500
0.025000 0.025000 0.856250
0.143750 0.025000 0.856250
0.262500 0.025000 0.856250
0.381250 0.025000 0.856250
0.500000 0.025000 0.856250
0.618750 0.025000 0.856250
0.737500 0.025000 0.856250
0.856250 0.025000 0.856250
0.975000 0.025000 0.856250
0.025000 0.143750 0.856250
0.143750 0.143750 0.856250
0.262500 0.143750 0.856250
0.381250 0.143750 0.856250
0.500000 0.143750 0.856250
0.618750 0.143750 0.856250
0.737500 0.143750 0.856250
0.856250 0.143750 0.856250
0.975000 0.143750 0.856250
0.025000 0.262500 0.856250
0.143750 0.262500 0.856250
0.262500 0.262500 0.856250
0.381250 0.262500 0.856250
0.500000 0.262500 0.856250
0.618750 0.262500 0.856250
0.737500 0.262500 0.856250
0.856250 0.262500 0.856250
0.975000 0.262500 0.856250
0.025000 0.381250 0.856250
0.143750 0.381250 0.856250
0.262500 0.381250 0.856250
0.381250 0.381250 0.856250
0.500000 0.381250 0.856250
0.618750 0.381250 0.856250
0.737500 0.381250 0.856250
0.856250 0.381250 0.856250
0.975000 0.381250 0.856250
0.025000 0.500000 0.856250
0.143750 0.500000 0.856250
0.262500 0.500000 0.856250
0.381250 0.500000 0.856250
0.500000 0.500000 0.856250
0.618750 0.500000 0.856250
0.737500 0.500000 0.856250
0.856250 0.500000 0.856250
0.975000 0.500000 0.856250
0.025000 0.618750 0.856250
0.143750 0.618750 0.856250
0.262500 0.618750 0.856250
0.381250 0.618750 0.856250
0.500000 0.618750 0.856250
0.618750 0.618750 0.856250
0.737500 0.618750 0.856250
0.856250 0.618750 0.856250
0.975000 0.618750 0.856250
0.025000 0.737500 0.856250
0.143750 0.737500 0.856250
0.262500 0.737500 0.856250
0.381250 0.737500 0.856250
0.500000 0.737500 0.856250
0.618750 0.737500 0.856250
0.737500 0.737500 0.856250
0.856250 0.737500 0.856250
0.975000 0.737500 0.856250
0.025000 0.856250 0.856250
0.143750 0.856250 0.856250
0.262500 0.856250 0.856250
0.381250 0.856250 0.856250
0.500000 0.856250 0.856250
0.618750 0.856250 0.856250
0.737500 0.856250 0.856250
0.856250 0.856250 0.856250
0.975000 0.856250 0.856250
0.025000 0.975000 0.856250
0.143750 0.975000 0.856250
0.262500 0.975000 0.856250
0.381250 0.975000 0.856250
0.500000 0.975000 0.856250
0.618750 0.975000 0.856250
0.737500 0.975000 0.856250
0.856250 0.975000 0.856250
0.975000 0.975000 0.856250
0.025000 0.025000 0.975000
0.143750 0.025000 0.975000
0.262500 0.025000 0.975000
0.381250 0.025000 0.975000
0.500000 0.025000 0.975000
0.618750 0.025000 0.975000
0.737500 0.025000 0.975000
0.856250 0.025000 0.975000
0.975000 0.025000 0.975000
0.025000 0.143750 0.975000
0.143750 0.143750 0.975000
0.262500 0.143750 0.975000
0.381250 0.143750 0.975000
0.500000 0.143750 0.975000
0.618750 0.143750 0.975000
0.737500 0.143750 0.975000
0.856250 0.143750 0.975000
0.975000 0.143750 0.975000
0.025000 0.262500 0.975000
0.143750 0.262500 0.975000
0.262500 0.262500 0.975000
0.381250 0.262500 0.975000
0.500000 0.262500 0.975000
0.618750 0.262500 0.975000
0.737500 0.262500 0.975000
0.856250 0.262500 0.975000
0.975000 0.262500 0.975000
0.025000 0.381250 0.975000
0.143750 0.381250 0.975000
0.262500 0.381250 0.975000
0.381250 0.381250 0.975000
0.500000 0.381250 0.975000
0.618750 0.381250 0.975000
0.737500 0.381250 0.975000
0.856250 0.381250 0.975000
0.975000 0.381250 0.975000
0.025000 0.500000 0.975000
0.143750 0.500000 0.975000
0.262500 0.500000 0.975000
0.381250 0.500000 0.975000
0.500000 0.500000 0.975000
0.618750 0.500000 0.975000
0.737500 0.500000 0.975000
0.856250 0.500000 0.975000
0.975000 0.500000 0.975000
0.025000 0.618750 0.975000
0.143750 0.618750 0.975000
0.262500 0.618750 0.975000
0.381250 0.618750 0.975000
0.500000 0.618750 0.975000
0.618750 0.618750 0.975000
0.737500 0.618750 0.975000
0.856250 0.618750 0.975000
0.975000 0.618750 0.975000
0.025000 0.737500 0.975000
0.143750 0.737500 0.975000
0.262500 0.737500 0.975000
0.381250 0.737500 0.975000
0.500000 0.737500 0.975000
0.618750 0.737500 0.975000
0.737500 0.737500 0.975000
0.856250 0.737500 0.975000
0.975000 0.737500 0.975000
0.025000 0.856250 0.975000
0.143750 0.856250 0.975000
0.262500 0.856250 0.975000
0.381250 0.856250 0.975000
0.500000 0.856250 0.975000
0.618750 0.856250 0.975000
0.737500 0.856250 0.975000
0.856250 0.856250 0.975000
0.975000 0.856250 0.975000
0.025000 0.975000 0.975000
0.143750 0.975000 0.975000
0.262500 0.975000 0.975000
0.381250 0.975000 0.975000
0.500000 0.975000 0.975000
0.618750 0.975000 0.975000
0.737500 0.975000 0.975000
0.856250 0.975000 0.975000
0.975000 0.975000 0.975000
