assets/soft.cube
TITLE "Kaique soft"
LUT_3D_SIZE 17
DOMAIN_MIN 0 0 0
DOMAIN_MAX 1 1 1
0.025000 0.025000 0.025000
0.084375 0.025000 0.025000
0.143750 0.025000 0.025000
0.203125 0.025000 0.025000
0.262500 0.025000 0.025000
0.321875 0.025000 0.025000
0.381250 0.025000 0.025000
0.440625 0.025000 0.025000
0.500000 0.025000 0.025000
0.559375 0.025000 0.025000
0.618750 0.025000 0.025000
0.678125 0.025000 0.025000
0.737500 0.025000 0.025000
0.796875 0.025000 0.025000
0.856250 0.025000 0.025000
0.915625 0.025000 0.025000
0.975000 0.025000 0.025000
0.025000 0.084375 0.025000
0.084375 0.084375 0.025000
0.143750 0.084375 0.025000
0.203125 0.084375 0.025000
0.262500 0.084375 0.025000
0.321875 0.084375 0.025000
0.381250 0.084375 0.025000
0.440625 0.084375 0.025000
0.500000 0.084375 0.025000
0.559375 0.084375 0.025000
0.618750 0.084375 0.025000
0.678125 0.084375 0.025000
0.737500 0.084375 0.025000
0.796875 0.084375 0.025000
0.856250 0.084375 0.025000
0.915625 0.084375 0.025000
0.975000 0.084375 0.025000
0.025000 0.143750 0.025000
0.084375 0.143750 0.025000
0.143750 0.143750 0.025000
0.203125 0.143750 0.025000
0.262500 0.143750 0.025000
0.321875 0.143750 0.025000
0.381250 0.143750 0.025000
0.440625 0.143750 0.025000
0.500000 0.143750 0.025000
0.559375 0.143750 0.025000
0.618750 0.143750 0.025000
0.678125 0.143750 0.025000
0.737500 0.143750 0.025000
0.796875 0.143750 0.025000
0.856250 0.143750 0.025000
0.915625 0.143750 0.025000
0.975000 0.143750 0.025000
0.025000 0.203125 0.025000
0.084375 0.203125 0.025000
0.143750 0.203125 0.025000
0.203125 0.203125 0.025000
0.262500 0.203125 0.025000
0.321875 0.203125 0.025000
0.381250 0.203125 0.025000
0.440625 0.203125 0.025000
0.500000 0.203125 0.025000
0.559375 0.203125 0.025000
0.618750 0.203125 0.025000
0.678125 0.203125 0.025000
0.737500 0.203125 0.025000
0.796875 0.203125 0.025000
0.856250 0.203125 0.025000
0.915625 0.203125 0.025000
0.975000 0.203125 0.025000
0.025000 0.262500 0.025000
0.084375 0.262500 0.025000
0.143750 0.262500 0.025000
0.203125 0.262500 0.025000
0.262500 0.262500 0.025000
0.321875 0.262500 0.025000
0.381250 0.262500 0.025000
0.440625 0.262500 0.025000
0.500000 0.262500 0.025000
0.559375 0.262500 0.025000
0.618750 0.262500 0.025000
0.678125 0.262500 0.025000
0.737500 0.262500 0.025000
0.796875 0.262500 0.025000
0.856250 0.262500 0.025000
0.915625 0.262500 0.025000
0.975000 0.262500 0.025000
0.025000 0.321875 0.025000
0.084375 0.321875 0.025000
0.143750 0.321875 0.025000
0.203125 0.321875 0.025000
0.262500 0.321875 0.025000
0.321875 0.321875 0.025000
0.381250 0.321875 0.025000
0.440625 0.321875 0.025000
0.500000 0.321875 0.025000
0.559375 0.321875 0.025000
0.618750 0.321875 0.025000
0.678125 0.321875 0.025000
0.737500 0.321875 0.025000
0.796875 0.321875 0.025000
0.856250 0.321875 0.025000
0.915625 0.321875 0.025000
0.975000 0.321875 0.025000
0.025000 0.381250 0.025000
0.084375 0.381250 0.025000
0.143750 0.381250 0.025000
0.203125 0.381250 0.025000
0.262500 0.381250 0.025000
0.321875 0.381250 0.025000
0.381250 0.381250 0.025000
0.440625 0.381250 0.025000
0.500000 0.381250 0.025000
0.559375 0.381250 0.025000
0.618750 0.381250 0.025000
0.678125 0.381250 0.025000
0.737500 0.381250 0.025000
0.796875 0.381250 0.025000
0.856250 0.381250 0.025000
0.915625 0.381250 0.025000
0.975000 0.381250 0.025000
0.025000 0.440625 0.025000
0.084375 0.440625 0.025000
0.143750 0.440625 0.025000
0.203125 0.440625 0.025000
0.262500 0.440625 0.025000
0.321875 0.440625 0.025000
0.381250 0.440625 0.025000
0.440625 0.440625 0.025000
0.500000 0.440625 0.025000
0.559375 0.440625 0.025000
0.618750 0.440625 0.025000
0.678125 0.440625 0.025000
0.737500 0.440625 0.025000
0.796875 0.440625 0.025000
0.856250 0.440625 0.025000
0.915625 0.440625 0.025000
0.975000 0.440625 0.025000
0.025000 0.500000 0.025000
0.084375 0.500000 0.025000
0.143750 0.500000 0.025000
0.203125 0.500000 0.025000
0.262500 0.500000 0.025000
0.321875 0.500000 0.025000
0.381250 0.500000 0.025000
0.440625 0.500000 0.025000
0.500000 0.500000 0.025000
0.559375 0.500000 0.025000
0.618750 0.500000 0.025000
0.678125 0.500000 0.025000
0.737500 0.500000 0.025000
0.796875 0.500000 0.025000
0.856250 0.500000 0.025000
0.915625 0.500000 0.025000
0.975000 0.500000 0.025000
0.025000 0.559375 0.025000
0.084375 0.559375 0.025000
0.143750 0.559375 0.025000
0.203125 0.559375 0.025000
0.262500 0.559375 0.025000
0.321875 0.559375 0.025000
0.381250 0.559375 0.025000
0.440625 0.559375 0.025000
0.500000 0.559375 0.025000
0.559375 0.559375 0.025000
0.618750 0.559375 0.025000
0.678125 0.559375 0.025000
0.737500 0.559375 0.025000
0.796875 0.559375 0.025000
0.856250 0.559375 0.025000
0.915625 0.559375 0.025000
0.975000 0.559375 0.025000
0.025000 0.618750 0.025000
0.084375 0.618750 0.025000
0.143750 0.618750 0.025000
0.203125 0.618750 0.025000
0.262500 0.618750 0.025000
0.321875 0.618750 0.025000
0.381250 0.618750 0.025000
0.440625 0.618750 0.025000
0.500000 0.618750 0.025000
0.559375 0.618750 0.025000
0.618750 0.618750 0.025000
0.678125 0.618750 0.025000
0.737500 0.618750 0.025000
0.796875 0.618750 0.025000
0.856250 0.618750 0.025000
0.915625 0.618750 0.025000
0.975000 0.618750 0.025000
0.025000 0.678125 0.025000
0.084375 0.678125 0.025000
0.143750 0.678125 0.025000
0.203125 0.678125 0.025000
0.262500 0.678125 0.025000
0.321875 0.678125 0.025000
0.381250 0.678125 0.025000
0.440625 0.678125 0.025000
0.500000 0.678125 0.025000
0.559375 0.678125 0.025000
0.618750 0.678125 0.025000
0.678125 0.678125 0.025000
0.737500 0.678125 0.025000
0.796875 0.678125 0.025000
0.856250 0.678125 0.025000
0.915625 0.678125 0.025000
0.975000 0.678125 0.025000
0.025000 0.737500 0.025000
0.084375 0.737500 0.025000
0.143750 0.737500 0.025000
0.203125 0.737500 0.025000
0.262500 0.737500 0.025000
0.321875 0.737500 0.025000
0.381250 0.737500 0.025000
0.440625 0.737500 0.025000
0.500000 0.737500 0.025000
0.559375 0.737500 0.025000
0.618750 0.737500 0.025000
0.678125 0.737500 0.025000
0.737500 0.737500 0.025000
0.796875 0.737500 0.025000
0.856250 0.737500 0.025000
0.915625 0.737500 0.025000
0.975000 0.737500 0.025000
0.025000 0.796875 0.025000
0.084375 0.796875 0.025000
0.143750 0.796875 0.025000
0.203125 0.796875 0.025000
0.262500 0.796875 0.025000
0.321875 0.796875 0.025000
0.381250 0.796875 0.025000
0.440625 0.796875 0.025000
0.500000 0.796875 0.025000
0.559375 0.796875 0.025000
0.618750 0.796875 0.025000
0.678125 0.796875 0.025000
0.737500 0.796875 0.025000
0.796875 0.796875 0.025000
0.856250 0.796875 0.025000
0.915625 0.796875 0.025000
0.975000 0.796875 0.025000
0.025000 0.856250 0.025000
0.084375 0.856250 0.025000
0.143750 0.856250 0.025000
0.203125 0.856250 0.025000
0.262500 0.856250 0.025000
0.321875 0.856250 0.025000
0.381250 0.856250 0.025000
0.440625 0.856250 0.025000
0.500000 0.856250 0.025000
0.559375 0.856250 0.025000
0.618750 0.856250 0.025000
0.678125 0.856250 0.025000
0.737500 0.856250 0.025000
0.796875 0.856250 0.025000
0.856250 0.856250 0.025000
0.915625 0.856250 0.025000
0.975000 0.856250 0.025000
0.025000 0.915625 0.025000
0.084375 0.915625 0.025000
0.143750 0.915625 0.025000
0.203125 0.915625 0.025000
0.262500 0.915625 0.025000
0.321875 0.915625 0.025000
0.381250 0.915625 0.025000
0.440625 0.915625 0.025000
0.500000 0.915625 0.025000
0.559375 0.915625 0.025000
0.618750 0.915625 0.025000
0.678125 0.915625 0.025000
0.737500 0.915625 0.025000
0.796875 0.915625 0.025000
0.856250 0.915625 0.025000
0.915625 0.915625 0.025000
0.975000 0.915625 0.025000
0.025000 0.975000 0.025000
0.084375 0.975000 0.025000
0.143750 0.975000 0.025000
0.203125 0.975000 0.025000
0.262500 0.975000 0.025000
0.321875 0.975000 0.025000
0.381250 0.975000 0.025000
0.440625 0.975000 0.025000
0.500000 0.975000 0.025000
0.559375 0.975000 0.025000
0.618750 0.975000 0.025000
0.678125 0.975000 0.025000
0.737500 0.975000 0.025000
0.796875 0.975000 0.025000
0.856250 0.975000 0.025000
0.915625 0.975000 0.025000
0.975000 0.975000 0.025000
0.025000 0.025000 0.084375
0.084375 0.025000 0.084375
0.143750 0.025000 0.084375
0.203125 0.025000 0.084375
0.262500 0.025000 0.084375
0.321875 0.025000 0.084375
0.381250 0.025000 0.084375
0.440625 0.025000 0.084375
0.500000 0.025000 0.084375
0.559375 0.025000 0.084375
0.618750 0.025000 0.084375
0.678125 0.025000 0.084375
0.737500 0.025000 0.084375
0.796875 0.025000 0.084375
0.856250 0.025000 0.084375
0.915625 0.025000 0.084375
0.975000 0.025000 0.084375
0.025000 0.084375 0.084375
0.084375 0.084375 0.084375
0.143750 0.084375 0.084375
0.203125 0.084375 0.084375
0.262500 0.084375 0.084375
0.321875 0.084375 0.084375
0.381250 0.084375 0.084375
0.440625 0.084375 0.084375
0.500000 0.084375 0.084375
0.559375 0.084375 0.084375
0.618750 0.084375 0.084375
0.678125 0.084375 0.084375
0.737500 0.084375 0.084375
0.796875 0.084375 0.084375
0.856250 0.084375 0.084375
0.915625 0.084375 0.084375
0.975000 0.084375 0.084375
0.025000 0.143750 0.084375
0.084375 0.143750 0.084375
0.143750 0.143750 0.084375
0.203125 0.143750 0.084375
0.262500 0.143750 0.084375
0.321875 0.143750 0.084375
0.381250 0.143750 0.084375
0.440625 0.143750 0.084375
0.500000 0.143750 0.084375
0.559375 0.143750 0.084375
0.618750 0.143750 0.084375
0.678125 0.143750 0.084375
0.737500 0.143750 0.084375
0.796875 0.143750 0.084375
0.856250 0.143750 0.084375
0.915625 0.143750 0.084375
0.975000 0.143750 0.084375
0.025000 0.203125 0.084375
0.084375 0.203125 0.084375
0.143750 0.203125 0.084375
0.203125 0.203125 0.084375
0.262500 0.203125 0.084375
0.321875 0.203125 0.084375
0.381250 0.203125 0.084375
0.440625 0.203125 0.084375
0.500000 0.203125 0.084375
0.559375 0.203125 0.084375
0.618750 0.203125 0.084375
0.678125 0.203125 0.084375
0.737500 0.203125 0.084375
0.796875 0.203125 0.084375
0.856250 0.203125 0.084375
0.915625 0.203125 0.084375
0.975000 0.203125 0.084375
0.025000 0.262500 0.084375
0.084375 0.262500 0.084375
0.143750 0.262500 0.084375
0.203125 0.262500 0.084375
0.262500 0.262500 0.084375
0.321875 0.262500 0.084375
0.381250 0.262500 0.084375
0.440625 0.262500 0.084375
0.500000 0.262500 0.084375
0.559375 0.262500 0.084375
0.618750 0.262500 0.084375
0.678125 0.262500 0.084375
0.737500 0.262500 0.084375
0.796875 0.262500 0.084375
0.856250 0.262500 0.084375
0.915625 0.262500 0.084375
0.975000 0.262500 0.084375
0.025000 0.321875 0.084375
0.084375 0.321875 0.084375
0.143750 0.321875 0.084375
0.203125 0.321875 0.084375
0.262500 0.321875 0.084375
0.321875 0.321875 0.084375
0.381250 0.321875 0.084375
0.440625 0.321875 0.084375
0.500000 0.321875 0.084375
0.559375 0.321875 0.084375
0.618750 0.321875 0.084375
0.678125 0.321875 0.084375
0.737500 0.321875 0.084375
0.796875 0.321875 0.084375
0.856250 0.321875 0.084375
0.915625 0.321875 0.084375
0.975000 0.321875 0.084375
0.025000 0.381250 0.084375
0.084375 0.381250 0.084375
0.143750 0.381250 0.084375
0.203125 0.381250 0.084375
0.262500 0.381250 0.084375
0.321875 0.381250 0.084375
0.381250 0.381250 0.084375
0.440625 0.381250 0.084375
0.500000 0.381250 0.084375
0.559375 0.381250 0.084375
0.618750 0.381250 0.084375
0.678125 0.381250 0.084375
0.737500 0.381250 0.084375
0.796875 0.381250 0.084375
0.856250 0.381250 0.084375
0.915625 0.381250 0.084375
0.975000 0.381250 0.084375
0.025000 0.440625 0.084375
0.084375 0.440625 0.084375
0.143750 0.440625 0.084375
0.203125 0.440625 0.084375
0.262500 0.440625 0.084375
0.321875 0.440625 0.084375
0.381250 0.440625 0.084375
0.440625 0.440625 0.084375
0.500000 0.440625 0.084375
0.559375 0.440625 0.084375
0.618750 0.440625 0.084375
0.678125 0.440625 0.084375
0.737500 0.440625 0.084375
0.796875 0.440625 0.084375
0.856250 0.440625 0.084375
0.915625 0.440625 0.084375
0.975000 0.440625 0.084375
0.025000 0.500000 0.084375
0.084375 0.500000 0.084375
0.143750 0.500000 0.084375
0.203125 0.500000 0.084375
0.262500 0.500000 0.084375
0.321875 0.500000 0.084375
0.381250 0.500000 0.084375
0.440625 0.500000 0.084375
0.500000 0.500000 0.084375
0.559375 0.500000 0.084375
0.618750 0.500000 0.084375
0.678125 0.500000 0.084375
0.737500 0.500000 0.084375
0.796875 0.500000 0.084375
0.856250 0.500000 0.084375
0.915625 0.500000 0.084375
0.975000 0.500000 0.084375
0.025000 0.559375 0.084375
0.084375 0.559375 0.084375
0.143750 0.559375 0.084375
0.203125 0.559375 0.084375
0.262500 0.559375 0.084375
0.321875 0.559375 0.084375
0.381250 0.559375 0.084375
0.440625 0.559375 0.084375
0.500000 0.559375 0.084375
0.559375 0.559375 0.084375
0.618750 0.559375 0.084375
0.678125 0.559375 0.084375
0.737500 0.559375 0.084375
0.796875 0.559375 0.084375
0.856250 0.559375 0.084375
0.915625 0.559375 0.084375
0.975000 0.559375 0.084375
0.025000 0.618750 0.084375
0.084375 0.618750 0.084375
0.143750 0.618750 0.084375
0.203125 0.618750 0.084375
0.262500 0.618750 0.084375
0.321875 0.618750 0.084375
0.381250 0.618750 0.084375
0.440625 0.618750 0.084375
0.500000 0.618750 0.084375
0.559375 0.618750 0.084375
0.618750 0.618750 0.084375
0.678125 0.618750 0.084375
0.737500 0.618750 0.084375
0.796875 0.618750 0.084375
0.856250 0.618750 0.084375
0.915625 0.618750 0.084375
0.975000 0.618750 0.084375
0.025000 0.678125 0.084375
0.084375 0.678125 0.084375
0.143750 0.678125 0.084375
0.203125 0.678125 0.084375
0.262500 0.678125 0.084375
0.321875 0.678125 0.084375
0.381250 0.678125 0.084375
0.440625 0.678125 0.084375
0.500000 0.678125 0.084375
0.559375 0.678125 0.084375
0.618750 0.678125 0.084375
0.678125 0.678125 0.084375
0.737500 0.678125 0.084375
0.796875 0.678125 0.084375
0.856250 0.678125 0.084375
0.915625 0.678125 0.084375
0.975000 0.678125 0.084375
0.025000 0.737500 0.084375
0.084375 0.737500 0.084375
0.143750 0.737500 0.084375
0.203125 0.737500 0.084375
0.262500 0.737500 0.084375
0.321875 0.737500 0.084375
0.381250 0.737500 0.084375
0.440625 0.737500 0.084375
0.500000 0.737500 0.084375
0.559375 0.737500 0.084375
0.618750 0.737500 0.084375
0.678125 0.737500 0.084375
0.737500 0.737500 0.084375
0.796875 0.737500 0.084375
0.856250 0.737500 0.084375
0.915625 0.737500 0.084375
0.975000 0.737500 0.084375
0.025000 0.796875 0.084375
0.084375 0.796875 0.084375
0.143750 0.796875 0.084375
0.203125 0.796875 0.084375
0.262500 0.796875 0.084375
0.321875 0.796875 0.084375
0.381250 0.796875 0.084375
0.440625 0.796875 0.084375
0.500000 0.796875 0.084375
0.559375 0.796875 0.084375
0.618750 0.796875 0.084375
0.678125 0.796875 0.084375
0.737500 0.796875 0.084375
0.796875 0.796875 0.084375
0.856250 0.796875 0.084375
0.915625 0.796875 0.084375
0.975000 0.796875 0.084375
0.025000 0.856250 0.084375
0.084375 0.856250 0.084375
0.143750 0.856250 0.084375
0.203125 0.856250 0.084375
0.262500 0.856250 0.084375
0.321875 0.856250 0.084375
0.381250 0.856250 0.084375
0.440625 0.856250 0.084375
0.500000 0.856250 0.084375
0.559375 0.856250 0.084375
0.618750 0.856250 0.084375
0.678125 0.856250 0.084375
0.737500 0.856250 0.084375
0.796875 0.856250 0.084375
0.856250 0.856250 0.084375
0.915625 0.856250 0.084375
0.975000 0.856250 0.084375
0.025000 0.915625 0.084375
0.084375 0.915625 0.084375
0.143750 0.915625 0.084375
0.203125 0.915625 0.084375
0.262500 0.915625 0.084375
0.321875 0.915625 0.084375
0.381250 0.915625 0.084375
0.440625 0.915625 0.084375
0.500000 0.915625 0.084375
0.559375 0.915625 0.084375
0.618750 0.915625 0.084375
0.678125 0.915625 0.084375
0.737500 0.915625 0.084375
0.796875 0.915625 0.084375
0.856250 0.915625 0.084375
0.915625 0.915625 0.084375
0.975000 0.915625 0.084375
0.025000 0.975000 0.084375
0.084375 0.975000 0.084375
0.143750 0.975000 0.084375
0.203125 0.975000 0.084375
0.262500 0.975000 0.084375
0.321875 0.975000 0.084375
0.381250 0.975000 0.084375
0.440625 0.975000 0.084375
0.500000 0.975000 0.084375
0.559375 0.975000 0.084375
0.618750 0.975000 0.084375
0.678125 0.975000 0.084375
0.737500 0.975000 0.084375
0.796875 0.975000 0.084375
0.856250 0.975000 0.084375
0.915625 0.975000 0.084375
0.975000 0.975000 0.084375
0.025000 0.025000 0.143750
0.084375 0.025000 0.143750
0.143750 0.025000 0.143750
0.203125 0.025000 0.143750
0.262500 0.025000 0.143750
0.321875 0.025000 0.143750
0.381250 0.025000 0.143750
0.440625 0.025000 0.143750
0.500000 0.025000 0.143750
0.559375 0.025000 0.143750
0.618750 0.025000 0.143750
0.678125 0.025000 0.143750
0.737500 0.025000 0.143750
0.796875 0.025000 0.143750
0.856250 0.025000 0.143750
0.915625 0.025000 0.143750
0.975000 0.025000 0.143750
0.025000 0.084375 0.143750
0.084375 0.084375 0.143750
0.143750 0.084375 0.143750
0.203125 0.084375 0.143750
0.262500 0.084375 0.143750
0.321875 0.084375 0.143750
0.381250 0.084375 0.143750
0.440625 0.084375 0.143750
0.500000 0.084375 0.143750
0.559375 0.084375 0.143750
0.618750 0.084375 0.143750
0.678125 0.084375 0.143750
0.737500 0.084375 0.143750
0.796875 0.084375 0.143750
0.856250 0.084375 0.143750
0.915625 0.084375 0.143750
0.975000 0.084375 0.143750
0.025000 0.143750 0.143750
0.084375 0.143750 0.143750
0.143750 0.143750 0.143750
0.203125 0.143750 0.143750
0.262500 0.143750 0.143750
0.321875 0.143750 0.143750
0.381250 0.143750 0.143750
0.440625 0.143750 0.143750
0.500000 0.143750 0.143750
0.559375 0.143750 0.143750
0.618750 0.143750 0.143750
0.678125 0.143750 0.143750
0.737500 0.143750 0.143750
0.796875 0.143750 0.143750
0.856250 0.143750 0.143750
0.915625 0.143750 0.143750
0.975000 0.143750 0.143750
0.025000 0.203125 0.143750
0.084375 0.203125 0.143750
0.143750 0.203125 0.143750
0.203125 0.203125 0.143750
0.262500 0.203125 0.143750
0.321875 0.203125 0.143750
0.381250 0.203125 0.143750
0.440625 0.203125 0.143750
0.500000 0.203125 0.143750
0.559375 0.203125 0.143750
0.618750 0.203125 0.143750
0.678125 0.203125 0.143750
0.737500 0.203125 0.143750
0.796875 0.203125 0.143750
0.856250 0.203125 0.143750
0.915625 0.203125 0.143750
0.975000 0.203125 0.143750
0.025000 0.262500 0.143750
0.084375 0.262500 0.143750
0.143750 0.262500 0.143750
0.203125 0.262500 0.143750
0.262500 0.262500 0.143750
0.321875 0.262500 0.143750
0.381250 0.262500 0.143750
0.440625 0.262500 0.143750
0.500000 0.262500 0.143750
0.559375 0.262500 0.143750
0.618750 0.262500 0.143750
0.678125 0.262500 0.143750
0.737500 0.262500 0.143750
0.796875 0.262500 0.143750
0.856250 0.262500 0.143750
0.915625 0.262500 0.143750
0.975000 0.262500 0.143750
0.025000 0.321875 0.143750
0.084375 0.321875 0.143750
0.143750 0.321875 0.143750
0.203125 0.321875 0.143750
0.262500 0.321875 0.143750
0.321875 0.321875 0.143750
0.381250 0.321875 0.143750
0.440625 0.321875 0.143750
0.500000 0.321875 0.143750
0.559375 0.321875 0.143750
0.618750 0.321875 0.143750
0.678125 0.321875 0.143750
0.737500 0.321875 0.143750
0.796875 0.321875 0.143750
0.856250 0.321875 0.143750
0.915625 0.321875 0.143750
0.975000 0.321875 0.143750
0.025000 0.381250 0.143750
0.084375 0.381250 0.143750
0.143750 0.381250 0.143750
0.203125 0.381250 0.143750
0.262500 0.381250 0.143750
0.321875 0.381250 0.143750
0.381250 0.381250 0.143750
0.440625 0.381250 0.143750
0.500000 0.381250 0.143750
0.559375 0.381250 0.143750
0.618750 0.381250 0.143750
0.678125 0.381250 0.143750
0.737500 0.381250 0.143750
0.796875 0.381250 0.143750
0.856250 0.381250 0.143750
0.915625 0.381250 0.143750
0.975000 0.381250 0.143750
0.025000 0.440625 0.143750
0.084375 0.440625 0.143750
0.143750 0.440625 0.143750
0.203125 0.440625 0.143750
0.262500 0.440625 0.143750
0.321875 0.440625 0.143750
0.381250 0.440625 0.143750
0.440625 0.440625 0.143750
0.500000 0.440625 0.143750
0.559375 0.440625 0.143750
0.618750 0.440625 0.143750
0.678125 0.440625 0.143750
0.737500 0.440625 0.143750
0.796875 0.440625 0.143750
0.856250 0.440625 0.143750
0.915625 0.440625 0.143750
0.975000 0.440625 0.143750
0.025000 0.500000 0.143750
0.084375 0.500000 0.143750
0.143750 0.500000 0.143750
0.203125 0.500000 0.143750
0.262500 0.500000 0.143750
0.321875 0.500000 0.143750
0.381250 0.500000 0.143750
0.440625 0.500000 0.143750
0.500000 0.500000 0.143750
0.559375 0.500000 0.143750
0.618750 0.500000 0.143750
0.678125 0.500000 0.143750
0.737500 0.500000 0.143750
0.796875 0.500000 0.143750
0.856250 0.500000 0.143750
0.915625 0.500000 0.143750
0.975000 0.500000 0.143750
0.025000 0.559375 0.143750
0.084375 0.559375 0.143750
0.143750 0.559375 0.143750
0.203125 0.559375 0.143750
0.262500 0.559375 0.143750
0.321875 0.559375 0.143750
0.381250 0.559375 0.143750
0.440625 0.559375 0.143750
0.500000 0.559375 0.143750
0.559375 0.559375 0.143750
0.618750 0.559375 0.143750
0.678125 0.559375 0.143750
0.737500 0.559375 0.143750
0.796875 0.559375 0.143750
0.856250 0.559375 0.143750
0.915625 0.559375 0.143750
0.975000 0.559375 0.143750
0.025000 0.618750 0.143750
0.084375 0.618750 0.143750
0.143750 0.618750 0.143750
0.203125 0.618750 0.143750
0.262500 0.618750 0.143750
0.321875 0.618750 0.143750
0.381250 0.618750 0.143750
0.440625 0.618750 0.143750
0.500000 0.618750 0.143750
0.559375 0.618750 0.143750
0.618750 0.618750 0.143750
0.678125 0.618750 0.143750
0.737500 0.618750 0.143750
0.796875 0.618750 0.143750
0.856250 0.618750 0.143750
0.915625 0.618750 0.143750
0.975000 0.618750 0.143750
0.025000 0.678125 0.143750
0.084375 0.678125 0.143750
0.143750 0.678125 0.143750
0.203125 0.678125 0.143750
0.262500 0.678125 0.143750
0.321875 0.678125 0.143750
0.381250 0.678125 0.143750
0.440625 0.678125 0.143750
0.500000 0.678125 0.143750
0.559375 0.678125 0.143750
0.618750 0.678125 0.143750
0.678125 0.678125 0.143750
0.737500 0.678125 0.143750
0.796875 0.678125 0.143750
0.856250 0.678125 0.143750
0.915625 0.678125 0.143750
0.975000 0.678125 0.143750
0.025000 0.737500 0.143750
0.084375 0.737500 0.143750
0.143750 0.737500 0.143750
0.203125 0.737500 0.143750
0.262500 0.737500 0.143750
0.321875 0.737500 0.143750
0.381250 0.737500 0.143750
0.440625 0.737500 0.143750
0.500000 0.737500 0.143750
0.559375 0.737500 0.143750
0.618750 0.737500 0.143750
0.678125 0.737500 0.143750
0.737500 0.737500 0.143750
0.796875 0.737500 0.143750
0.856250 0.737500 0.143750
0.915625 0.737500 0.143750
0.975000 0.737500 0.143750
0.025000 0.796875 0.143750
0.084375 0.796875 0.143750
0.143750 0.796875 0.143750
0.203125 0.796875 0.143750
0.262500 0.796875 0.143750
0.321875 0.796875 0.143750
0.381250 0.796875 0.143750
0.440625 0.796875 0.143750
0.500000 0.796875 0.143750
0.559375 0.796875 0.143750
0.618750 0.796875 0.143750
0.678125 0.796875 0.143750
0.737500 0.796875 0.143750
0.796875 0.796875 0.143750
0.856250 0.796875 0.143750
0.915625 0.796875 0.143750
0.975000 0.796875 0.143750
0.025000 0.856250 0.143750
0.084375 0.856250 0.143750
0.143750 0.856250 0.143750
0.203125 0.856250 0.143750
0.262500 0.856250 0.143750
0.321875 0.856250 0.143750
0.381250 0.856250 0.143750
0.440625 0.856250 0.143750
0.500000 0.856250 0.143750
0.559375 0.856250 0.143750
0.618750 0.856250 0.143750
0.678125 0.856250 0.143750
0.737500 0.856250 0.143750
0.796875 0.856250 0.143750
0.856250 0.856250 0.143750
0.915625 0.856250 0.143750
0.975000 0.856250 0.143750
0.025000 0.915625 0.143750
0.084375 0.915625 0.143750
0.143750 0.915625 0.143750
0.203125 0.915625 0.143750
0.262500 0.915625 0.143750
0.321875 0.915625 0.143750
0.381250 0.915625 0.143750
0.440625 0.915625 0.143750
0.500000 0.915625 0.143750
0.559375 0.915625 0.143750
0.618750 0.915625 0.143750
0.678125 0.915625 0.143750
0.737500 0.915625 0.143750
0.796875 0.915625 0.143750
0.856250 0.915625 0.143750
0.915625 0.915625 0.143750
0.975000 0.915625 0.143750
0.025000 0.975000 0.143750
0.084375 0.975000 0.143750
0.143750 0.975000 0.143750
0.203125 0.975000 0.143750
0.262500 0.975000 0.143750
0.321875 0.975000 0.143750
0.381250 0.975000 0.143750
0.440625 0.975000 0.143750
0.500000 0.975000 0.143750
0.559375 0.975000 0.143750
0.618750 0.975000 0.143750
0.678125 0.975000 0.143750
0.737500 0.975000 0.143750
0.796875 0.975000 0.143750
0.856250 0.975000 0.143750
0.915625 0.975000 0.143750
0.975000 0.975000 0.143750
0.025000 0.025000 0.203125
0.084375 0.025000 0.203125
0.143750 0.025000 0.203125
0.203125 0.025000 0.203125
0.262500 0.025000 0.203125
0.321875 0.025000 0.203125
0.381250 0.025000 0.203125
0.440625 0.025000 0.203125
0.500000 0.025000 0.203125
0.559375 0.025000 0.203125
0.618750 0.025000 0.203125
0.678125 0.025000 0.203125
0.737500 0.025000 0.203125
0.796875 0.025000 0.203125
0.856250 0.025000 0.203125
0.915625 0.025000 0.203125
0.975000 0.025000 0.203125
0.025000 0.084375 0.203125
0.084375 0.084375 0.203125
