assets/vivid.cube
TITLE "Kaique vivid"
LUT_3D_SIZE 17
DOMAIN_MIN 0 0 0
DOMAIN_MAX 1 1 1
0.000000 0.000000 0.000000
0.067421 0.000000 0.000000
0.134843 0.000000 0.000000
0.202264 0.000000 0.000000
0.269685 0.000000 0.000000
0.337106 0.000000 0.000000
0.404528 0.000000 0.000000
0.471949 0.000000 0.000000
0.539370 0.000000 0.000000
0.606791 0.000000 0.000000
0.674213 0.000000 0.000000
0.741634 0.000000 0.000000
0.809055 0.000000 0.000000
0.876476 0.000000 0.000000
0.943898 0.000000 0.000000
1.000000 0.000000 0.000000
1.000000 0.000000 0.000000
0.000000 0.064280 0.000000
0.062951 0.062951 0.000000
0.130373 0.061622 0.000000
0.197794 0.060294 0.000000
0.265215 0.058965 0.000000
0.332636 0.057636 0.000000
0.400058 0.056307 0.000000
0.467479 0.054979 0.000000
0.534900 0.053650 0.000000
0.602321 0.052321 0.000000
0.669743 0.050992 0.000000
0.737164 0.049664 0.000000
0.804585 0.048335 0.000000
0.872006 0.047006 0.000000
0.939428 0.045677 0.000000
1.000000 0.044349 0.000000
1.000000 0.043020 0.000000
0.000000 0.128560 0.000000
0.058481 0.127231 0.000000
0.125903 0.125903 0.000000
0.193324 0.124574 0.000000
0.260745 0.123245 0.000000
0.328166 0.121916 0.000000
0.395587 0.120587 0.000000
0.463009 0.119259 0.000000
0.530430 0.117930 0.000000
0.597851 0.116601 0.000000
0.665273 0.115272 0.000000
0.732694 0.113944 0.000000
0.800115 0.112615 0.000000
0.867536 0.111286 0.000000
0.934957 0.109957 0.000000
1.000000 0.108629 0.000000
1.000000 0.107300 0.000000
0.000000 0.192840 0.000000
0.054011 0.191511 0.000000
0.121432 0.190183 0.000000
0.188854 0.188854 0.000000
0.256275 0.187525 0.000000
0.323696 0.186196 0.000000
0.391118 0.184867 0.000000
0.458539 0.183539 0.000000
0.525960 0.182210 0.000000
0.593381 0.180881 0.000000
0.660802 0.179553 0.000000
0.728224 0.178224 0.000000
0.795645 0.176895 0.000000
0.863066 0.175566 0.000000
0.930488 0.174237 0.000000
0.997909 0.172909 0.000000
1.000000 0.171580 0.000000
0.000000 0.257120 0.000000
0.049541 0.255791 0.000000
0.116962 0.254463 0.000000
0.184384 0.253134 0.000000
0.251805 0.251805 0.000000
0.319226 0.250476 0.000000
0.386648 0.249147 0.000000
0.454069 0.247819 0.000000
0.521490 0.246490 0.000000
0.588911 0.245161 0.000000
0.656332 0.243833 0.000000
0.723754 0.242504 0.000000
0.791175 0.241175 0.000000
0.858596 0.239846 0.000000
0.926018 0.238517 0.000000
0.993439 0.237189 0.000000
1.000000 0.235860 0.000000
0.000000 0.321400 0.000000
0.045071 0.320071 0.000000
0.112492 0.318743 0.000000
0.179914 0.317414 0.000000
0.247335 0.316085 0.000000
0.314756 0.314756 0.000000
0.382178 0.313428 0.000000
0.449599 0.312099 0.000000
0.517020 0.310770 0.000000
0.584441 0.309441 0.000000
0.651863 0.308113 0.000000
0.719284 0.306784 0.000000
0.786705 0.305455 0.000000
0.854126 0.304126 0.000000
0.921547 0.302797 0.000000
0.988969 0.301469 0.000000
1.000000 0.300140 0.000000
0.000000 0.385680 0.000000
0.040601 0.384351 0.000000
0.108022 0.383022 0.000000
0.175444 0.381694 0.000000
0.242865 0.380365 0.000000
0.310286 0.379036 0.000000
0.377708 0.377708 0.000000
0.445129 0.376379 0.000000
0.512550 0.375050 0.000000
0.579971 0.373721 0.000000
0.647393 0.372393 0.000000
0.714814 0.371064 0.000000
0.782235 0.369735 0.000000
0.849656 0.368406 0.000000
0.917077 0.367078 0.000000
0.984499 0.365749 0.000000
1.000000 0.364420 0.000000
0.000000 0.449960 0.000000
0.036131 0.448631 0.000000
0.103552 0.447302 0.000000
0.170974 0.445974 0.000000
0.238395 0.444645 0.000000
0.305816 0.443316 0.000000
0.373237 0.441988 0.000000
0.440659 0.440659 0.000000
0.508080 0.439330 0.000000
0.575501 0.438001 0.000000
0.642923 0.436673 0.000000
0.710344 0.435344 0.000000
0.777765 0.434015 0.000000
0.845186 0.432686 0.000000
0.912608 0.431358 0.000000
0.980029 0.430029 0.000000
1.000000 0.428700 0.000000
0.000000 0.514240 0.000000
0.031661 0.512911 0.000000
0.099082 0.511583 0.000000
0.166504 0.510254 0.000000
0.233925 0.508925 0.000000
0.301346 0.507596 0.000000
0.368768 0.506267 0.000000
0.436189 0.504939 0.000000
0.503610 0.503610 0.000000
0.571031 0.502281 0.000000
0.638452 0.500953 0.000000
0.705874 0.499624 0.000000
0.773295 0.498295 0.000000
0.840716 0.496966 0.000000
0.908138 0.495638 0.000000
0.975559 0.494309 0.000000
1.000000 0.492980 0.000000
0.000000 0.578520 0.000000
0.027191 0.577191 0.000000
0.094612 0.575862 0.000000
0.162034 0.574534 0.000000
0.229455 0.573205 0.000000
0.296876 0.571876 0.000000
0.364297 0.570547 0.000000
0.431719 0.569219 0.000000
0.499140 0.567890 0.000000
0.566561 0.566561 0.000000
0.633983 0.565233 0.000000
0.701404 0.563904 0.000000
0.768825 0.562575 0.000000
0.836246 0.561246 0.000000
0.903668 0.559917 0.000000
0.971089 0.558589 0.000000
1.000000 0.557260 0.000000
0.000000 0.642800 0.000000
0.022721 0.641471 0.000000
0.090142 0.640143 0.000000
0.157564 0.638814 0.000000
0.224985 0.637485 0.000000
0.292406 0.636156 0.000000
0.359827 0.634827 0.000000
0.427249 0.633499 0.000000
0.494670 0.632170 0.000000
0.562091 0.630841 0.000000
0.629513 0.629513 0.000000
0.696934 0.628184 0.000000
0.764355 0.626855 0.000000
0.831776 0.625526 0.000000
0.899198 0.624197 0.000000
0.966619 0.622869 0.000000
1.000000 0.621540 0.000000
0.000000 0.707080 0.000000
0.018251 0.705751 0.000000
0.085672 0.704423 0.000000
0.153094 0.703094 0.000000
0.220515 0.701765 0.000000
0.287936 0.700436 0.000000
0.355357 0.699107 0.000000
0.422779 0.697779 0.000000
0.490200 0.696450 0.000000
0.557621 0.695121 0.000000
0.625043 0.693793 0.000000
0.692464 0.692464 0.000000
0.759885 0.691135 0.000000
0.827306 0.689806 0.000000
0.894728 0.688477 0.000000
0.962149 0.687149 0.000000
1.000000 0.685820 0.000000
0.000000 0.771360 0.000000
0.013781 0.770031 0.000000
0.081202 0.768703 0.000000
0.148624 0.767374 0.000000
0.216045 0.766045 0.000000
0.283466 0.764716 0.000000
0.350887 0.763387 0.000000
0.418309 0.762059 0.000000
0.485730 0.760730 0.000000
0.553151 0.759401 0.000000
0.620572 0.758073 0.000000
0.687994 0.756744 0.000000
0.755415 0.755415 0.000000
0.822836 0.754086 0.000000
0.890258 0.752757 0.000000
0.957679 0.751429 0.000000
1.000000 0.750100 0.000000
0.000000 0.835640 0.000000
0.009311 0.834311 0.000000
0.076732 0.832982 0.000000
0.144154 0.831654 0.000000
0.211575 0.830325 0.000000
0.278996 0.828996 0.000000
0.346417 0.827668 0.000000
0.413839 0.826339 0.000000
0.481260 0.825010 0.000000
0.548681 0.823681 0.000000
0.616102 0.822353 0.000000
0.683524 0.821024 0.000000
0.750945 0.819695 0.000000
0.818366 0.818366 0.000000
0.885788 0.817037 0.000000
0.953209 0.815709 0.000000
1.000000 0.814380 0.000000
0.000000 0.899920 0.000000
0.004841 0.898591 0.000000
0.072263 0.897263 0.000000
0.139684 0.895934 0.000000
0.207105 0.894605 0.000000
0.274526 0.893276 0.000000
0.341947 0.891948 0.000000
0.409369 0.890619 0.000000
0.476790 0.889290 0.000000
0.544211 0.887961 0.000000
0.611633 0.886633 0.000000
0.679054 0.885304 0.000000
0.746475 0.883975 0.000000
0.813896 0.882646 0.000000
0.881317 0.881317 0.000000
0.948739 0.879989 0.000000
1.000000 0.878660 0.000000
0.000000 0.964200 0.000000
0.000371 0.962871 0.000000
0.067792 0.961542 0.000000
0.135214 0.960214 0.000000
0.202635 0.958885 0.000000
0.270056 0.957556 0.000000
0.337477 0.956228 0.000000
0.404899 0.954899 0.000000
0.472320 0.953570 0.000000
0.539741 0.952241 0.000000
0.607163 0.950913 0.000000
0.674584 0.949584 0.000000
0.742005 0.948255 0.000000
0.809426 0.946926 0.000000
0.876848 0.945597 0.000000
0.944269 0.944269 0.000000
1.000000 0.942940 0.000000
0.000000 1.000000 0.000000
0.000000 1.000000 0.000000
0.063322 1.000000 0.000000
0.130744 1.000000 0.000000
0.198165 1.000000 0.000000
0.265586 1.000000 0.000000
0.333007 1.000000 0.000000
0.400429 1.000000 0.000000
0.467850 1.000000 0.000000
0.535271 1.000000 0.000000
0.602692 1.000000 0.000000
0.670114 1.000000 0.000000
0.737535 1.000000 0.000000
0.804956 1.000000 0.000000
0.872378 1.000000 0.000000
0.939799 1.000000 0.000000
1.000000 1.000000 0.000000
0.000000 0.000000 0.068299
0.066970 0.000000 0.066970
0.134391 0.000000 0.065641
0.201813 0.000000 0.064312
0.269234 0.000000 0.062984
0.336655 0.000000 0.061655
0.404076 0.000000 0.060326
0.471498 0.000000 0.058997
0.538919 0.000000 0.057669
0.606340 0.000000 0.056340
0.673761 0.000000 0.055011
0.741183 0.000000 0.053682
0.808604 0.000000 0.052354
0.876025 0.000000 0.051025
0.943446 0.000000 0.049696
1.000000 0.000000 0.048367
1.000000 0.000000 0.047039
0.000000 0.063829 0.063829
0.062500 0.062500 0.062500
0.129921 0.061171 0.061171
0.197343 0.059842 0.059842
0.264764 0.058514 0.058514
0.332185 0.057185 0.057185
0.399606 0.055856 0.055856
0.467028 0.054527 0.054527
0.534449 0.053199 0.053199
0.601870 0.051870 0.051870
0.669291 0.050541 0.050541
0.736712 0.049212 0.049212
0.804134 0.047884 0.047884
0.871555 0.046555 0.046555
0.938976 0.045226 0.045226
1.000000 0.043897 0.043897
1.000000 0.042569 0.042569
0.000000 0.128109 0.059359
0.058030 0.126780 0.058030
0.125451 0.125451 0.056701
0.192873 0.124122 0.055372
0.260294 0.122794 0.054044
0.327715 0.121465 0.052715
0.395136 0.120136 0.051386
0.462557 0.118807 0.050058
0.529979 0.117479 0.048729
0.597400 0.116150 0.047400
0.664821 0.114821 0.046071
0.732243 0.113492 0.044742
0.799664 0.112164 0.043414
0.867085 0.110835 0.042085
0.934506 0.109506 0.040756
1.000000 0.108177 0.039428
1.000000 0.106849 0.038099
0.000000 0.192389 0.054889
0.053560 0.191060 0.053560
0.120981 0.189731 0.052231
0.188403 0.188403 0.050902
0.255824 0.187074 0.049574
0.323245 0.185745 0.048245
0.390666 0.184416 0.046916
0.458087 0.183087 0.045587
0.525509 0.181759 0.044259
0.592930 0.180430 0.042930
0.660351 0.179101 0.041601
0.727773 0.177772 0.040272
0.795194 0.176444 0.038944
0.862615 0.175115 0.037615
0.930036 0.173786 0.036286
0.997457 0.172457 0.034957
1.000000 0.171129 0.033629
0.000000 0.256669 0.050419
0.049090 0.255340 0.049090
0.116511 0.254011 0.047761
0.183932 0.252683 0.046432
0.251354 0.251354 0.045104
0.318775 0.250025 0.043775
0.386196 0.248696 0.042446
0.453618 0.247367 0.041117
0.521039 0.246039 0.039789
0.588460 0.244710 0.038460
0.655881 0.243381 0.037131
0.723302 0.242053 0.035802
0.790724 0.240724 0.034474
0.858145 0.239395 0.033145
0.925566 0.238066 0.031816
0.992988 0.236737 0.030487
1.000000 0.235409 0.029159
0.000000 0.320949 0.045949
0.044620 0.319620 0.044620
0.112041 0.318291 0.043291
0.179462 0.316963 0.041962
0.246884 0.315634 0.040634
0.314305 0.314305 0.039305
0.381726 0.312976 0.037976
0.449148 0.311648 0.036647
0.516569 0.310319 0.035319
0.583990 0.308990 0.033990
0.651411 0.307661 0.032661
0.718832 0.306333 0.031332
0.786254 0.305004 0.030004
0.853675 0.303675 0.028675
0.921096 0.302346 0.027346
0.988518 0.301017 0.026017
1.000000 0.299689 0.024689
0.000000 0.385229 0.041479
0.040150 0.383900 0.040150
0.107571 0.382571 0.038821
0.174992 0.381243 0.037492
0.242414 0.379914 0.036164
0.309835 0.378585 0.034835
0.377256 0.377256 0.033506
0.444678 0.375928 0.032177
0.512099 0.374599 0.030849
0.579520 0.373270 0.029520
0.646941 0.371941 0.028191
0.714363 0.370613 0.026862
0.781784 0.369284 0.025534
0.849205 0.367955 0.024205
0.916626 0.366626 0.022876
0.984047 0.365297 0.021547
1.000000 0.363969 0.020219
0.000000 0.449509 0.037009
0.035680 0.448180 0.035680
0.103101 0.446851 0.034351
0.170522 0.445523 0.033022
0.237944 0.444194 0.031694
0.305365 0.442865 0.030365
0.372786 0.441536 0.029036
0.440208 0.440208 0.027707
0.507629 0.438879 0.026379
0.575050 0.437550 0.025050
0.642471 0.436221 0.023721
0.709893 0.434893 0.022392
0.777314 0.433564 0.021064
0.844735 0.432235 0.019735
0.912156 0.430906 0.018406
0.979577 0.429578 0.017077
1.000000 0.428249 0.015749
0.000000 0.513789 0.032539
0.031210 0.512460 0.031210
0.098631 0.511131 0.029881
0.166052 0.509803 0.028552
0.233474 0.508474 0.027224
0.300895 0.507145 0.025895
0.368316 0.505816 0.024566
0.435737 0.504487 0.023237
0.503159 0.503159 0.021909
0.570580 0.501830 0.020580
0.638001 0.500501 0.019251
0.705423 0.499173 0.017922
0.772844 0.497844 0.016594
0.840265 0.496515 0.015265
0.907686 0.495186 0.013936
0.975108 0.493858 0.012607
1.000000 0.492529 0.011279
0.000000 0.578069 0.028069
0.026740 0.576740 0.026740
0.094161 0.575411 0.025411
0.161582 0.574083 0.024082
0.229004 0.572754 0.022754
0.296425 0.571425 0.021425
0.363846 0.570096 0.020096
0.431268 0.568767 0.018767
0.498689 0.567439 0.017439
0.566110 0.566110 0.016110
0.633531 0.564781 0.014781
0.700952 0.563453 0.013452
0.768374 0.562124 0.012124
0.835795 0.560795 0.010795
0.903216 0.559466 0.009466
0.970638 0.558137 0.008137
1.000000 0.556809 0.006809
0.000000 0.642349 0.023599
0.022270 0.641020 0.022270
0.089691 0.639691 0.020941
0.157112 0.638363 0.019612
0.224534 0.637034 0.018284
0.291955 0.635705 0.016955
0.359376 0.634376 0.015626
0.426797 0.633047 0.014297
0.494219 0.631719 0.012969
0.561640 0.630390 0.011640
0.629061 0.629061 0.010311
0.696483 0.627733 0.008983
0.763904 0.626404 0.007654
0.831325 0.625075 0.006325
0.898746 0.623746 0.004996
0.966168 0.622417 0.003667
1.000000 0.621089 0.002339
0.000000 0.706629 0.019129
0.017800 0.705300 0.017800
0.085221 0.703971 0.016471
0.152642 0.702643 0.015142
0.220064 0.701314 0.013814
0.287485 0.699985 0.012485
0.354906 0.698656 0.011156
0.422327 0.697327 0.009827
0.489749 0.695999 0.008499
0.557170 0.694670 0.007170
0.624591 0.693341 0.005841
0.692013 0.692013 0.004512
0.759434 0.690684 0.003184
0.826855 0.689355 0.001855
0.894276 0.688026 0.000526
0.961698 0.686697 0.000000
1.000000 0.685369 0.000000
0.000000 0.770909 0.014659
0.013330 0.769580 0.013330
0.080751 0.768251 0.012001
0.148172 0.766922 0.010672
0.215594 0.765594 0.009344
0.283015 0.764265 0.008015
0.350436 0.762936 0.006686
0.417857 0.761607 0.005357
0.485279 0.760279 0.004029
0.552700 0.758950 0.002700
0.620121 0.757621 0.001371
0.687543 0.756293 0.000042
0.754964 0.754964 0.000000
0.822385 0.753635 0.000000
0.889806 0.752306 0.000000
0.957228 0.750977 0.000000
1.000000 0.749649 0.000000
0.000000 0.835189 0.010189
0.008860 0.833860 0.008860
0.076281 0.832531 0.007531
0.143702 0.831203 0.006202
0.211124 0.829874 0.004874
0.278545 0.828545 0.003545
0.345966 0.827216 0.002216
0.413387 0.825887 0.000887
0.480809 0.824559 0.000000
0.548230 0.823230 0.000000
0.615651 0.821901 0.000000
0.683072 0.820573 0.000000
0.750494 0.819244 0.000000
0.817915 0.817915 0.000000
0.885336 0.816586 0.000000
0.952758 0.815257 0.000000
1.000000 0.813929 0.000000
0.000000 0.899469 0.005719
0.004390 0.898140 0.004390
0.071811 0.896811 0.003061
0.139232 0.895482 0.001732
0.206654 0.894154 0.000404
0.274075 0.892825 0.000000
0.341496 0.891496 0.000000
0.408917 0.890168 0.000000
0.476339 0.888839 0.000000
0.543760 0.887510 0.000000
0.611181 0.886181 0.000000
0.678602 0.884853 0.000000
0.746024 0.883524 0.000000
0.813445 0.882195 0.000000
0.880866 0.880866 0.000000
0.948288 0.879537 0.000000
1.000000 0.878209 0.000000
0.000000 0.963749 0.001249
0.000000 0.962420 0.000000
0.067341 0.961091 0.000000
0.134762 0.959763 0.000000
0.202184 0.958434 0.000000
0.269605 0.957105 0.000000
0.337026 0.955776 0.000000
0.404447 0.954448 0.000000
0.471869 0.953119 0.000000
0.539290 0.951790 0.000000
0.606711 0.950461 0.000000
0.674133 0.949133 0.000000
0.741554 0.947804 0.000000
0.808975 0.946475 0.000000
0.876396 0.945146 0.000000
0.943817 0.943817 0.000000
1.000000 0.942489 0.000000
0.000000 1.000000 0.000000
0.000000 1.000000 0.000000
0.062871 1.000000 0.000000
0.130292 1.000000 0.000000
0.197714 1.000000 0.000000
0.265135 1.000000 0.000000
0.332556 1.000000 0.000000
0.399977 1.000000 0.000000
0.467399 1.000000 0.000000
0.534820 1.000000 0.000000
0.602241 1.000000 0.000000
0.669663 1.000000 0.000000
0.737084 1.000000 0.000000
0.804505 1.000000 0.000000
0.871926 1.000000 0.000000
0.939348 1.000000 0.000000
1.000000 1.000000 0.000000
0.000000 0.000000 0.136598
0.066519 0.000000 0.135269
0.133940 0.000000 0.133940
0.201361 0.000000 0.132611
0.268782 0.000000 0.131282
0.336204 0.000000 0.129954
0.403625 0.000000 0.128625
0.471046 0.000000 0.127296
0.538468 0.000000 0.125968
0.605889 0.000000 0.124639
0.673310 0.000000 0.123310
0.740731 0.000000 0.121981
0.808153 0.000000 0.120652
0.875574 0.000000 0.119324
0.942995 0.000000 0.117995
1.000000 0.000000 0.116666
1.000000 0.000000 0.115337
0.000000 0.063378 0.132128
0.062049 0.062049 0.130799
0.129470 0.060720 0.129470
0.196891 0.059391 0.128141
0.264313 0.058062 0.126812
0.331734 0.056734 0.125484
0.399155 0.055405 0.124155
0.466576 0.054076 0.122826
0.533998 0.052747 0.121497
0.601419 0.051419 0.120169
0.668840 0.050090 0.118840
0.736261 0.048761 0.117511
0.803683 0.047432 0.116182
0.871104 0.046104 0.114854
0.938525 0.044775 0.113525
1.000000 0.043446 0.112196
1.000000 0.042117 0.110867
0.000000 0.127658 0.127658
0.057579 0.126329 0.126329
0.125000 0.125000 0.125000
0.192421 0.123671 0.123671
0.259842 0.122342 0.122342
0.327264 0.121014 0.121014
0.394685 0.119685 0.119685
0.462106 0.118356 0.118356
0.529528 0.117027 0.117027
0.596949 0.115699 0.115699
0.664370 0.114370 0.114370
0.731791 0.113041 0.113041
0.799213 0.111712 0.111712
0.866634 0.110384 0.110384
0.934055 0.109055 0.109055
1.000000 0.107726 0.107726
1.000000 0.106397 0.106397
0.000000 0.191938 0.123188
0.053109 0.190609 0.121859
0.120530 0.189280 0.120530
0.187951 0.187951 0.119201
0.255373 0.186622 0.117872
0.322794 0.185294 0.116544
0.390215 0.183965 0.115215
0.457636 0.182636 0.113886
0.525057 0.181308 0.112557
0.592479 0.179979 0.111229
0.659900 0.178650 0.109900
0.727321 0.177321 0.108571
0.794743 0.175992 0.107242
0.862164 0.174664 0.105914
0.929585 0.173335 0.104585
0.997006 0.172006 0.103256
1.000000 0.170677 0.101928
0.000000 0.256217 0.118717
0.048639 0.254889 0.117389
0.116060 0.253560 0.116060
0.183481 0.252231 0.114731
0.250903 0.250903 0.113402
0.318324 0.249574 0.112074
0.385745 0.248245 0.110745
0.453166 0.246916 0.109416
0.520587 0.245588 0.108087
0.588009 0.244259 0.106759
0.655430 0.242930 0.105430
0.722851 0.241601 0.104101
0.790273 0.240272 0.102772
0.857694 0.238944 0.101444
0.925115 0.237615 0.100115
0.992536 0.236286 0.098786
1.000000 0.234957 0.097457
0.000000 0.320497 0.114247
0.044169 0.319169 0.112919
0.111590 0.317840 0.111590
0.179011 0.316511 0.110261
0.246432 0.315183 0.108932
0.313854 0.313854 0.107604
0.381275 0.312525 0.106275
0.448696 0.311196 0.104946
0.516118 0.309868 0.103617
0.583539 0.308539 0.102289
0.650960 0.307210 0.100960
0.718381 0.305881 0.099631
0.785802 0.304553 0.098302
0.853224 0.303224 0.096974
0.920645 0.301895 0.095645
0.988066 0.300566 0.094316
1.000000 0.299237 0.092987
0.000000 0.384777 0.109778
0.039699 0.383449 0.108449
0.107120 0.382120 0.107120
0.174541 0.380791 0.105791
0.241962 0.379463 0.104462
0.309384 0.378134 0.103134
0.376805 0.376805 0.101805
0.444226 0.375476 0.100476
0.511648 0.374148 0.099147
0.579069 0.372819 0.097819
0.646490 0.371490 0.096490
0.713911 0.370161 0.095161
0.781332 0.368833 0.093832
0.848754 0.367504 0.092504
0.916175 0.366175 0.091175
0.983596 0.364846 0.089846
1.000000 0.363517 0.088517
0.000000 0.449057 0.105307
0.035229 0.447729 0.103979
0.102650 0.446400 0.102650
0.170071 0.445071 0.101321
0.237492 0.443743 0.099992
0.304914 0.442414 0.098664
0.372335 0.441085 0.097335
0.439756 0.439756 0.096006
0.507178 0.438428 0.094677
0.574599 0.437099 0.093349
0.642020 0.435770 0.092020
0.709441 0.434441 0.090691
0.776863 0.433113 0.089362
0.844284 0.431784 0.088034
0.911705 0.430455 0.086705
0.979126 0.429126 0.085376
1.000000 0.427797 0.084047
0.000000 0.513338 0.100837
0.030759 0.512009 0.099509
0.098180 0.510680 0.098180
0.165601 0.509351 0.096851
0.233022 0.508023 0.095522
0.300444 0.506694 0.094194
0.367865 0.505365 0.092865
0.435286 0.504036 0.091536
0.502707 0.502707 0.090207
0.570129 0.501379 0.088879
0.637550 0.500050 0.087550
0.704971 0.498721 0.086221
0.772393 0.497393 0.084892
0.839814 0.496064 0.083564
0.907235 0.494735 0.082235
0.974656 0.493406 0.080906
1.000000 0.492078 0.079577
0.000000 0.577618 0.096367
0.026289 0.576289 0.095039
0.093710 0.574960 0.093710
0.161131 0.573631 0.092381
0.228552 0.572303 0.091052
0.295974 0.570974 0.089724
0.363395 0.569645 0.088395
0.430816 0.568316 0.087066
0.498237 0.566987 0.085737
0.565659 0.565659 0.084409
0.633080 0.564330 0.083080
0.700501 0.563001 0.081751
0.767923 0.561673 0.080422
0.835344 0.560344 0.079094
0.902765 0.559015 0.077765
0.970186 0.557686 0.076436
1.000000 0.556358 0.075107
0.000000 0.641898 0.091897
0.021819 0.640569 0.090569
0.089240 0.639240 0.089240
0.156661 0.637911 0.087911
0.224082 0.636583 0.086582
0.291504 0.635254 0.085254
0.358925 0.633925 0.083925
0.426346 0.632596 0.082596
0.493768 0.631267 0.081267
0.561189 0.629939 0.079939
0.628610 0.628610 0.078610
0.696031 0.627281 0.077281
0.763452 0.625953 0.075952
0.830874 0.624624 0.074624
0.898295 0.623295 0.073295
0.965716 0.621966 0.071966
1.000000 0.620637 0.070637
0.000000 0.706178 0.087427
0.017349 0.704849 0.086099
0.084770 0.703520 0.084770
0.152191 0.702191 0.083441
0.219612 0.700862 0.082112
0.287034 0.699534 0.080784
0.354455 0.698205 0.079455
0.421876 0.696876 0.078126
0.489297 0.695547 0.076797
0.556719 0.694219 0.075469
0.624140 0.692890 0.074140
0.691561 0.691561 0.072811
0.758983 0.690233 0.071483
0.826404 0.688904 0.070154
0.893825 0.687575 0.068825
0.961246 0.686246 0.067496
1.000000 0.684917 0.066167
0.000000 0.770458 0.082957
0.012879 0.769129 0.081629
0.080300 0.767800 0.080300
0.147721 0.766471 0.078971
0.215142 0.765143 0.077642
0.282564 0.763814 0.076314
0.349985 0.762485 0.074985
0.417406 0.761156 0.073656
0.484827 0.759827 0.072327
0.552249 0.758499 0.070999
0.619670 0.757170 0.069670
0.687091 0.755841 0.068341
0.754513 0.754513 0.067012
0.821934 0.753184 0.065684
0.889355 0.751855 0.064355
0.956776 0.750526 0.063026
1.000000 0.749197 0.061697
0.000000 0.834738 0.078487
0.008409 0.833409 0.077159
0.075830 0.832080 0.075830
0.143251 0.830751 0.074501
0.210672 0.829423 0.073172
0.278094 0.828094 0.071844
0.345515 0.826765 0.070515
0.412936 0.825436 0.069186
0.480357 0.824107 0.067857
0.547779 0.822779 0.066529
0.615200 0.821450 0.065200
0.682621 0.820121 0.063871
0.750043 0.818793 0.062542
0.817464 0.817464 0.061214
0.884885 0.816135 0.059885
0.952306 0.814806 0.058556
1.000000 0.813477 0.057227
0.000000 0.899018 0.074017
0.003939 0.897689 0.072689
0.071360 0.896360 0.071360
0.138781 0.895031 0.070031
0.206202 0.893703 0.068702
0.273624 0.892374 0.067374
0.341045 0.891045 0.066045
0.408466 0.889716 0.064716
0.475887 0.888387 0.063387
0.543309 0.887059 0.062059
0.610730 0.885730 0.060730
0.678151 0.884401 0.059401
0.745572 0.883073 0.058072
0.812994 0.881744 0.056744
0.880415 0.880415 0.055415
0.947836 0.879086 0.054086
1.000000 0.877757 0.052757
0.000000 0.963298 0.069547
0.000000 0.961969 0.068219
0.066890 0.960640 0.066890
0.134311 0.959311 0.065561
0.201732 0.957982 0.064232
0.269154 0.956654 0.062904
0.336575 0.955325 0.061575
0.403996 0.953996 0.060246
0.471417 0.952668 0.058917
0.538839 0.951339 0.057589
0.606260 0.950010 0.056260
0.673681 0.948681 0.054931
0.741102 0.947353 0.053602
0.808524 0.946024 0.052274
0.875945 0.944695 0.050945
0.943366 0.943366 0.049616
1.000000 0.942037 0.048287
0.000000 1.000000 0.065078
0.000000 1.000000 0.063749
0.062420 1.000000 0.062420
0.129841 1.000000 0.061091
0.197263 1.000000 0.059762
0.264684 1.000000 0.058434
0.332105 1.000000 0.057105
0.399526 1.000000 0.055776
0.466947 1.000000 0.054447
0.534369 1.000000 0.053119
0.601790 1.000000 0.051790
0.669211 1.000000 0.050461
0.736633 1.000000 0.049132
0.804054 1.000000 0.047804
0.871475 1.000000 0.046475
0.938896 1.000000 0.045146
1.000000 1.000000 0.043817
0.000000 0.000000 0.204896
0.066068 0.000000 0.203568
0.133489 0.000000 0.202239
0.200910 0.000000 0.200910
0.268331 0.000000 0.199581
0.335753 0.000000 0.198252
0.403174 0.000000 0.196924
0.470595 0.000000 0.195595
0.538016 0.000000 0.194266
0.605437 0.000000 0.192938
0.672859 0.000000 0.191609
0.740280 0.000000 0.190280
0.807701 0.000000 0.188951
0.875123 0.000000 0.187622
0.942544 0.000000 0.186294
1.000000 0.000000 0.184965
1.000000 0.000000 0.183636
0.000000 0.062926 0.200426
0.061597 0.061597 0.199098
