assets/vivid.cube
TITLE "Kaique vivid"
LUT_3D_SIZE 5
DOMAIN_MIN 0 0 0
DOMAIN_MAX 1 1 1
0.000000 0.000000 0.000000
0.269685 0.000000 0.000000
0.539370 0.000000 0.000000
0.809055 0.000000 0.000000
1.000000 0.000000 0.000000
0.000000 0.257120 0.000000
0.251805 0.251805 0.000000
0.521490 0.246490 0.000000
0.791175 0.241175 0.000000
1.000000 0.235860 0.000000
0.000000 0.514240 0.000000
0.233925 0.508925 0.000000
0.503610 0.503610 0.000000
0.773295 0.498295 0.000000
1.000000 0.492980 0.000000
0.000000 0.771360 0.000000
0.216045 0.766045 0.000000
0.485730 0.760730 0.000000
0.755415 0.755415 0.000000
1.000000 0.750100 0.000000
0.000000 1.000000 0.000000
0.198165 1.000000 0.000000
0.467850 1.000000 0.000000
0.737535 1.000000 0.000000
1.000000 1.000000 0.000000
0.000000 0.000000 0.273195
0.267880 0.000000 0.267880
0.537565 0.000000 0.262565
0.807250 0.000000 0.257250
1.000000 0.000000 0.251935
0.000000 0.255315 0.255315
0.250000 0.250000 0.250000
0.519685 0.244685 0.244685
0.789370 0.239370 0.239370
1.000000 0.234055 0.234055
0.000000 0.512435 0.237435
0.232120 0.507120 0.232120
0.501805 0.501805 0.226805
0.771490 0.496490 0.221490
1.000000 0.491175 0.216175
0.000000 0.769555 0.219555
0.214240 0.764240 0.214240
0.483925 0.758925 0.208925
0.753610 0.753610 0.203610
1.000000 0.748295 0.198295
0.000000 1.000000 0.201675
0.196360 1.000000 0.196360
0.466045 1.000000 0.191045
0.735730 1.000000 0.185730
1.000000 1.000000 0.180415
0.000000 0.000000 0.546390
0.266075 0.000000 0.541075
0.535760 0.000000 0.535760
0.805445 0.000000 0.530445
1.000000 0.000000 0.525130
0.000000 0.253510 0.528510
0.248195 0.248195 0.523195
0.517880 0.242880 0.517880
0.787565 0.237565 0.512565
1.000000 0.232250 0.507250
0.000000 0.510630 0.510630
0.230315 0.505315 0.505315
0.500000 0.500000 0.500000
0.769685 0.494685 0.494685
1.000000 0.489370 0.489370
0.000000 0.767750 0.492750
0.212435 0.762435 0.487435
0.482120 0.757120 0.482120
0.751805 0.751805 0.476805
1.000000 0.746490 0.471490
0.000000 1.000000 0.474870
0.194555 1.000000 0.469555
0.464240 1.000000 0.464240
0.733925 1.000000 0.458925
1.000000 1.000000 0.453610
0.000000 0.000000 0.819585
0.264270 0.000000 0.814270
0.533955 0.000000 0.808955
0.803640 0.000000 0.803640
1.000000 0.000000 0.798325
0.000000 0.251705 0.801705
0.246390 0.246390 0.796390
0.516075 0.241075 0.791075
0.785760 0.235760 0.785760
1.000000 0.230445 0.780445
0.000000 0.508825 0.783825
0.228510 0.503510 0.778510
0.498195 0.498195 0.773195
0.767880 0.492880 0.767880
1.000000 0.487565 0.762565
0.000000 0.765945 0.765945
0.210630 0.760630 0.760630
0.480315 0.755315 0.755315
0.750000 0.750000 0.750000
1.000000 0.744685 0.744685
0.000000 1.000000 0.748065
0.192750 1.000000 0.742750
0.462435 1.000000 0.737435
0.732120 1.000000 0.732120
1.000000 1.000000 0.726805
0.000000 0.000000 1.000000
0.262465 0.000000 1.000000
0.532150 0.000000 1.000000
0.801835 0.000000 1.000000
1.000000 0.000000 1.000000
0.000000 0.249900 1.000000
0.244585 0.244585 1.000000
0.514270 0.239270 1.000000
0.783955 0.233955 1.000000
1.000000 0.228640 1.000000
0.000000 0.507020 1.000000
0.226705 0.501705 1.000000
0.496390 0.496390 1.000000
0.766075 0.491075 1.000000
1.000000 0.485760 1.000000
0.000000 0.764140 1.000000
0.208825 0.758825 1.000000
0.478510 0.753510 1.000000
0.748195 0.748195 1.000000
1.000000 0.742880 1.000000
0.000000 1.000000 1.000000
0.190945 1.000000 1.000000
0.460630 1.000000 1.000000
0.730315 1.000000 1.000000
1.000000 1.000000 1.000000
