assets/vivid.cube
TITLE "Kaique vivid"
LUT_3D_SIZE 9
DOMAIN_MIN 0 0 0
DOMAIN_MAX 1 1 1
0.000000 0.000000 0.000000
0.134843 0.000000 0.000000
0.269685 0.000000 0.000000
0.404528 0.000000 0.000000
0.539370 0.000000 0.000000
0.674213 0.000000 0.000000
0.809055 0.000000 0.000000
0.943898 0.000000 0.000000
1.000000 0.000000 0.000000
0.000000 0.128560 0.000000
0.125903 0.125903 0.000000
0.260745 0.123245 0.000000
0.395587 0.120587 0.000000
0.530430 0.117930 0.000000
0.665273 0.115272 0.000000
0.800115 0.112615 0.000000
0.934957 0.109957 0.000000
1.000000 0.107300 0.000000
0.000000 0.257120 0.000000
0.116962 0.254463 0.000000
0.251805 0.251805 0.000000
0.386648 0.249147 0.000000
0.521490 0.246490 0.000000
0.656332 0.243833 0.000000
0.791175 0.241175 0.000000
0.926018 0.238517 0.000000
1.000000 0.235860 0.000000
0.000000 0.385680 0.000000
0.108022 0.383022 0.000000
0.242865 0.380365 0.000000
0.377708 0.377708 0.000000
0.512550 0.375050 0.000000
0.647393 0.372393 0.000000
0.782235 0.369735 0.000000
0.917077 0.367078 0.000000
1.000000 0.364420 0.000000
0.000000 0.514240 0.000000
0.099082 0.511583 0.000000
0.233925 0.508925 0.000000
0.368768 0.506267 0.000000
0.503610 0.503610 0.000000
0.638452 0.500953 0.000000
0.773295 0.498295 0.000000
0.908138 0.495638 0.000000
1.000000 0.492980 0.000000
0.000000 0.642800 0.000000
0.090142 0.640143 0.000000
0.224985 0.637485 0.000000
0.359827 0.634827 0.000000
0.494670 0.632170 0.000000
0.629513 0.629513 0.000000
0.764355 0.626855 0.000000
0.899198 0.624197 0.000000
1.000000 0.621540 0.000000
0.000000 0.771360 0.000000
0.081202 0.768703 0.000000
0.216045 0.766045 0.000000
0.350887 0.763387 0.000000
0.485730 0.760730 0.000000
0.620572 0.758073 0.000000
0.755415 0.755415 0.000000
0.890258 0.752757 0.000000
1.000000 0.750100 0.000000
0.000000 0.899920 0.000000
0.072263 0.897263 0.000000
0.207105 0.894605 0.000000
0.341947 0.891948 0.000000
0.476790 0.889290 0.000000
0.611633 0.886633 0.000000
0.746475 0.883975 0.000000
0.881317 0.881317 0.000000
1.000000 0.878660 0.000000
0.000000 1.000000 0.000000
0.063322 1.000000 0.000000
0.198165 1.000000 0.000000
0.333007 1.000000 0.000000
0.467850 1.000000 0.000000
0.602692 1.000000 0.000000
0.737535 1.000000 0.000000
0.872378 1.000000 0.000000
1.000000 1.000000 0.000000
0.000000 0.000000 0.136598
0.133940 0.000000 0.133940
0.268782 0.000000 0.131282
0.403625 0.000000 0.128625
0.538468 0.000000 0.125968
0.673310 0.000000 0.123310
0.808153 0.000000 0.120652
0.942995 0.000000 0.117995
1.000000 0.000000 0.115337
0.000000 0.127658 0.127658
0.125000 0.125000 0.125000
0.259842 0.122342 0.122342
0.394685 0.119685 0.119685
0.529528 0.117027 0.117027
0.664370 0.114370 0.114370
0.799213 0.111712 0.111712
0.934055 0.109055 0.109055
1.000000 0.106397 0.106397
0.000000 0.256217 0.118717
0.116060 0.253560 0.116060
0.250903 0.250903 0.113402
0.385745 0.248245 0.110745
0.520587 0.245588 0.108087
0.655430 0.242930 0.105430
0.790273 0.240272 0.102772
0.925115 0.237615 0.100115
1.000000 0.234957 0.097457
0.000000 0.384777 0.109778
0.107120 0.382120 0.107120
0.241962 0.379463 0.104462
0.376805 0.376805 0.101805
0.511648 0.374148 0.099147
0.646490 0.371490 0.096490
0.781332 0.368833 0.093832
0.916175 0.366175 0.091175
1.000000 0.363517 0.088517
0.000000 0.513338 0.100837
0.098180 0.510680 0.098180
0.233022 0.508023 0.095522
0.367865 0.505365 0.092865
0.502707 0.502707 0.090207
0.637550 0.500050 0.087550
0.772393 0.497393 0.084892
0.907235 0.494735 0.082235
1.000000 0.492078 0.079577
0.000000 0.641898 0.091897
0.089240 0.639240 0.089240
0.224082 0.636583 0.086582
0.358925 0.633925 0.083925
0.493768 0.631267 0.081267
0.628610 0.628610 0.078610
0.763452 0.625953 0.075952
0.898295 0.623295 0.073295
1.000000 0.620637 0.070637
0.000000 0.770458 0.082957
0.080300 0.767800 0.080300
0.215142 0.765143 0.077642
0.349985 0.762485 0.074985
0.484827 0.759827 0.072327
0.619670 0.757170 0.069670
0.754513 0.754513 0.067012
0.889355 0.751855 0.064355
1.000000 0.749197 0.061697
0.000000 0.899018 0.074017
0.071360 0.896360 0.071360
0.206202 0.893703 0.068702
0.341045 0.891045 0.066045
0.475887 0.888387 0.063387
0.610730 0.885730 0.060730
0.745572 0.883073 0.058072
0.880415 0.880415 0.055415
1.000000 0.877757 0.052757
0.000000 1.000000 0.065078
0.062420 1.000000 0.062420
0.197263 1.000000 0.059762
0.332105 1.000000 0.057105
0.466947 1.000000 0.054447
0.601790 1.000000 0.051790
0.736633 1.000000 0.049132
0.871475 1.000000 0.046475
1.000000 1.000000 0.043817
0.000000 0.000000 0.273195
0.133038 0.000000 0.270537
0.267880 0.000000 0.267880
0.402723 0.000000 0.265223
0.537565 0.000000 0.262565
0.672408 0.000000 0.259908
0.807250 0.000000 0.257250
0.942093 0.000000 0.254592
1.000000 0.000000 0.251935
0.000000 0.126755 0.264255
0.124097 0.124097 0.261598
0.258940 0.121440 0.258940
0.393783 0.118782 0.256283
0.528625 0.116125 0.253625
0.663468 0.113467 0.250968
0.798310 0.110810 0.248310
0.933153 0.108152 0.245652
1.000000 0.105495 0.242995
0.000000 0.255315 0.255315
0.115157 0.252657 0.252657
0.250000 0.250000 0.250000
0.384842 0.247342 0.247342
0.519685 0.244685 0.244685
0.654528 0.242028 0.242028
0.789370 0.239370 0.239370
0.924212 0.236712 0.236712
1.000000 0.234055 0.234055
0.000000 0.383875 0.246375
0.106217 0.381217 0.243717
0.241060 0.378560 0.241060
0.375903 0.375903 0.238402
0.510745 0.373245 0.235745
0.645587 0.370588 0.233087
0.780430 0.367930 0.230430
0.915273 0.365272 0.227772
1.000000 0.362615 0.225115
0.000000 0.512435 0.237435
0.097277 0.509777 0.234778
0.232120 0.507120 0.232120
0.366962 0.504463 0.229462
0.501805 0.501805 0.226805
0.636648 0.499148 0.224147
0.771490 0.496490 0.221490
0.906332 0.493833 0.218832
1.000000 0.491175 0.216175
0.000000 0.640995 0.228495
0.088337 0.638338 0.225837
0.223180 0.635680 0.223180
0.358023 0.633023 0.220522
0.492865 0.630365 0.217865
0.627707 0.627707 0.215207
0.762550 0.625050 0.212550
0.897393 0.622393 0.209892
1.000000 0.619735 0.207235
0.000000 0.769555 0.219555
0.079398 0.766898 0.216897
0.214240 0.764240 0.214240
0.349082 0.761583 0.211582
0.483925 0.758925 0.208925
0.618768 0.756267 0.206267
0.753610 0.753610 0.203610
0.888452 0.750953 0.200952
1.000000 0.748295 0.198295
0.000000 0.898115 0.210615
0.070457 0.895458 0.207957
0.205300 0.892800 0.205300
0.340142 0.890143 0.202642
0.474985 0.887485 0.199985
0.609827 0.884827 0.197327
0.744670 0.882170 0.194670
0.879513 0.879513 0.192012
1.000000 0.876855 0.189355
0.000000 1.000000 0.201675
0.061517 1.000000 0.199017
0.196360 1.000000 0.196360
0.331202 1.000000 0.193702
0.466045 1.000000 0.191045
0.600888 1.000000 0.188387
0.735730 1.000000 0.185730
0.870572 1.000000 0.183072
1.000000 1.000000 0.180415
0.000000 0.000000 0.409793
0.132135 0.000000 0.407135
0.266978 0.000000 0.404478
0.401820 0.000000 0.401820
0.536663 0.000000 0.399163
0.671505 0.000000 0.396505
0.806347 0.000000 0.393848
0.941190 0.000000 0.391190
1.000000 0.000000 0.388533
0.000000 0.125853 0.400853
0.123195 0.123195 0.398195
0.258038 0.120537 0.395537
0.392880 0.117880 0.392880
0.527723 0.115222 0.390223
0.662565 0.112565 0.387565
0.797408 0.109907 0.384908
0.932250 0.107250 0.382250
1.000000 0.104592 0.379592
0.000000 0.254412 0.391912
0.114255 0.251755 0.389255
0.249097 0.249097 0.386598
0.383940 0.246440 0.383940
0.518783 0.243783 0.381283
0.653625 0.241125 0.378625
0.788468 0.238467 0.375968
0.923310 0.235810 0.373310
1.000000 0.233152 0.370652
0.000000 0.382972 0.382972
0.105315 0.380315 0.380315
0.240157 0.377657 0.377657
0.375000 0.375000 0.375000
0.509842 0.372343 0.372343
0.644685 0.369685 0.369685
0.779528 0.367028 0.367028
0.914370 0.364370 0.364370
1.000000 0.361712 0.361712
0.000000 0.511532 0.374032
0.096375 0.508875 0.371375
0.231217 0.506217 0.368718
0.366060 0.503560 0.366060
0.500903 0.500903 0.363402
0.635745 0.498245 0.360745
0.770587 0.495588 0.358088
0.905430 0.492930 0.355430
1.000000 0.490272 0.352772
0.000000 0.640092 0.365092
0.087435 0.637435 0.362435
0.222277 0.634777 0.359777
0.357120 0.632120 0.357120
0.491962 0.629463 0.354463
0.626805 0.626805 0.351805
0.761648 0.624147 0.349147
0.896490 0.621490 0.346490
1.000000 0.618833 0.343832
0.000000 0.768652 0.356152
0.078495 0.765995 0.353495
0.213337 0.763338 0.350837
0.348180 0.760680 0.348180
0.483023 0.758023 0.345522
0.617865 0.755365 0.342865
0.752707 0.752707 0.340207
0.887550 0.750050 0.337550
1.000000 0.747393 0.334892
0.000000 0.897212 0.347212
0.069555 0.894555 0.344555
0.204398 0.891898 0.341897
0.339240 0.889240 0.339240
0.474082 0.886583 0.336582
0.608925 0.883925 0.333925
0.743768 0.881267 0.331267
0.878610 0.878610 0.328610
1.000000 0.875953 0.325952
0.000000 1.000000 0.338272
0.060615 1.000000 0.335615
0.195457 1.000000 0.332957
0.330300 1.000000 0.330300
0.465142 1.000000 0.327642
0.599985 1.000000 0.324985
0.734827 1.000000 0.322327
0.869670 1.000000 0.319670
1.000000 1.000000 0.317012
0.000000 0.000000 0.546390
0.131233 0.000000 0.543732
0.266075 0.000000 0.541075
0.400918 0.000000 0.538417
0.535760 0.000000 0.535760
0.670602 0.000000 0.533103
0.805445 0.000000 0.530445
0.940288 0.000000 0.527787
1.000000 0.000000 0.525130
0.000000 0.124950 0.537450
0.122292 0.122292 0.534793
0.257135 0.119635 0.532135
0.391977 0.116977 0.529478
0.526820 0.114320 0.526820
0.661663 0.111662 0.524163
0.796505 0.109005 0.521505
0.931347 0.106347 0.518848
1.000000 0.103690 0.516190
0.000000 0.253510 0.528510
0.113352 0.250852 0.525853
0.248195 0.248195 0.523195
0.383038 0.245537 0.520537
0.517880 0.242880 0.517880
0.652723 0.240223 0.515223
0.787565 0.237565 0.512565
0.922408 0.234907 0.509907
1.000000 0.232250 0.507250
0.000000 0.382070 0.519570
0.104412 0.379412 0.516912
0.239255 0.376755 0.514255
0.374097 0.374097 0.511598
0.508940 0.371440 0.508940
0.643783 0.368783 0.506282
0.778625 0.366125 0.503625
0.913468 0.363467 0.500968
1.000000 0.360810 0.498310
0.000000 0.510630 0.510630
0.095472 0.507973 0.507973
0.230315 0.505315 0.505315
0.365158 0.502657 0.502657
0.500000 0.500000 0.500000
0.634842 0.497343 0.497343
0.769685 0.494685 0.494685
0.904528 0.492028 0.492028
1.000000 0.489370 0.489370
0.000000 0.639190 0.501690
0.086532 0.636532 0.499032
0.221375 0.633875 0.496375
0.356217 0.631217 0.493718
0.491060 0.628560 0.491060
0.625903 0.625903 0.488402
0.760745 0.623245 0.485745
0.895587 0.620587 0.483088
1.000000 0.617930 0.480430
0.000000 0.767750 0.492750
0.077592 0.765092 0.490092
0.212435 0.762435 0.487435
0.347277 0.759777 0.484777
0.482120 0.757120 0.482120
0.616962 0.754463 0.479463
0.751805 0.751805 0.476805
0.886648 0.749147 0.474147
1.000000 0.746490 0.471490
0.000000 0.896310 0.483810
0.068653 0.893652 0.481152
0.203495 0.890995 0.478495
0.338337 0.888338 0.475837
0.473180 0.885680 0.473180
0.608023 0.883023 0.470523
0.742865 0.880365 0.467865
0.877707 0.877707 0.465207
1.000000 0.875050 0.462550
0.000000 1.000000 0.474870
0.059712 1.000000 0.472212
0.194555 1.000000 0.469555
0.329398 1.000000 0.466897
0.464240 1.000000 0.464240
0.599082 1.000000 0.461582
0.733925 1.000000 0.458925
0.868768 1.000000 0.456267
1.000000 1.000000 0.453610
0.000000 0.000000 0.682988
0.130330 0.000000 0.680330
0.265173 0.000000 0.677673
0.400015 0.000000 0.675015
0.534857 0.000000 0.672358
0.669700 0.000000 0.669700
0.804543 0.000000 0.667042
0.939385 0.000000 0.664385
1.000000 0.000000 0.661728
0.000000 0.124048 0.674048
0.121390 0.121390 0.671390
0.256232 0.118732 0.668733
0.391075 0.116075 0.666075
0.525918 0.113417 0.663417
0.660760 0.110760 0.660760
0.795602 0.108102 0.658103
0.930445 0.105445 0.655445
1.000000 0.102787 0.652788
0.000000 0.252607 0.665107
0.112450 0.249950 0.662450
0.247292 0.247292 0.659793
0.382135 0.244635 0.657135
0.516977 0.241978 0.654478
0.651820 0.239320 0.651820
0.786663 0.236662 0.649163
0.921505 0.234005 0.646505
1.000000 0.231347 0.643848
0.000000 0.381167 0.656168
0.103510 0.378510 0.653510
0.238352 0.375852 0.650853
0.373195 0.373195 0.648195
0.508038 0.370537 0.645537
0.642880 0.367880 0.642880
0.777723 0.365223 0.640223
0.912565 0.362565 0.637565
1.000000 0.359907 0.634907
0.000000 0.509728 0.647228
0.094570 0.507070 0.644570
0.229412 0.504413 0.641912
0.364255 0.501755 0.639255
0.499098 0.499098 0.636598
0.633940 0.496440 0.633940
0.768783 0.493783 0.631282
0.903625 0.491125 0.628625
1.000000 0.488467 0.625968
0.000000 0.638288 0.638288
0.085630 0.635630 0.635630
0.220472 0.632973 0.632973
0.355315 0.630315 0.630315
0.490158 0.627657 0.627657
0.625000 0.625000 0.625000
0.759842 0.622343 0.622343
0.894685 0.619685 0.619685
1.000000 0.617027 0.617027
0.000000 0.766848 0.629348
0.076690 0.764190 0.626690
0.211532 0.761532 0.624032
0.346375 0.758875 0.621375
0.481217 0.756217 0.618718
0.616060 0.753560 0.616060
0.750903 0.750903 0.613402
0.885745 0.748245 0.610745
1.000000 0.745587 0.608088
0.000000 0.895408 0.620408
0.067750 0.892750 0.617750
0.202592 0.890092 0.615093
0.337435 0.887435 0.612435
0.472277 0.884777 0.609777
0.607120 0.882120 0.607120
0.741962 0.879463 0.604463
0.876805 0.876805 0.601805
1.000000 0.874147 0.599147
0.000000 1.000000 0.611468
0.058810 1.000000 0.608810
0.193653 1.000000 0.606152
0.328495 1.000000 0.603495
0.463337 1.000000 0.600837
0.598180 1.000000 0.598180
0.733023 1.000000 0.595522
0.867865 1.000000 0.592865
1.000000 1.000000 0.590207
0.000000 0.000000 0.819585
0.129428 0.000000 0.816928
0.264270 0.000000 0.814270
0.399113 0.000000 0.811613
0.533955 0.000000 0.808955
0.668798 0.000000 0.806298
0.803640 0.000000 0.803640
0.938483 0.000000 0.800983
1.000000 0.000000 0.798325
0.000000 0.123145 0.810645
0.120487 0.120487 0.807988
0.255330 0.117830 0.805330
0.390173 0.115172 0.802673
0.525015 0.112515 0.800015
0.659857 0.109857 0.797358
0.794700 0.107200 0.794700
0.929543 0.104542 0.792042
1.000000 0.101885 0.789385
0.000000 0.251705 0.801705
0.111547 0.249048 0.799048
0.246390 0.246390 0.796390
0.381232 0.243732 0.793733
0.516075 0.241075 0.791075
0.650918 0.238417 0.788417
0.785760 0.235760 0.785760
0.920602 0.233102 0.783103
1.000000 0.230445 0.780445
0.000000 0.380265 0.792765
0.102607 0.377607 0.790107
0.237450 0.374950 0.787450
0.372292 0.372292 0.784793
0.507135 0.369635 0.782135
0.641977 0.366978 0.779478
0.776820 0.364320 0.776820
0.911663 0.361662 0.774163
1.000000 0.359005 0.771505
0.000000 0.508825 0.783825
0.093667 0.506167 0.781168
0.228510 0.503510 0.778510
0.363352 0.500853 0.775853
0.498195 0.498195 0.773195
0.633038 0.495537 0.770537
0.767880 0.492880 0.767880
0.902723 0.490223 0.765223
1.000000 0.487565 0.762565
0.000000 0.637385 0.774885
0.084727 0.634728 0.772228
0.219570 0.632070 0.769570
0.354413 0.629413 0.766912
0.489255 0.626755 0.764255
0.624097 0.624097 0.761598
0.758940 0.621440 0.758940
0.893783 0.618783 0.756282
1.000000 0.616125 0.753625
0.000000 0.765945 0.765945
0.075788 0.763288 0.763288
0.210630 0.760630 0.760630
0.345472 0.757973 0.757973
0.480315 0.755315 0.755315
0.615158 0.752657 0.752657
0.750000 0.750000 0.750000
0.884842 0.747343 0.747343
1.000000 0.744685 0.744685
0.000000 0.894505 0.757005
0.066847 0.891848 0.754348
0.201690 0.889190 0.751690
0.336532 0.886533 0.749032
0.471375 0.883875 0.746375
0.606217 0.881217 0.743718
0.741060 0.878560 0.741060
0.875903 0.875903 0.738402
1.000000 0.873245 0.735745
0.000000 1.000000 0.748065
0.057907 1.000000 0.745408
0.192750 1.000000 0.742750
0.327592 1.000000 0.740093
0.462435 1.000000 0.737435
0.597277 1.000000 0.734777
0.732120 1.000000 0.732120
0.866962 1.000000 0.729463
1.000000 1.000000 0.726805
0.000000 0.000000 0.956183
0.128525 0.000000 0.953525
0.263367 0.000000 0.950868
0.398210 0.000000 0.948210
0.533053 0.000000 0.945553
0.667895 0.000000 0.942895
0.802737 0.000000 0.940238
0.937580 0.000000 0.937580
1.000000 0.000000 0.934923
0.000000 0.122243 0.947243
0.119585 0.119585 0.944585
0.254428 0.116927 0.941928
0.389270 0.114270 0.939270
0.524112 0.111613 0.936613
0.658955 0.108955 0.933955
0.793798 0.106297 0.931298
0.928640 0.103640 0.928640
1.000000 0.100982 0.925983
0.000000 0.250802 0.938303
0.110645 0.248145 0.935645
0.245487 0.245487 0.932988
0.380330 0.242830 0.930330
0.515173 0.240173 0.927673
0.650015 0.237515 0.925015
0.784857 0.234857 0.922357
0.919700 0.232200 0.919700
1.000000 0.229542 0.917042
0.000000 0.379362 0.929363
0.101705 0.376705 0.926705
0.236547 0.374047 0.924048
0.371390 0.371390 0.921390
0.506232 0.368733 0.918733
0.641075 0.366075 0.916075
0.775918 0.363417 0.913417
0.910760 0.360760 0.910760
1.000000 0.358102 0.908103
0.000000 0.507923 0.920423
0.092765 0.505265 0.917765
0.227607 0.502607 0.915107
0.362450 0.499950 0.912450
0.497293 0.497293 0.909793
0.632135 0.494635 0.907135
0.766977 0.491978 0.904478
0.901820 0.489320 0.901820
1.000000 0.486662 0.899163
0.000000 0.636483 0.911482
0.083825 0.633825 0.908825
0.218667 0.631167 0.906168
0.353510 0.628510 0.903510
0.488352 0.625853 0.900853
0.623195 0.623195 0.898195
0.758038 0.620537 0.895537
0.892880 0.617880 0.892880
1.000000 0.615223 0.890223
0.000000 0.765043 0.902543
0.074885 0.762385 0.899885
0.209727 0.759728 0.897228
0.344570 0.757070 0.894570
0.479413 0.754413 0.891912
0.614255 0.751755 0.889255
0.749097 0.749097 0.886598
0.883940 0.746440 0.883940
1.000000 0.743783 0.881282
0.000000 0.893603 0.893603
0.065945 0.890945 0.890945
0.200788 0.888288 0.888288
0.335630 0.885630 0.885630
0.470472 0.882973 0.882973
0.605315 0.880315 0.880315
0.740158 0.877657 0.877657
0.875000 0.875000 0.875000
1.000000 0.872343 0.872343
0.000000 1.000000 0.884663
0.057005 1.000000 0.882005
0.191847 1.000000 0.879348
0.326690 1.000000 0.876690
0.461532 1.000000 0.874032
0.596375 1.000000 0.871375
0.731217 1.000000 0.868718
0.866060 1.000000 0.866060
1.000000 1.000000 0.863402
0.000000 0.000000 1.000000
0.127622 0.000000 1.000000
0.262465 0.000000 1.000000
0.397308 0.000000 1.000000
0.532150 0.000000 1.000000
0.666993 0.000000 1.000000
0.801835 0.000000 1.000000
0.936678 0.000000 1.000000
1.000000 0.000000 1.000000
0.000000 0.121340 1.000000
0.118682 0.118682 1.000000
0.253525 0.116025 1.000000
0.388367 0.113367 1.000000
0.523210 0.110710 1.000000
0.658053 0.108052 1.000000
0.792895 0.105395 1.000000
0.927738 0.102737 1.000000
1.000000 0.100080 1.000000
0.000000 0.249900 1.000000
0.109742 0.247243 1.000000
0.244585 0.244585 1.000000
0.379428 0.241927 1.000000
0.514270 0.239270 1.000000
0.649112 0.236612 1.000000
0.783955 0.233955 1.000000
0.918798 0.231297 1.000000
1.000000 0.228640 1.000000
0.000000 0.378460 1.000000
0.100802 0.375802 1.000000
0.235645 0.373145 1.000000
0.370487 0.370487 1.000000
0.505330 0.367830 1.000000
0.640173 0.365173 1.000000
0.775015 0.362515 1.000000
0.909857 0.359857 1.000000
1.000000 0.357200 1.000000
0.000000 0.507020 1.000000
0.091862 0.504363 1.000000
0.226705 0.501705 1.000000
0.361548 0.499047 1.000000
0.496390 0.496390 1.000000
0.631232 0.493733 1.000000
0.766075 0.491075 1.000000
0.900918 0.488418 1.000000
1.000000 0.485760 1.000000
0.000000 0.635580 1.000000
0.082922 0.632923 1.000000
0.217765 0.630265 1.000000
0.352607 0.627607 1.000000
0.487450 0.624950 1.000000
0.622293 0.622293 1.000000
0.757135 0.619635 1.000000
0.891977 0.616977 1.000000
1.000000 0.614320 1.000000
0.000000 0.764140 1.000000
0.073982 0.761483 1.000000
0.208825 0.758825 1.000000
0.343667 0.756167 1.000000
0.478510 0.753510 1.000000
0.613352 0.750853 1.000000
0.748195 0.748195 1.000000
0.883038 0.745537 1.000000
1.000000 0.742880 1.000000
0.000000 0.892700 1.000000
0.065043 0.890043 1.000000
0.199885 0.887385 1.000000
0.334727 0.884728 1.000000
0.469570 0.882070 1.000000
0.604413 0.879413 1.000000
0.739255 0.876755 1.000000
0.874097 0.874097 1.000000
1.000000 0.871440 1.000000
0.000000 1.000000 1.000000
0.056102 1.000000 1.000000
0.190945 1.000000 1.000000
0.325788 1.000000 1.000000
0.460630 1.000000 1.000000
0.595472 1.000000 1.000000
0.730315 1.000000 1.000000
0.865158 1.000000 1.000000
1.000000 1.000000 1.000000
