assets/warm.cube
TITLE "Kaique warm"
LUT_3D_SIZE 17
DOMAIN_MIN 0 0 0
DOMAIN_MAX 1 1 1
0.000000 0.000000 0.000000
0.064062 0.000000 0.000000
0.128125 0.000000 0.000000
0.192187 0.000000 0.000000
0.256250 0.000000 0.000000
0.320312 0.000000 0.000000
0.384375 0.000000 0.000000
0.448437 0.000000 0.000000
0.512500 0.000000 0.000000
0.576562 0.000000 0.000000
0.640625 0.000000 0.000000
0.704687 0.000000 0.000000
0.768750 0.000000 0.000000
0.832812 0.000000 0.000000
0.896875 0.000000 0.000000
0.960937 0.000000 0.000000
1.000000 0.000000 0.000000
0.000000 0.062500 0.000000
0.064062 0.062500 0.000000
0.128125 0.062500 0.000000
0.192187 0.062500 0.000000
0.256250 0.062500 0.000000
0.320312 0.062500 0.000000
0.384375 0.062500 0.000000
0.448437 0.062500 0.000000
0.512500 0.062500 0.000000
0.576562 0.062500 0.000000
0.640625 0.062500 0.000000
0.704687 0.062500 0.000000
0.768750 0.062500 0.000000
0.832812 0.062500 0.000000
0.896875 0.062500 0.000000
0.960937 0.062500 0.000000
1.000000 0.062500 0.000000
0.000000 0.125000 0.000000
0.064062 0.125000 0.000000
0.128125 0.125000 0.000000
0.192187 0.125000 0.000000
0.256250 0.125000 0.000000
0.320312 0.125000 0.000000
0.384375 0.125000 0.000000
0.448437 0.125000 0.000000
0.512500 0.125000 0.000000
0.576562 0.125000 0.000000
0.640625 0.125000 0.000000
0.704687 0.125000 0.000000
0.768750 0.125000 0.000000
0.832812 0.125000 0.000000
0.896875 0.125000 0.000000
0.960937 0.125000 0.000000
1.000000 0.125000 0.000000
0.000000 0.187500 0.000000
0.064062 0.187500 0.000000
0.128125 0.187500 0.000000
0.192187 0.187500 0.000000
0.256250 0.187500 0.000000
0.320312 0.187500 0.000000
0.384375 0.187500 0.000000
0.448437 0.187500 0.000000
0.512500 0.187500 0.000000
0.576562 0.187500 0.000000
0.640625 0.187500 0.000000
0.704687 0.187500 0.000000
0.768750 0.187500 0.000000
0.832812 0.187500 0.000000
0.896875 0.187500 0.000000
0.960937 0.187500 0.000000
1.000000 0.187500 0.000000
0.000000 0.250000 0.000000
0.064062 0.250000 0.000000
0.128125 0.250000 0.000000
0.192187 0.250000 0.000000
0.256250 0.250000 0.000000
0.320312 0.250000 0.000000
0.384375 0.250000 0.000000
0.448437 0.250000 0.000000
0.512500 0.250000 0.000000
0.576562 0.250000 0.000000
0.640625 0.250000 0.000000
0.704687 0.250000 0.000000
0.768750 0.250000 0.000000
0.832812 0.250000 0.000000
0.896875 0.250000 0.000000
0.960937 0.250000 0.000000
1.000000 0.250000 0.000000
0.000000 0.312500 0.000000
0.064062 0.312500 0.000000
0.128125 0.312500 0.000000
0.192187 0.312500 0.000000
0.256250 0.312500 0.000000
0.320312 0.312500 0.000000
0.384375 0.312500 0.000000
0.448437 0.312500 0.000000
0.512500 0.312500 0.000000
0.576562 0.312500 0.000000
0.640625 0.312500 0.000000
0.704687 0.312500 0.000000
0.768750 0.312500 0.000000
0.832812 0.312500 0.000000
0.896875 0.312500 0.000000
0.960937 0.312500 0.000000
1.000000 0.312500 0.000000
0.000000 0.375000 0.000000
0.064062 0.375000 0.000000
0.128125 0.375000 0.000000
0.192187 0.375000 0.000000
0.256250 0.375000 0.000000
0.320312 0.375000 0.000000
0.384375 0.375000 0.000000
0.448437 0.375000 0.000000
0.512500 0.375000 0.000000
0.576562 0.375000 0.000000
0.640625 0.375000 0.000000
0.704687 0.375000 0.000000
0.768750 0.375000 0.000000
0.832812 0.375000 0.000000
0.896875 0.375000 0.000000
0.960937 0.375000 0.000000
1.000000 0.375000 0.000000
0.000000 0.437500 0.000000
0.064062 0.437500 0.000000
0.128125 0.437500 0.000000
0.192187 0.437500 0.000000
0.256250 0.437500 0.000000
0.320312 0.437500 0.000000
0.384375 0.437500 0.000000
0.448437 0.437500 0.000000
0.512500 0.437500 0.000000
0.576562 0.437500 0.000000
0.640625 0.437500 0.000000
0.704687 0.437500 0.000000
0.768750 0.437500 0.000000
0.832812 0.437500 0.000000
0.896875 0.437500 0.000000
0.960937 0.437500 0.000000
1.000000 0.437500 0.000000
0.000000 0.500000 0.000000
0.064062 0.500000 0.000000
0.128125 0.500000 0.000000
0.192187 0.500000 0.000000
0.256250 0.500000 0.000000
0.320312 0.500000 0.000000
0.384375 0.500000 0.000000
0.448437 0.500000 0.000000
0.512500 0.500000 0.000000
0.576562 0.500000 0.000000
0.640625 0.500000 0.000000
0.704687 0.500000 0.000000
0.768750 0.500000 0.000000
0.832812 0.500000 0.000000
0.896875 0.500000 0.000000
0.960937 0.500000 0.000000
1.000000 0.500000 0.000000
0.000000 0.562500 0.000000
0.064062 0.562500 0.000000
0.128125 0.562500 0.000000
0.192187 0.562500 0.000000
0.256250 0.562500 0.000000
0.320312 0.562500 0.000000
0.384375 0.562500 0.000000
0.448437 0.562500 0.000000
0.512500 0.562500 0.000000
0.576562 0.562500 0.000000
0.640625 0.562500 0.000000
0.704687 0.562500 0.000000
0.768750 0.562500 0.000000
0.832812 0.562500 0.000000
0.896875 0.562500 0.000000
0.960937 0.562500 0.000000
1.000000 0.562500 0.000000
0.000000 0.625000 0.000000
0.064062 0.625000 0.000000
0.128125 0.625000 0.000000
0.192187 0.625000 0.000000
0.256250 0.625000 0.000000
0.320312 0.625000 0.000000
0.384375 0.625000 0.000000
0.448437 0.625000 0.000000
0.512500 0.625000 0.000000
0.576562 0.625000 0.000000
0.640625 0.625000 0.000000
0.704687 0.625000 0.000000
0.768750 0.625000 0.000000
0.832812 0.625000 0.000000
0.896875 0.625000 0.000000
0.960937 0.625000 0.000000
1.000000 0.625000 0.000000
0.000000 0.687500 0.000000
0.064062 0.687500 0.000000
0.128125 0.687500 0.000000
0.192187 0.687500 0.000000
0.256250 0.687500 0.000000
0.320312 0.687500 0.000000
0.384375 0.687500 0.000000
0.448437 0.687500 0.000000
0.512500 0.687500 0.000000
0.576562 0.687500 0.000000
0.640625 0.687500 0.000000
0.704687 0.687500 0.000000
0.768750 0.687500 0.000000
0.832812 0.687500 0.000000
0.896875 0.687500 0.000000
0.960937 0.687500 0.000000
1.000000 0.687500 0.000000
0.000000 0.750000 0.000000
0.064062 0.750000 0.000000
0.128125 0.750000 0.000000
0.192187 0.750000 0.000000
0.256250 0.750000 0.000000
0.320312 0.750000 0.000000
0.384375 0.750000 0.000000
0.448437 0.750000 0.000000
0.512500 0.750000 0.000000
0.576562 0.750000 0.000000
0.640625 0.750000 0.000000
0.704687 0.750000 0.000000
0.768750 0.750000 0.000000
0.832812 0.750000 0.000000
0.896875 0.750000 0.000000
0.960937 0.750000 0.000000
1.000000 0.750000 0.000000
0.000000 0.812500 0.000000
0.064062 0.812500 0.000000
0.128125 0.812500 0.000000
0.192187 0.812500 0.000000
0.256250 0.812500 0.000000
0.320312 0.812500 0.000000
0.384375 0.812500 0.000000
0.448437 0.812500 0.000000
0.512500 0.812500 0.000000
0.576562 0.812500 0.000000
0.640625 0.812500 0.000000
0.704687 0.812500 0.000000
0.768750 0.812500 0.000000
0.832812 0.812500 0.000000
0.896875 0.812500 0.000000
0.960937 0.812500 0.000000
1.000000 0.812500 0.000000
0.000000 0.875000 0.000000
0.064062 0.875000 0.000000
0.128125 0.875000 0.000000
0.192187 0.875000 0.000000
0.256250 0.875000 0.000000
0.320312 0.875000 0.000000
0.384375 0.875000 0.000000
0.448437 0.875000 0.000000
0.512500 0.875000 0.000000
0.576562 0.875000 0.000000
0.640625 0.875000 0.000000
0.704687 0.875000 0.000000
0.768750 0.875000 0.000000
0.832812 0.875000 0.000000
0.896875 0.875000 0.000000
0.960937 0.875000 0.000000
1.000000 0.875000 0.000000
0.000000 0.937500 0.000000
0.064062 0.937500 0.000000
0.128125 0.937500 0.000000
0.192187 0.937500 0.000000
0.256250 0.937500 0.000000
0.320312 0.937500 0.000000
0.384375 0.937500 0.000000
0.448437 0.937500 0.000000
0.512500 0.937500 0.000000
0.576562 0.937500 0.000000
0.640625 0.937500 0.000000
0.704687 0.937500 0.000000
0.768750 0.937500 0.000000
0.832812 0.937500 0.000000
0.896875 0.937500 0.000000
0.960937 0.937500 0.000000
1.000000 0.937500 0.000000
0.000000 1.000000 0.000000
0.064062 1.000000 0.000000
0.128125 1.000000 0.000000
0.192187 1.000000 0.000000
0.256250 1.000000 0.000000
0.320312 1.000000 0.000000
0.384375 1.000000 0.000000
0.448437 1.000000 0.000000
0.512500 1.000000 0.000000
0.576562 1.000000 0.000000
0.640625 1.000000 0.000000
0.704687 1.000000 0.000000
0.768750 1.000000 0.000000
0.832812 1.000000 0.000000
0.896875 1.000000 0.000000
0.960937 1.000000 0.000000
1.000000 1.000000 0.000000
0.000000 0.000000 0.060937
0.064062 0.000000 0.060937
0.128125 0.000000 0.060937
0.192187 0.000000 0.060937
0.256250 0.000000 0.060937
0.320312 0.000000 0.060937
0.384375 0.000000 0.060937
0.448437 0.000000 0.060937
0.512500 0.000000 0.060937
0.576562 0.000000 0.060937
0.640625 0.000000 0.060937
0.704687 0.000000 0.060937
0.768750 0.000000 0.060937
0.832812 0.000000 0.060937
0.896875 0.000000 0.060937
0.960937 0.000000 0.060937
1.000000 0.000000 0.060937
0.000000 0.062500 0.060937
0.064062 0.062500 0.060937
0.128125 0.062500 0.060937
0.192187 0.062500 0.060937
0.256250 0.062500 0.060937
0.320312 0.062500 0.060937
0.384375 0.062500 0.060937
0.448437 0.062500 0.060937
0.512500 0.062500 0.060937
0.576562 0.062500 0.060937
0.640625 0.062500 0.060937
0.704687 0.062500 0.060937
0.768750 0.062500 0.060937
0.832812 0.062500 0.060937
0.896875 0.062500 0.060937
0.960937 0.062500 0.060937
1.000000 0.062500 0.060937
0.000000 0.125000 0.060937
0.064062 0.125000 0.060937
0.128125 0.125000 0.060937
0.192187 0.125000 0.060937
0.256250 0.125000 0.060937
0.320312 0.125000 0.060937
0.384375 0.125000 0.060937
0.448437 0.125000 0.060937
0.512500 0.125000 0.060937
0.576562 0.125000 0.060937
0.640625 0.125000 0.060937
0.704687 0.125000 0.060937
0.768750 0.125000 0.060937
0.832812 0.125000 0.060937
0.896875 0.125000 0.060937
0.960937 0.125000 0.060937
1.000000 0.125000 0.060937
0.000000 0.187500 0.060937
0.064062 0.187500 0.060937
0.128125 0.187500 0.060937
0.192187 0.187500 0.060937
0.256250 0.187500 0.060937
0.320312 0.187500 0.060937
0.384375 0.187500 0.060937
0.448437 0.187500 0.060937
0.512500 0.187500 0.060937
0.576562 0.187500 0.060937
0.640625 0.187500 0.060937
0.704687 0.187500 0.060937
0.768750 0.187500 0.060937
0.832812 0.187500 0.060937
0.896875 0.187500 0.060937
0.960937 0.187500 0.060937
1.000000 0.187500 0.060937
0.000000 0.250000 0.060937
0.064062 0.250000 0.060937
0.128125 0.250000 0.060937
0.192187 0.250000 0.060937
0.256250 0.250000 0.060937
0.320312 0.250000 0.060937
0.384375 0.250000 0.060937
0.448437 0.250000 0.060937
0.512500 0.250000 0.060937
0.576562 0.250000 0.060937
0.640625 0.250000 0.060937
0.704687 0.250000 0.060937
0.768750 0.250000 0.060937
0.832812 0.250000 0.060937
0.896875 0.250000 0.060937
0.960937 0.250000 0.060937
1.000000 0.250000 0.060937
0.000000 0.312500 0.060937
0.064062 0.312500 0.060937
0.128125 0.312500 0.060937
0.192187 0.312500 0.060937
0.256250 0.312500 0.060937
0.320312 0.312500 0.060937
0.384375 0.312500 0.060937
0.448437 0.312500 0.060937
0.512500 0.312500 0.060937
0.576562 0.312500 0.060937
0.640625 0.312500 0.060937
0.704687 0.312500 0.060937
0.768750 0.312500 0.060937
0.832812 0.312500 0.060937
0.896875 0.312500 0.060937
0.960937 0.312500 0.060937
1.000000 0.312500 0.060937
0.000000 0.375000 0.060937
0.064062 0.375000 0.060937
0.128125 0.375000 0.060937
0.192187 0.375000 0.060937
0.256250 0.375000 0.060937
0.320312 0.375000 0.060937
0.384375 0.375000 0.060937
0.448437 0.375000 0.060937
0.512500 0.375000 0.060937
0.576562 0.375000 0.060937
0.640625 0.375000 0.060937
0.704687 0.375000 0.060937
0.768750 0.375000 0.060937
0.832812 0.375000 0.060937
0.896875 0.375000 0.060937
0.960937 0.375000 0.060937
1.000000 0.375000 0.060937
0.000000 0.437500 0.060937
0.064062 0.437500 0.060937
0.128125 0.437500 0.060937
0.192187 0.437500 0.060937
0.256250 0.437500 0.060937
0.320312 0.437500 0.060937
0.384375 0.437500 0.060937
0.448437 0.437500 0.060937
0.512500 0.437500 0.060937
0.576562 0.437500 0.060937
0.640625 0.437500 0.060937
0.704687 0.437500 0.060937
0.768750 0.437500 0.060937
0.832812 0.437500 0.060937
0.896875 0.437500 0.060937
0.960937 0.437500 0.060937
1.000000 0.437500 0.060937
0.000000 0.500000 0.060937
0.064062 0.500000 0.060937
0.128125 0.500000 0.060937
0.192187 0.500000 0.060937
0.256250 0.500000 0.060937
0.320312 0.500000 0.060937
0.384375 0.500000 0.060937
0.448437 0.500000 0.060937
0.512500 0.500000 0.060937
0.576562 0.500000 0.060937
0.640625 0.500000 0.060937
0.704687 0.500000 0.060937
0.768750 0.500000 0.060937
0.832812 0.500000 0.060937
0.896875 0.500000 0.060937
0.960937 0.500000 0.060937
1.000000 0.500000 0.060937
0.000000 0.562500 0.060937
0.064062 0.562500 0.060937
0.128125 0.562500 0.060937
0.192187 0.562500 0.060937
0.256250 0.562500 0.060937
0.320312 0.562500 0.060937
0.384375 0.562500 0.060937
0.448437 0.562500 0.060937
0.512500 0.562500 0.060937
0.576562 0.562500 0.060937
0.640625 0.562500 0.060937
0.704687 0.562500 0.060937
0.768750 0.562500 0.060937
0.832812 0.562500 0.060937
0.896875 0.562500 0.060937
0.960937 0.562500 0.060937
1.000000 0.562500 0.060937
0.000000 0.625000 0.060937
0.064062 0.625000 0.060937
0.128125 0.625000 0.060937
0.192187 0.625000 0.060937
0.256250 0.625000 0.060937
0.320312 0.625000 0.060937
0.384375 0.625000 0.060937
0.448437 0.625000 0.060937
0.512500 0.625000 0.060937
0.576562 0.625000 0.060937
0.640625 0.625000 0.060937
0.704687 0.625000 0.060937
0.768750 0.625000 0.060937
0.832812 0.625000 0.060937
0.896875 0.625000 0.060937
0.960937 0.625000 0.060937
1.000000 0.625000 0.060937
0.000000 0.687500 0.060937
0.064062 0.687500 0.060937
0.128125 0.687500 0.060937
0.192187 0.687500 0.060937
0.256250 0.687500 0.060937
0.320312 0.687500 0.060937
0.384375 0.687500 0.060937
0.448437 0.687500 0.060937
0.512500 0.687500 0.060937
0.576562 0.687500 0.060937
0.640625 0.687500 0.060937
0.704687 0.687500 0.060937
0.768750 0.687500 0.060937
0.832812 0.687500 0.060937
0.896875 0.687500 0.060937
0.960937 0.687500 0.060937
1.000000 0.687500 0.060937
0.000000 0.750000 0.060937
0.064062 0.750000 0.060937
0.128125 0.750000 0.060937
0.192187 0.750000 0.060937
0.256250 0.750000 0.060937
0.320312 0.750000 0.060937
0.384375 0.750000 0.060937
0.448437 0.750000 0.060937
0.512500 0.750000 0.060937
0.576562 0.750000 0.060937
0.640625 0.750000 0.060937
0.704687 0.750000 0.060937
0.768750 0.750000 0.060937
0.832812 0.750000 0.060937
0.896875 0.750000 0.060937
0.960937 0.750000 0.060937
1.000000 0.750000 0.060937
0.000000 0.812500 0.060937
0.064062 0.812500 0.060937
0.128125 0.812500 0.060937
0.192187 0.812500 0.060937
0.256250 0.812500 0.060937
0.320312 0.812500 0.060937
0.384375 0.812500 0.060937
0.448437 0.812500 0.060937
0.512500 0.812500 0.060937
0.576562 0.812500 0.060937
0.640625 0.812500 0.060937
0.704687 0.812500 0.060937
0.768750 0.812500 0.060937
0.832812 0.812500 0.060937
0.896875 0.812500 0.060937
0.960937 0.812500 0.060937
1.000000 0.812500 0.060937
0.000000 0.875000 0.060937
0.064062 0.875000 0.060937
0.128125 0.875000 0.060937
0.192187 0.875000 0.060937
0.256250 0.875000 0.060937
0.320312 0.875000 0.060937
0.384375 0.875000 0.060937
0.448437 0.875000 0.060937
0.512500 0.875000 0.060937
0.576562 0.875000 0.060937
0.640625 0.875000 0.060937
0.704687 0.875000 0.060937
0.768750 0.875000 0.060937
0.832812 0.875000 0.060937
0.896875 0.875000 0.060937
0.960937 0.875000 0.060937
1.000000 0.875000 0.060937
0.000000 0.937500 0.060937
0.064062 0.937500 0.060937
0.128125 0.937500 0.060937
0.192187 0.937500 0.060937
0.256250 0.937500 0.060937
0.320312 0.937500 0.060937
0.384375 0.937500 0.060937
0.448437 0.937500 0.060937
0.512500 0.937500 0.060937
0.576562 0.937500 0.060937
0.640625 0.937500 0.060937
0.704687 0.937500 0.060937
0.768750 0.937500 0.060937
0.832812 0.937500 0.060937
0.896875 0.937500 0.060937
0.960937 0.937500 0.060937
1.000000 0.937500 0.060937
0.000000 1.000000 0.060937
0.064062 1.000000 0.060937
0.128125 1.000000 0.060937
0.192187 1.000000 0.060937
0.256250 1.000000 0.060937
0.320312 1.000000 0.060937
0.384375 1.000000 0.060937
0.448437 1.000000 0.060937
0.512500 1.000000 0.060937
0.576562 1.000000 0.060937
0.640625 1.000000 0.060937
0.704687 1.000000 0.060937
0.768750 1.000000 0.060937
0.832812 1.000000 0.060937
0.896875 1.000000 0.060937
0.960937 1.000000 0.060937
1.000000 1.000000 0.060937
0.000000 0.000000 0.121875
0.064062 0.000000 0.121875
0.128125 0.000000 0.121875
0.192187 0.000000 0.121875
0.256250 0.000000 0.121875
0.320312 0.000000 0.121875
0.384375 0.000000 0.121875
0.448437 0.000000 0.121875
0.512500 0.000000 0.121875
0.576562 0.000000 0.121875
0.640625 0.000000 0.121875
0.704687 0.000000 0.121875
0.768750 0.000000 0.121875
0.832812 0.000000 0.121875
0.896875 0.000000 0.121875
0.960937 0.000000 0.121875
1.000000 0.000000 0.121875
0.000000 0.062500 0.121875
0.064062 0.062500 0.121875
0.128125 0.062500 0.121875
0.192187 0.062500 0.121875
0.256250 0.062500 0.121875
0.320312 0.062500 0.121875
0.384375 0.062500 0.121875
0.448437 0.062500 0.121875
0.512500 0.062500 0.121875
0.576562 0.062500 0.121875
0.640625 0.062500 0.121875
0.704687 0.062500 0.121875
0.768750 0.062500 0.121875
0.832812 0.062500 0.121875
0.896875 0.062500 0.121875
0.960937 0.062500 0.121875
1.000000 0.062500 0.121875
0.000000 0.125000 0.121875
0.064062 0.125000 0.121875
0.128125 0.125000 0.121875
0.192187 0.125000 0.121875
0.256250 0.125000 0.121875
0.320312 0.125000 0.121875
0.384375 0.125000 0.121875
0.448437 0.125000 0.121875
0.512500 0.125000 0.121875
0.576562 0.125000 0.121875
0.640625 0.125000 0.121875
0.704687 0.125000 0.121875
0.768750 0.125000 0.121875
0.832812 0.125000 0.121875
0.896875 0.125000 0.121875
0.960937 0.125000 0.121875
1.000000 0.125000 0.121875
0.000000 0.187500 0.121875
0.064062 0.187500 0.121875
0.128125 0.187500 0.121875
0.192187 0.187500 0.121875
0.256250 0.187500 0.121875
0.320312 0.187500 0.121875
0.384375 0.187500 0.121875
0.448437 0.187500 0.121875
0.512500 0.187500 0.121875
0.576562 0.187500 0.121875
0.640625 0.187500 0.121875
0.704687 0.187500 0.121875
0.768750 0.187500 0.121875
0.832812 0.187500 0.121875
0.896875 0.187500 0.121875
0.960937 0.187500 0.121875
1.000000 0.187500 0.121875
0.000000 0.250000 0.121875
0.064062 0.250000 0.121875
0.128125 0.250000 0.121875
0.192187 0.250000 0.121875
0.256250 0.250000 0.121875
0.320312 0.250000 0.121875
0.384375 0.250000 0.121875
0.448437 0.250000 0.121875
0.512500 0.250000 0.121875
0.576562 0.250000 0.121875
0.640625 0.250000 0.121875
0.704687 0.250000 0.121875
0.768750 0.250000 0.121875
0.832812 0.250000 0.121875
0.896875 0.250000 0.121875
0.960937 0.250000 0.121875
1.000000 0.250000 0.121875
0.000000 0.312500 0.121875
0.064062 0.312500 0.121875
0.128125 0.312500 0.121875
0.192187 0.312500 0.121875
0.256250 0.312500 0.121875
0.320312 0.312500 0.121875
0.384375 0.312500 0.121875
0.448437 0.312500 0.121875
0.512500 0.312500 0.121875
0.576562 0.312500 0.121875
0.640625 0.312500 0.121875
0.704687 0.312500 0.121875
0.768750 0.312500 0.121875
0.832812 0.312500 0.121875
0.896875 0.312500 0.121875
0.960937 0.312500 0.121875
1.000000 0.312500 0.121875
0.000000 0.375000 0.121875
0.064062 0.375000 0.121875
0.128125 0.375000 0.121875
0.192187 0.375000 0.121875
0.256250 0.375000 0.121875
0.320312 0.375000 0.121875
0.384375 0.375000 0.121875
0.448437 0.375000 0.121875
0.512500 0.375000 0.121875
0.576562 0.375000 0.121875
0.640625 0.375000 0.121875
0.704687 0.375000 0.121875
0.768750 0.375000 0.121875
0.832812 0.375000 0.121875
0.896875 0.375000 0.121875
0.960937 0.375000 0.121875
1.000000 0.375000 0.121875
0.000000 0.437500 0.121875
0.064062 0.437500 0.121875
0.128125 0.437500 0.121875
0.192187 0.437500 0.121875
0.256250 0.437500 0.121875
0.320312 0.437500 0.121875
0.384375 0.437500 0.121875
0.448437 0.437500 0.121875
0.512500 0.437500 0.121875
0.576562 0.437500 0.121875
0.640625 0.437500 0.121875
0.704687 0.437500 0.121875
0.768750 0.437500 0.121875
0.832812 0.437500 0.121875
0.896875 0.437500 0.121875
0.960937 0.437500 0.121875
1.000000 0.437500 0.121875
0.000000 0.500000 0.121875
0.064062 0.500000 0.121875
0.128125 0.500000 0.121875
0.192187 0.500000 0.121875
0.256250 0.500000 0.121875
0.320312 0.500000 0.121875
0.384375 0.500000 0.121875
0.448437 0.500000 0.121875
0.512500 0.500000 0.121875
0.576562 0.500000 0.121875
0.640625 0.500000 0.121875
0.704687 0.500000 0.121875
0.768750 0.500000 0.121875
0.832812 0.500000 0.121875
0.896875 0.500000 0.121875
0.960937 0.500000 0.121875
1.000000 0.500000 0.121875
0.000000 0.562500 0.121875
0.064062 0.562500 0.121875
0.128125 0.562500 0.121875
0.192187 0.562500 0.121875
0.256250 0.562500 0.121875
0.320312 0.562500 0.121875
0.384375 0.562500 0.121875
0.448437 0.562500 0.121875
0.512500 0.562500 0.121875
0.576562 0.562500 0.121875
0.640625 0.562500 0.121875
0.704687 0.562500 0.121875
0.768750 0.562500 0.121875
0.832812 0.562500 0.121875
0.896875 0.562500 0.121875
0.960937 0.562500 0.121875
1.000000 0.562500 0.121875
0.000000 0.625000 0.121875
0.064062 0.625000 0.121875
0.128125 0.625000 0.121875
0.192187 0.625000 0.121875
0.256250 0.625000 0.121875
0.320312 0.625000 0.121875
0.384375 0.625000 0.121875
0.448437 0.625000 0.121875
0.512500 0.625000 0.121875
0.576562 0.625000 0.121875
0.640625 0.625000 0.121875
0.704687 0.625000 0.121875
0.768750 0.625000 0.121875
0.832812 0.625000 0.121875
0.896875 0.625000 0.121875
0.960937 0.625000 0.121875
1.000000 0.625000 0.121875
0.000000 0.687500 0.121875
0.064062 0.687500 0.121875
0.128125 0.687500 0.121875
0.192187 0.687500 0.121875
0.256250 0.687500 0.121875
0.320312 0.687500 0.121875
0.384375 0.687500 0.121875
0.448437 0.687500 0.121875
0.512500 0.687500 0.121875
0.576562 0.687500 0.121875
0.640625 0.687500 0.121875
0.704687 0.687500 0.121875
0.768750 0.687500 0.121875
0.832812 0.687500 0.121875
0.896875 0.687500 0.121875
0.960937 0.687500 0.121875
1.000000 0.687500 0.121875
0.000000 0.750000 0.121875
0.064062 0.750000 0.121875
0.128125 0.750000 0.121875
0.192187 0.750000 0.121875
0.256250 0.750000 0.121875
0.320312 0.750000 0.121875
0.384375 0.750000 0.121875
0.448437 0.750000 0.121875
0.512500 0.750000 0.121875
0.576562 0.750000 0.121875
0.640625 0.750000 0.121875
0.704687 0.750000 0.121875
0.768750 0.750000 0.121875
0.832812 0.750000 0.121875
0.896875 0.750000 0.121875
0.960937 0.750000 0.121875
1.000000 0.750000 0.121875
0.000000 0.812500 0.121875
0.064062 0.812500 0.121875
0.128125 0.812500 0.121875
0.192187 0.812500 0.121875
0.256250 0.812500 0.121875
0.320312 0.812500 0.121875
0.384375 0.812500 0.121875
0.448437 0.812500 0.121875
0.512500 0.812500 0.121875
0.576562 0.812500 0.121875
0.640625 0.812500 0.121875
0.704687 0.812500 0.121875
0.768750 0.812500 0.121875
0.832812 0.812500 0.121875
0.896875 0.812500 0.121875
0.960937 0.812500 0.121875
1.000000 0.812500 0.121875
0.000000 0.875000 0.121875
0.064062 0.875000 0.121875
0.128125 0.875000 0.121875
0.192187 0.875000 0.121875
0.256250 0.875000 0.121875
0.320312 0.875000 0.121875
0.384375 0.875000 0.121875
0.448437 0.875000 0.121875
0.512500 0.875000 0.121875
0.576562 0.875000 0.121875
0.640625 0.875000 0.121875
0.704687 0.875000 0.121875
0.768750 0.875000 0.121875
0.832812 0.875000 0.121875
0.896875 0.875000 0.121875
0.960937 0.875000 0.121875
1.000000 0.875000 0.121875
0.000000 0.937500 0.121875
0.064062 0.937500 0.121875
0.128125 0.937500 0.121875
0.192187 0.937500 0.121875
0.256250 0.937500 0.121875
0.320312 0.937500 0.121875
0.384375 0.937500 0.121875
0.448437 0.937500 0.121875
0.512500 0.937500 0.121875
0.576562 0.937500 0.121875
0.640625 0.937500 0.121875
0.704687 0.937500 0.121875
0.768750 0.937500 0.121875
0.832812 0.937500 0.121875
0.896875 0.937500 0.121875
0.960937 0.937500 0.121875
1.000000 0.937500 0.121875
0.000000 1.000000 0.121875
0.064062 1.000000 0.121875
0.128125 1.000000 0.121875
0.192187 1.000000 0.121875
0.256250 1.000000 0.121875
0.320312 1.000000 0.121875
0.384375 1.000000 0.121875
0.448437 1.000000 0.121875
0.512500 1.000000 0.121875
0.576562 1.000000 0.121875
0.640625 1.000000 0.121875
0.704687 1.000000 0.121875
0.768750 1.000000 0.121875
0.832812 1.000000 0.121875
0.896875 1.000000 0.121875
0.960937 1.000000 0.121875
1.000000 1.000000 0.121875
0.000000 0.000000 0.182812
0.064062 0.000000 0.182812
0.128125 0.000000 0.182812
0.192187 0.000000 0.182812
0.256250 0.000000 0.182812
0.320312 0.000000 0.182812
0.384375 0.000000 0.182812
0.448437 0.000000 0.182812
0.512500 0.000000 0.182812
0.576562 0.000000 0.182812
0.640625 0.000000 0.182812
0.704687 0.000000 0.182812
0.768750 0.000000 0.182812
0.832812 0.000000 0.182812
0.896875 0.000000 0.182812
0.960937 0.000000 0.182812
1.000000 0.000000 0.182812
0.000000 0.062500 0.182812
0.064062 0.062500 0.182812
